<?xml version="1.0" encoding="UTF-8"?>
<map version="1.10" tiledversion="1.12.1" orientation="orthogonal" renderorder="right-down" width="30" height="20" tilewidth="48" tileheight="48" infinite="1" nextlayerid="14" nextobjectid="1330">
  <tileset firstgid="1" source="../Tileset raw images/Flooring Misc 2.tsx" />
  <tileset firstgid="3137" source="../Tileset raw images/Flooring Misc.tsx" />
  <tileset firstgid="6714" source="../Tileset raw images/Church A2.tsx" />
  <tileset firstgid="6906" source="../Tileset raw images/Church B Sheet.tsx" />
  <tileset firstgid="7162" source="../Tileset raw images/Flooring Misc 3.tsx" />
  <tileset firstgid="10739" source="../Tileset raw images/Church D Sheet.tsx" />
  <tileset firstgid="10931" source="../Tileset raw images/Stairs Gothic.tsx" />
  <tileset firstgid="11059" source="../Tileset raw images/Wedding B Sheet.tsx" />
  <tileset firstgid="11315" source="../Tileset raw images/Church A1.tsx" />
  <tileset firstgid="11507" source="../Tileset raw images/Church A4 Sheet.tsx" />
  <tileset firstgid="11747" source="../Tileset raw images/Church C Sheet.tsx" />
  <tileset firstgid="11939" source="../Tileset raw images/Fountain Wall.tsx" />
  <tileset firstgid="12083" source="../Tileset raw images/Fire_Animation.tsx" />
  <tileset firstgid="12107" source="../Tileset raw images/Fountain Large.tsx" />
  <tileset firstgid="12215" source="../Tileset raw images/Ground liquids.tsx" />
  <tileset firstgid="12407" source="../Tileset raw images/Treasure Chest Animations.tsx" />
  <tileset firstgid="12419" source="../Tileset raw images/Arch door.tsx" />
  <tileset firstgid="12527" source="../Tileset raw images/Water 3.tsx" />
  <tileset firstgid="17647" source="../Tileset raw images/Gothic_D.tsx" />
  <tileset firstgid="17903" source="../Tileset raw images/Gothic_B.tsx" />
  <layer id="1" name="Tile Layer 1" width="30" height="20">
    <data encoding="csv">
      <chunk x="96" y="-128" width="16" height="16">
0,0,0,0,6762,6763,6762,6763,6762,6763,6762,6763,6762,6763,6762,6763,
0,0,0,0,6778,6779,6778,6779,6778,6779,6778,6779,6778,6779,6778,6779,
0,0,0,0,6794,6795,6794,6795,6794,6795,6794,6795,6794,6795,6794,6795,
0,0,0,0,6762,6763,6762,6763,6762,6763,6762,6763,6762,6763,6762,6763,
0,0,0,0,6778,6779,6778,6779,6778,6779,6778,6779,6778,6779,6778,6779,
0,0,0,0,6794,6795,6794,6795,6794,6795,6794,6795,6794,6795,6794,6795,
0,0,0,0,6762,6763,6762,6763,6762,6763,6762,6763,6762,6763,6762,6763,
0,0,0,0,6778,6779,6778,6779,6778,6779,6778,6779,6778,6779,6778,6779,
0,0,0,0,6794,6795,6794,6795,6794,6795,6794,6795,6794,6795,6794,6795,
0,0,0,0,6762,6763,6762,6763,6762,6763,6762,6763,6762,6763,6762,6763,
0,0,0,0,6778,6779,6778,6779,6778,6779,6778,6779,6778,6779,6778,6779,
0,0,0,0,6794,6795,6794,6795,6794,6795,6794,6795,6794,6795,6794,6795,
0,0,0,0,6762,6763,6762,6763,6762,6763,6762,6763,6762,6763,6762,6763,
0,0,0,0,6778,6779,6778,6779,6778,6779,6778,6779,6778,6779,6778,6779,
0,0,0,0,6794,6795,6794,6795,6794,6795,6794,6795,6794,6795,6794,6795,
0,0,0,0,6762,6763,6762,6763,6762,6763,6762,6763,6762,6763,6762,6763
</chunk>
      <chunk x="112" y="-128" width="16" height="16">
6762,6763,6762,6763,6762,6763,6762,6763,6762,6763,6762,6763,6762,6763,6762,6763,
6778,6779,6778,6779,6778,6779,6778,6779,6778,6779,6778,6779,6778,6779,6778,6779,
6794,6795,6794,6795,6794,6795,6794,6795,6794,6795,6794,6795,6794,6795,6794,6795,
6762,6763,6762,6763,6762,6763,6762,6763,6762,6763,6762,6763,6762,6763,6762,6763,
6778,6779,6778,6779,6778,6779,6778,6779,6778,6779,6778,6779,6778,6779,6778,6779,
6794,6795,6794,6795,6794,6795,6794,6795,6794,6795,6794,6795,6794,6795,6794,6795,
6762,6763,6762,6763,6762,6763,6762,6763,6762,6763,6762,6763,6762,6763,6762,6763,
6778,6779,6778,6779,6778,6779,6778,6779,6778,6779,6778,6779,6778,6779,6778,6779,
6794,6795,6794,6795,6794,6795,6794,6795,6794,6795,6794,6795,6794,6795,6794,6795,
6762,6763,6762,6763,6762,6763,6762,6763,6762,6763,6762,6763,6762,6763,6762,6763,
6778,6779,6778,6779,6778,6779,6778,6779,6778,6779,6778,6779,6778,6779,6778,6779,
6794,6795,6794,6795,6794,6795,6794,6795,6794,6795,6794,6795,6794,6795,6794,6795,
6762,6763,6762,6763,6762,6763,6762,6763,6762,6763,6762,6763,6762,6763,6762,6763,
6778,6779,6778,6779,6778,6779,6778,6779,6778,6779,6778,6779,6778,6779,6778,6779,
6794,6795,6794,6795,6794,6795,6794,6795,6794,6795,6794,6795,6794,6795,6794,6795,
6762,6763,6762,6763,6762,6763,6762,6763,6762,6763,6762,6763,6762,6763,6762,6763
</chunk>
      <chunk x="128" y="-128" width="16" height="16">
6762,6763,6762,6763,6762,6763,6762,6763,6762,6763,6762,6763,6762,6763,6762,6763,
6778,6779,6778,6779,6778,6779,6778,6779,6778,6779,6778,6779,6778,6779,6778,6779,
6794,6795,6794,6795,6794,6795,6794,6795,6794,6795,6794,6795,6794,6795,6794,6795,
6762,6763,6762,6763,6762,6763,6762,6763,6762,6763,6762,6763,6762,6763,6762,6763,
6778,6779,6778,6779,6778,6779,6778,6779,6778,6779,6778,6779,6778,6779,6778,6779,
6794,6795,6794,6795,6794,6795,6794,6795,6794,6795,6794,6795,6794,6795,6794,6795,
6762,6763,6762,6763,6762,6763,6762,6763,6762,6763,6762,6763,6762,6763,6762,6763,
6778,6779,6778,6779,6778,6779,6778,6779,6778,6779,6778,6779,6778,6779,6778,6779,
6794,6795,6794,6795,6794,6795,6794,6795,6794,6795,6794,6795,6794,6795,6794,6795,
6762,6763,6762,6763,6762,6763,6762,6763,6762,6763,6762,6763,6762,6763,6762,6763,
6778,6779,6778,6779,6778,6779,6778,6779,6778,6779,6778,6779,6778,6779,6778,6779,
6794,6795,6794,6795,6794,6795,6794,6795,6794,6795,6794,6795,6794,6795,6794,6795,
6762,6763,6762,6763,6762,6763,6762,6763,6762,6763,6762,6763,6762,6763,6762,6763,
6778,6779,6778,6779,6778,6779,6778,6779,6778,6779,6778,6779,6778,6779,6778,6779,
6794,6795,6794,6795,6794,6795,6794,6795,6794,6795,6794,6795,6794,6795,6794,6795,
6762,6763,6762,6763,6762,6763,6762,6763,6762,6763,6762,6763,6762,6763,6762,6763
</chunk>
      <chunk x="144" y="-128" width="16" height="16">
6762,6763,6762,6763,6762,6763,6762,6763,6762,6763,6762,6763,6762,6763,6762,6763,
6778,6779,6778,6779,6778,6779,6778,6779,6778,6779,6778,6779,6778,6779,6778,6779,
6794,6795,6794,6795,6794,6795,6794,6795,6794,6795,6794,6795,6794,6795,6794,6795,
6762,6763,6762,6763,6762,6763,6762,6763,6762,6763,6762,6763,6762,6763,6762,6763,
6778,6779,6778,6779,6778,6779,6778,6779,6778,6779,6778,6779,6778,6779,6778,6779,
6794,6795,6794,6795,6794,6795,6794,6795,6794,6795,6794,6795,6794,6795,6794,6795,
6762,6763,6762,6763,6762,6763,6762,6763,6762,6763,6762,6763,6762,6763,6762,6763,
6778,6779,6778,6779,6778,6779,6778,6779,6778,6779,6778,6779,6778,6779,6778,6779,
6794,6795,6794,6795,6794,6795,6794,6795,6794,6795,6794,6795,6794,6795,6794,6795,
6762,6763,6762,6763,6762,6763,6762,6763,6762,6763,6762,6763,6762,6763,6762,6763,
6778,6779,6778,6779,6778,6779,6778,6779,6778,6779,6778,6779,6778,6779,6778,6779,
6794,6795,6794,6795,6794,6795,6794,6795,6794,6795,6794,6795,6794,6795,6794,6795,
6762,6763,6762,6763,6762,6763,6762,6763,6762,6763,6762,6763,6762,6763,6762,6763,
6778,6779,6778,6779,6778,6779,6778,6779,6778,6779,6778,6779,6778,6779,6778,6779,
6794,6795,6794,6795,6794,6795,6794,6795,6794,6795,6794,6795,6794,6795,6794,6795,
6762,6763,6762,6763,6762,6763,6762,6763,6762,6763,6762,6763,6762,6763,6762,6763
</chunk>
      <chunk x="160" y="-128" width="16" height="16">
6762,6763,6762,6763,6762,6763,6762,6763,6762,6763,6762,6763,6762,6763,6762,6763,
6778,6779,6778,6779,6778,6779,6778,6779,6778,6779,6778,6779,6778,6779,6778,6779,
6794,6795,6794,6795,6794,6795,6794,6795,6794,6795,6794,6795,6794,6795,6794,6795,
6762,6763,6762,6763,6762,6763,6762,6763,6762,6763,6762,6763,6762,6763,6762,6763,
6778,6779,6778,6779,6778,6779,6778,6779,6778,6779,6778,6779,6778,6779,6778,6779,
6794,6795,6794,6795,6794,6795,6794,6795,6794,6795,6794,6795,6794,6795,6794,6795,
6762,6763,6762,6763,6762,6763,6762,6763,6762,6763,6762,6763,6762,6763,6762,6763,
6778,6779,6778,6779,6778,6779,6778,6779,6778,6779,6778,6779,6778,6779,6778,6779,
6794,6795,6794,6795,6794,6795,6794,6795,6794,6795,6794,6795,6794,6795,6794,6795,
6762,6763,6762,6763,6762,6763,6762,6763,6762,6763,6762,6763,6762,6763,6762,6763,
6778,6779,6778,6779,6778,6779,6778,6779,6778,6779,6778,6779,6778,6779,6778,6779,
6794,6795,6794,6795,6794,6795,6794,6795,6794,6795,6794,6795,6794,6795,6794,6795,
6762,6763,6762,6763,6762,6763,6762,6763,6762,6763,6762,6763,6762,6763,6762,6763,
6778,6779,6778,6779,6778,6779,6778,6779,6778,6779,6778,6779,6778,6779,6778,6779,
6794,6795,6794,6795,6794,6795,6794,6795,6794,6795,6794,6795,6794,6795,6794,6795,
6762,6763,6762,6763,6762,6763,6762,6763,6762,6763,6762,6763,6762,6763,6762,6763
</chunk>
      <chunk x="176" y="-128" width="16" height="16">
6762,6763,6762,6763,6762,6763,6762,6763,6762,6763,6762,6763,6762,6763,6762,6763,
6778,6779,6778,6779,6778,6779,6778,6779,6778,6779,6778,6779,6778,6779,6778,6779,
6794,6795,6794,6795,6794,6795,6794,6795,6794,6795,6794,6795,6794,6795,6794,6795,
6762,6763,6762,6763,6762,6763,6762,6763,6762,6763,6762,6763,6762,6763,6762,6763,
6778,6779,6778,6779,6778,6779,6778,6779,6778,6779,6778,6779,6778,6779,6778,6779,
6794,6795,6794,6795,6794,6795,6794,6795,6794,6795,6794,6795,6794,6795,6794,6795,
6762,6763,6762,6763,6762,6763,6762,6763,6762,6763,6762,6763,6762,6763,6762,6763,
6778,6779,6778,6779,6778,6779,6778,6779,6778,6779,6778,6779,6778,6779,6778,6779,
6794,6795,6794,6795,6794,6795,6794,6795,6794,6795,6794,6795,6794,6795,6794,6795,
6762,6763,6762,6763,6762,6763,6762,6763,6762,6763,6762,6763,6762,6763,6762,6763,
6778,6779,6778,6779,6778,6779,6778,6779,6778,6779,6778,6779,6778,6779,6778,6779,
6794,6795,6794,6795,6794,6795,6794,6795,6794,6795,6794,6795,6794,6795,6794,6795,
6762,6763,6762,6763,6762,6763,6762,6763,6762,6763,6762,6763,6762,6763,6762,6763,
6778,6779,6778,6779,6778,6779,6778,6779,6778,6779,6778,6779,6778,6779,6778,6779,
6794,6795,6794,6795,6794,6795,6794,6795,6794,6795,6794,6795,6794,6795,6794,6795,
6762,6763,6762,6763,6762,6763,6762,6763,6762,6763,6762,6763,6762,6763,6762,6763
</chunk>
      <chunk x="192" y="-128" width="16" height="16">
6762,6763,6762,6763,6762,6763,6762,6763,6762,6763,6762,6763,6762,6763,6762,6763,
6778,6779,6778,6779,6778,6779,6778,6779,6778,6779,6778,6779,6778,6779,6778,6779,
6794,6795,6794,6795,6794,6795,6794,6795,6794,6795,6794,6795,6794,6795,6794,6795,
6762,6763,6762,6763,6762,6763,6762,6763,6762,6763,6762,6763,6762,6763,6762,6763,
6778,6779,6778,6779,6778,6779,6778,6779,6778,6779,6778,6779,6778,6779,6778,6779,
6794,6795,6794,6795,6794,6795,6794,6795,6794,6795,6794,6795,6794,6795,6794,6795,
6762,6763,6762,6763,6762,6763,6762,6763,6762,6763,6762,6763,6762,6763,6762,6763,
6778,6779,6778,6779,6778,6779,6778,6779,6778,6779,6778,6779,6778,6779,6778,6779,
6794,6795,6794,6795,6794,6795,6794,6795,6794,6795,6794,6795,6794,6795,6794,6795,
6762,6763,6762,6763,6762,6763,6762,6763,6762,6763,6762,6763,6762,6763,6762,6763,
6778,6779,6778,6779,6778,6779,6778,6779,6778,6779,6778,6779,6778,6779,6778,6779,
6794,6795,6794,6795,6794,6795,6794,6795,6794,6795,6794,6795,6794,6795,6794,6795,
6762,6763,6762,6763,6762,6763,6762,6763,6762,6763,6762,6763,6762,6763,6762,6763,
6778,6779,6778,6779,6778,6779,6778,6779,6778,6779,6778,6779,6778,6779,6778,6779,
6794,6795,6794,6795,6794,6795,6794,6795,6794,6795,6794,6795,6794,6795,6794,6795,
6762,6763,6762,6763,6762,6763,6762,6763,6762,6763,6762,6763,6762,6763,6762,6763
</chunk>
      <chunk x="208" y="-128" width="16" height="16">
6762,6763,0,0,0,0,0,0,0,0,0,0,0,0,0,0,
6778,6779,0,0,0,0,0,0,0,0,0,0,0,0,0,0,
6794,6795,0,0,0,0,0,0,0,0,0,0,0,0,0,0,
6762,6763,0,0,0,0,0,0,0,0,0,0,0,0,0,0,
6778,6779,0,0,0,0,0,0,0,0,0,0,0,0,0,0,
6794,6795,0,0,0,0,0,0,0,0,0,0,0,0,0,0,
6762,6763,0,0,0,0,0,0,0,0,0,0,0,0,0,0,
6778,6779,0,0,0,0,0,0,0,0,0,0,0,0,0,0,
6794,6795,0,0,0,0,0,0,0,0,0,0,0,0,0,0,
6762,6763,0,0,0,0,0,0,0,0,0,0,0,0,0,0,
6778,6779,0,0,0,0,0,0,0,0,0,0,0,0,0,0,
6794,6795,0,0,0,0,0,0,0,0,0,0,0,0,0,0,
6762,6763,0,0,0,0,0,0,0,0,0,0,0,0,0,0,
6778,6779,0,0,0,0,0,0,0,0,0,0,0,0,0,0,
6794,6795,0,0,0,0,0,0,0,0,0,0,0,0,0,0,
6762,6763,0,0,0,0,0,0,0,0,0,0,0,0,0,0
</chunk>
      <chunk x="96" y="-112" width="16" height="16">
0,0,0,0,6778,6779,6778,6779,6778,6779,6778,6779,6778,6779,6778,6779,
0,0,0,0,6794,6795,6794,6795,6794,6795,6794,6795,6794,6795,6794,6795,
0,0,0,0,6762,6763,6762,6763,6762,6763,6762,6763,6762,6763,6762,6763,
0,0,0,0,6778,6779,6778,6779,6778,6779,6778,6779,6778,6779,6778,6779,
0,0,0,0,6794,6795,6794,6795,6794,6795,6794,6795,6794,6795,6794,6795,
0,0,0,0,6762,6763,6762,6763,6762,6763,6762,6763,6762,6763,6762,6763,
0,0,0,0,6778,6779,6778,6779,6778,6779,6778,6779,6778,6779,6778,6779,
0,0,0,0,6794,6795,6794,6795,6794,6795,6794,6795,6794,6795,6794,6795,
0,0,0,0,6762,6763,6762,6763,6762,6763,6762,6763,6762,6763,6762,6763,
0,0,0,0,6778,6779,6778,6779,6778,6779,6778,6779,6778,6779,6778,6779,
0,0,0,0,6794,6795,6794,6795,6794,6795,6794,6795,6794,6795,6794,6795,
0,0,0,0,6762,6763,6762,6763,6762,6763,6762,6763,6762,6763,6762,6763,
0,0,0,0,6778,6779,6778,6779,6778,6779,6778,6779,6778,6779,6778,6779,
0,0,0,0,6794,6795,6794,6795,6794,6795,6794,6795,6794,6795,6794,6795,
0,0,0,0,6762,6763,6762,6763,6762,6763,6762,6763,6762,6763,6762,6763,
0,0,0,0,6778,6779,6778,6779,6778,6779,6778,6779,6778,6779,6778,6779
</chunk>
      <chunk x="112" y="-112" width="16" height="16">
6778,6779,6778,6779,6778,6779,6778,6779,6778,6779,6778,6779,6778,6779,6778,6779,
6794,6795,6794,6795,6794,6795,6794,6795,6794,6795,6794,6795,6794,6795,6794,6795,
6762,6763,6762,6763,6762,6763,6762,6763,6762,6763,6762,6763,6762,6763,6762,6763,
6778,6779,6778,6779,6778,6779,6778,6779,6778,6779,6778,6779,6778,6779,6778,6779,
6794,6795,6794,6795,6794,6795,6794,6795,6794,6795,6794,6795,6794,6795,6794,6795,
6762,6763,6762,6763,6762,6763,6762,6763,6762,6763,6762,6763,6762,6763,6762,6763,
6778,6779,6778,6779,6778,6779,6762,6762,6762,6762,6762,6762,6762,6762,6762,6762,
6794,6795,6794,6795,6794,6795,6778,6778,6778,6778,6778,6778,6778,6778,6778,6778,
6762,6763,6762,6763,6762,6763,6794,6794,6794,6794,6794,6794,6794,6794,6794,6794,
6778,6779,6778,6779,6778,6779,6762,6762,6762,6762,6762,6762,6762,6762,6762,6762,
6794,6795,6794,6795,6794,6795,6778,6778,6778,6778,6778,6778,6778,6778,6778,6778,
6762,6763,6762,6763,6762,6763,6794,6794,6794,6794,6794,6794,6794,6794,6794,6794,
6778,6779,6778,6779,6778,6779,6778,6762,4069,4071,4071,4071,4071,4071,4071,4071,
6794,6795,6794,6795,6794,6795,6794,6778,4167,4364,4364,4364,4364,4364,4364,4364,
6762,6763,6762,6763,6762,6763,6762,6794,4167,4364,4364,4364,4364,4364,4364,4364,
6778,6779,6778,6779,6778,6779,6778,6762,4167,4364,4364,4364,4364,4364,4364,4364
</chunk>
      <chunk x="128" y="-112" width="16" height="16">
6778,6779,6778,6779,6778,6779,6778,6779,6778,6779,6778,6779,6778,6779,6778,6779,
6794,6795,6794,6795,6794,6795,6794,6795,6794,6795,6794,6795,6794,6795,6794,6795,
6762,6763,6762,6763,6762,6763,6762,6763,6762,6763,6762,6763,6762,6763,6762,6763,
6778,6779,6778,6779,6778,6779,6778,6779,6778,6779,6778,6779,6778,6779,6778,6779,
6794,6795,6794,6795,6794,6795,6794,6795,6794,6795,6794,6795,6794,6795,6794,6795,
6762,6763,6762,6763,6762,6763,6762,6763,6762,6763,6762,6763,6762,6763,6762,6763,
6762,6762,6762,6762,6762,6762,6762,6762,6762,6762,6762,6762,6762,6762,6762,6762,
6778,6778,6778,6778,6778,6778,6778,6778,6778,6778,6778,6778,6778,6778,6778,6778,
6794,6794,6794,6794,6794,6794,6794,6794,6794,6794,6794,6794,6794,6794,6794,6794,
6762,6762,6762,6762,6762,6762,6762,6762,6762,6762,6762,6762,6762,6762,6762,6762,
6778,6778,6778,6778,6778,6778,6778,6778,6778,6778,6778,6778,6778,6778,6778,6778,
6794,6794,6794,6794,6794,6794,6794,6794,6794,6794,6794,6794,6794,6794,6794,6794,
4071,4071,4071,4071,4071,4071,4071,4071,4071,4071,4071,4071,4071,4071,4071,4071,
4364,4364,4364,4364,4364,4364,4364,4364,4364,4364,4364,4364,4364,4364,4364,4364,
4364,4364,4364,4364,4364,4364,4364,4364,4364,4364,4364,4364,4364,4364,4364,4364,
4364,4364,4364,4364,4364,4364,4364,4364,4364,4364,4364,4364,4364,4364,4364,4364
</chunk>
      <chunk x="144" y="-112" width="16" height="16">
6778,6779,6778,6779,6778,6779,6778,6779,6778,6779,6778,6779,6778,6779,6778,6779,
6794,6795,6794,6795,6794,6795,6794,6795,6794,6795,6794,6795,6794,6795,6794,6795,
6762,6763,6762,6763,6762,6763,6762,6763,6762,6763,6762,6763,6762,6763,6762,6763,
6778,6779,6778,6779,6778,6779,6778,6779,6778,6779,6778,6779,6778,6779,6778,6779,
6794,6795,6794,6795,6794,6795,6794,6795,6794,6795,6794,6795,6794,6795,6794,6795,
6762,6763,6762,6763,6762,6763,6762,6763,6762,6763,6762,6763,6762,6763,6762,6763,
6762,6762,6762,6762,6762,6762,6762,6762,6762,6762,6762,6762,6762,6762,6762,6762,
6778,6778,6778,6778,6778,6778,6778,6778,6778,6778,6778,6778,6778,6778,6778,6778,
6794,6794,6794,6794,6794,6794,6794,6794,6794,6794,6794,6794,6794,6794,6794,6794,
6762,6762,6762,6762,6762,6762,6762,6762,6762,6762,6762,6762,6762,6762,6762,6762,
6778,6778,6778,6778,6778,6778,6778,6778,6778,6778,6778,6778,6778,6778,6778,6778,
6794,6794,6794,6794,6794,6794,6794,6794,6794,6794,6794,6794,6794,6794,6794,6794,
4071,4071,4071,4071,4071,4071,4071,4071,4071,4071,4071,4071,4071,4071,4071,4071,
4364,4364,4364,4364,4364,4364,4364,4364,4364,4364,4364,4364,4364,4364,4364,4364,
4364,4364,4364,4364,4364,4364,4364,4364,4364,4364,4364,4364,4364,4364,4364,4364,
4364,4364,4364,4364,4364,4364,4364,4364,4364,4364,4364,4364,4364,4364,4364,4364
</chunk>
      <chunk x="160" y="-112" width="16" height="16">
6778,6779,6778,6779,6778,6779,6778,6779,6778,6779,6778,6779,6778,6779,6778,6779,
6794,6795,6794,6795,6794,6795,6794,6795,6794,6795,6794,6795,6794,6795,6794,6795,
6762,6763,6762,6763,6762,6763,6762,6763,6762,6763,6762,6763,6762,6763,6762,6763,
6778,6779,6778,6779,6778,6779,6778,6779,6778,6779,6778,6779,6778,6779,6778,6779,
6794,6795,6794,6795,6794,6795,6794,6795,6794,6795,6794,6795,6794,6795,6794,6795,
6762,6763,6762,6763,6762,6763,6762,6763,6762,6763,6762,6763,6762,6763,6762,6763,
6762,6762,6762,6762,6762,6762,6762,6762,6762,6762,6762,6762,6762,6762,6762,6762,
6778,6778,6778,6778,6778,6778,6778,6778,6778,6778,6778,6778,6778,6778,6778,6778,
6794,6794,6794,6794,6794,6794,6794,6794,6794,6794,6794,6794,6794,6794,6794,6794,
6762,6762,6762,6762,6762,6762,6762,6762,6762,6762,6762,6762,6762,6762,6762,6762,
6778,6778,6778,6778,6778,6778,6778,6778,6778,6778,6778,6778,6778,6778,6778,6778,
6794,6794,6794,6794,6794,6794,6794,6794,6794,6794,6794,6794,6794,6794,6794,6794,
4071,4071,4071,4071,4071,4071,4071,4071,4071,4071,4071,4071,4071,4071,4071,4071,
4364,4364,4364,4364,4364,4364,4364,4364,4364,4364,4364,4364,4364,4364,4364,4364,
4364,4364,4364,4364,4364,4364,4364,4364,4364,4364,4364,4364,4364,4364,4364,4364,
4364,4364,4364,4364,4364,4364,4364,4364,4364,4364,4364,4364,4364,4364,4364,4364
</chunk>
      <chunk x="176" y="-112" width="16" height="16">
6778,6779,6778,6779,6778,6779,6778,6779,6778,6779,6778,6779,6778,6779,6778,6779,
6794,6795,6794,6795,6794,6795,6794,6795,6794,6795,6794,6795,6794,6795,6794,6795,
6762,6763,6762,6763,6762,6763,6762,6763,6762,6763,6762,6763,6762,6763,6762,6763,
6778,6779,6778,6779,6778,6779,6778,6779,6778,6779,6778,6779,6778,6779,6778,6779,
6794,6795,6794,6795,6794,6795,6794,6795,6794,6795,6794,6795,6794,6795,6794,6795,
6762,6763,6762,6763,6762,6763,6762,6763,6762,6763,6762,6763,6762,6763,6762,6763,
6762,6762,6762,6762,6762,6762,6762,6762,6762,6762,6762,6762,6762,6762,6762,6779,
6778,6778,6778,6778,6778,6778,6778,6778,6778,6778,6778,6778,6778,6778,6778,6795,
6794,6794,6794,6794,6794,6794,6794,6794,6794,6794,6794,6794,6794,6794,6794,6763,
6762,6762,6762,6762,6762,6762,6762,6762,6762,6762,6762,6762,6762,6762,6762,6779,
6778,6778,6778,6778,6778,6778,6778,6778,6778,6778,6778,6778,6778,6778,6778,6795,
6794,6794,6794,6794,6794,6794,6794,6794,6794,6794,6794,6794,6794,6794,6794,6763,
4071,4071,4071,4071,4071,4071,4071,4071,4071,4071,4071,4071,4071,4073,6762,6779,
4364,4364,4364,4364,4364,4364,4364,4364,4364,4364,4364,4364,4364,4171,6778,6795,
4364,4364,4364,4364,4364,4364,4364,4364,4364,4364,4364,4364,4364,4171,6794,6763,
4364,4364,4364,4364,4364,4364,4364,4364,4364,4364,4364,4364,4364,4171,6762,6779
</chunk>
      <chunk x="192" y="-112" width="16" height="16">
6778,6779,6778,6779,6778,6779,6778,6779,6778,6779,6778,6779,6778,6779,6778,6779,
6794,6795,6794,6795,6794,6795,6794,6795,6794,6795,6794,6795,6794,6795,6794,6795,
6762,6763,6762,6763,6762,6763,6762,6763,6762,6763,6762,6763,6762,6763,6762,6763,
6778,6779,6778,6779,6778,6779,6778,6779,6778,6779,6778,6779,6778,6779,6778,6779,
6794,6795,6794,6795,6794,6795,6794,6795,6794,6795,6794,6795,6794,6795,6794,6795,
6762,6763,6762,6763,6762,6763,6762,6763,6762,6763,6762,6763,6762,6763,6762,6763,
6778,6779,6778,6779,6778,6779,6778,6779,6778,6779,6778,6779,6778,6779,6778,6779,
6794,6795,6794,6795,6794,6795,6794,6795,6794,6795,6794,6795,6794,6795,6794,6795,
6762,6763,6762,6763,6762,6763,6762,6763,6762,6763,6762,6763,6762,6763,6762,6763,
6778,6779,6778,6779,6778,6779,6778,6779,6778,6779,6778,6779,6778,6779,6778,6779,
6794,6795,6794,6795,6794,6795,6794,6795,6794,6795,6794,6795,6794,6795,6794,6795,
6762,6763,6762,6763,6762,6763,6762,6763,6762,6763,6762,6763,6762,6763,6762,6763,
6778,6779,6778,6779,6778,6779,6778,6779,6778,6779,6778,6779,6778,6779,6778,6779,
6794,6795,6794,6795,6794,6795,6794,6795,6794,6795,6794,6795,6794,6795,6794,6795,
6762,6763,6762,6763,6762,6763,6762,6763,6762,6763,6762,6763,6762,6763,6762,6763,
6778,6779,6778,6779,6778,6779,6778,6779,6778,6779,6778,6779,6778,6779,6778,6779
</chunk>
      <chunk x="208" y="-112" width="16" height="16">
6778,6779,0,0,0,0,0,0,0,0,0,0,0,0,0,0,
6794,6795,0,0,0,0,0,0,0,0,0,0,0,0,0,0,
6762,6763,0,0,0,0,0,0,0,0,0,0,0,0,0,0,
6778,6779,0,0,0,0,0,0,0,0,0,0,0,0,0,0,
6794,6795,0,0,0,0,0,0,0,0,0,0,0,0,0,0,
6762,6763,460,460,460,460,460,460,460,460,460,460,460,460,460,460,
6778,6779,460,460,460,460,460,460,460,460,460,460,460,460,460,460,
6794,6795,460,460,460,460,460,460,460,460,460,460,460,460,460,460,
6762,6763,460,460,460,460,460,460,460,460,460,460,460,460,460,460,
6778,6779,460,460,460,460,460,460,460,460,460,460,460,460,460,460,
6794,6795,460,460,460,460,460,460,460,460,460,460,460,460,460,460,
6762,6763,460,460,460,460,460,460,460,460,460,460,460,460,460,460,
6778,6779,460,460,460,460,460,460,460,460,460,460,460,460,460,460,
6794,6795,460,460,460,460,460,460,460,460,460,460,460,460,460,460,
6762,6763,460,460,460,460,460,460,460,460,460,460,460,460,460,460,
6778,6779,460,460,460,460,460,460,460,460,460,460,460,460,460,460
</chunk>
      <chunk x="224" y="-112" width="16" height="16">
0,0,0,0,0,0,0,0,0,0,0,0,0,0,0,0,
0,0,0,0,0,0,0,0,0,0,0,0,0,0,0,0,
0,0,0,0,0,0,0,0,0,0,0,0,0,0,0,0,
0,0,0,0,0,0,0,0,0,0,0,0,0,0,0,0,
0,0,0,0,0,0,0,0,0,0,0,0,0,0,0,0,
460,460,460,460,460,460,460,460,460,460,460,460,460,460,460,460,
460,460,460,460,460,460,460,460,460,460,460,460,460,460,460,460,
460,460,460,460,460,460,460,460,460,460,460,460,460,460,460,460,
460,460,460,460,460,460,460,460,460,460,460,460,460,460,460,460,
460,460,460,460,460,460,460,460,460,460,460,460,460,460,460,460,
460,460,460,460,460,460,460,460,460,460,460,460,460,460,460,460,
460,460,460,460,460,460,460,460,460,460,460,460,460,460,460,460,
460,460,460,460,460,460,460,460,460,460,460,460,460,460,460,460,
460,460,460,460,460,460,460,460,460,460,460,460,460,460,460,460,
460,460,460,460,460,460,460,460,460,460,460,460,460,460,460,460,
460,460,460,460,460,460,460,460,460,460,460,460,460,460,460,460
</chunk>
      <chunk x="240" y="-112" width="16" height="16">
0,0,0,0,0,0,0,0,0,0,0,0,0,0,0,0,
0,0,0,0,0,0,0,0,0,0,0,0,0,0,0,0,
0,0,0,0,0,0,0,0,0,0,0,0,0,0,0,0,
0,0,0,0,0,0,0,0,0,0,0,0,0,0,0,0,
0,0,0,0,0,0,0,0,0,0,0,0,0,0,0,0,
460,460,460,460,460,460,460,460,0,0,0,0,0,0,0,0,
460,460,460,460,460,460,460,460,0,0,0,0,0,0,0,0,
460,460,460,460,460,460,460,460,0,0,0,0,0,0,0,0,
460,460,460,460,460,460,460,460,0,0,0,0,0,0,0,0,
460,460,460,460,460,460,460,460,0,0,0,0,0,0,0,0,
460,460,460,460,460,460,460,460,0,0,0,0,0,0,0,0,
460,460,460,460,460,460,460,460,0,0,0,0,0,0,0,0,
460,460,460,460,460,460,460,460,0,0,0,0,0,0,0,0,
460,460,460,460,460,460,460,460,0,0,0,0,0,0,0,0,
460,460,460,460,460,460,460,460,0,0,0,0,0,0,0,0,
460,460,460,460,460,460,460,460,0,0,0,0,0,0,0,0
</chunk>
      <chunk x="16" y="-96" width="16" height="16">
0,0,0,0,0,0,0,0,0,0,0,0,0,0,0,0,
0,0,0,0,0,0,0,0,0,0,0,0,0,0,0,0,
0,0,0,0,0,0,0,0,0,0,0,0,0,0,0,0,
0,0,0,0,0,0,0,0,0,0,0,0,0,0,0,0,
0,0,0,0,0,0,0,0,0,0,0,0,0,0,0,0,
0,0,0,0,0,0,0,0,0,0,0,0,0,0,0,0,
0,0,0,0,0,0,0,0,0,0,0,0,0,0,6794,6795,
0,0,0,0,0,0,0,0,0,0,0,0,0,0,6762,6763,
0,0,0,0,0,0,0,0,0,0,0,0,0,0,6778,6779,
0,0,0,0,0,0,0,0,0,0,0,0,0,0,6794,6795,
0,0,0,0,0,0,0,0,0,0,0,0,0,0,6762,6763,
0,0,0,0,0,0,0,0,0,0,0,0,0,0,6778,6779,
0,0,0,0,0,0,0,0,0,0,0,0,0,0,6794,6795,
0,0,0,0,0,0,0,0,0,0,0,0,0,0,6762,6763,
0,0,0,0,0,0,0,0,0,0,0,0,0,0,6778,6779,
0,0,0,0,0,0,0,0,0,0,0,0,0,0,6794,6795
</chunk>
      <chunk x="32" y="-96" width="16" height="16">
0,0,0,0,0,0,0,0,0,0,0,0,0,0,0,0,
0,0,0,0,0,0,0,0,0,0,0,0,0,0,0,0,
0,0,0,0,0,0,0,0,0,0,0,0,0,0,0,0,
0,0,0,0,0,0,0,0,0,0,0,0,0,0,0,0,
0,0,0,0,0,0,0,0,0,0,0,0,0,0,0,0,
0,0,0,0,0,0,0,0,0,0,0,0,0,0,0,0,
6794,6795,6794,6795,6794,6795,6794,6795,6794,6795,6794,6795,6794,6795,6794,6795,
6762,6763,6762,6763,6762,6763,6762,6763,6762,6763,6762,6763,6762,6763,6762,6763,
6778,6779,6778,6779,6778,6779,6778,6779,6778,6779,6778,6779,6778,6779,6778,6779,
6794,6795,6794,6795,6794,6795,6794,6795,6794,6795,6794,6795,6794,6795,6794,6795,
6762,6763,6762,6763,6762,6763,6762,6763,6762,6763,6762,6763,6762,6763,6762,6763,
6778,6779,6778,6779,6778,6779,6778,6779,6778,6779,6778,6779,6778,6779,6778,6779,
6794,6795,6794,6795,6794,6795,6794,6795,6794,6795,6794,6795,6794,6795,6794,6795,
6762,6763,6762,6763,6762,6763,6762,6763,6762,6763,6762,6763,6762,6763,6762,6763,
6778,6779,6778,6779,6778,6779,6778,6779,6778,6779,6778,6779,6778,6779,6778,6779,
6794,6795,6794,6795,6794,6795,6794,6795,6794,6795,6794,6795,6794,6795,6794,6795
</chunk>
      <chunk x="48" y="-96" width="16" height="16">
0,0,0,0,0,0,0,0,0,0,0,0,0,0,0,0,
0,0,0,0,0,0,0,0,0,0,0,0,0,0,0,0,
0,0,0,0,0,0,0,0,0,0,0,0,0,0,0,0,
0,0,0,0,0,0,0,0,0,0,0,0,0,0,0,0,
0,0,0,0,0,0,0,0,0,0,0,0,0,0,0,0,
0,0,0,0,0,0,0,0,0,0,0,0,0,0,0,0,
6794,6795,6794,6795,6794,6795,6794,6795,6794,6795,6794,6795,6794,6795,6794,6795,
6762,6763,6762,6763,6762,6763,6762,6763,6762,6763,6762,6763,6762,6763,6762,6763,
6778,6779,6778,6779,6778,6779,6778,6779,6778,6779,6778,6779,6778,6779,6778,6779,
6794,6795,6794,6795,6794,6795,6794,6795,6794,6795,6794,6795,6794,6795,6794,6795,
6762,6763,6762,6763,6762,6763,6762,6763,6762,6763,6762,6763,6762,6763,6762,6763,
6778,6779,6778,6779,6778,6779,6778,6779,6778,6779,6778,6779,6778,6779,6778,6779,
6794,6795,6794,6795,6794,6795,6794,6795,6794,6795,6794,6795,6794,6795,6794,6795,
6762,6763,6762,6763,6762,6763,6762,6763,6762,6763,6762,6763,6762,6763,6762,6763,
6778,6779,6778,6779,6778,6779,6778,6779,6778,6779,6778,6779,6778,6779,6778,6779,
6794,6795,6794,6795,6794,6795,6794,6795,6794,6795,6794,6795,6794,6795,6794,6795
</chunk>
      <chunk x="64" y="-96" width="16" height="16">
0,0,0,0,0,0,0,0,0,0,0,0,0,0,0,0,
0,0,0,0,0,0,0,0,0,0,0,0,0,0,0,0,
0,0,0,0,0,0,0,0,0,0,0,0,0,0,0,0,
0,0,0,0,0,0,0,0,0,0,0,0,0,0,0,0,
0,0,0,0,0,0,0,0,0,0,0,0,0,0,0,0,
0,0,0,0,0,0,0,0,0,0,0,0,0,0,0,0,
6794,6795,6794,6795,6794,6795,6794,6795,6794,6795,6794,6795,6794,6795,6794,6795,
6762,6763,6762,6763,6762,6763,6762,6763,6762,6763,6762,6763,6762,6763,6762,6763,
6778,6779,6778,6779,6778,6779,6778,6779,6778,6779,6778,6779,6778,6779,6778,6779,
6794,6795,6794,6795,6794,6795,6794,6795,6794,6795,6794,6795,6794,6795,6794,6795,
6762,6763,6762,6763,6762,6763,6762,6763,6762,6763,6762,6763,6762,6763,6762,6763,
6778,6779,6778,6779,6778,6779,6778,6779,6778,6779,6778,6779,6778,6779,6778,6779,
6794,6795,6794,6795,6794,6795,6794,6795,6794,6795,6794,6795,6794,6795,6794,6795,
6762,6763,6762,6763,6762,6763,6762,6763,6762,6763,6762,6763,6762,6763,6762,6763,
6778,6779,6778,6779,6778,6779,6778,6779,6778,6779,6778,6779,6778,6779,6778,6779,
6794,6795,6794,6795,6794,6795,6794,6795,6794,6795,6794,6795,6794,6795,6794,6795
</chunk>
      <chunk x="80" y="-96" width="16" height="16">
0,0,0,0,0,0,0,0,0,0,0,0,0,0,0,0,
0,0,0,0,0,0,0,0,0,0,0,0,0,0,0,0,
0,0,0,0,0,0,0,0,0,0,0,0,0,0,0,0,
0,0,0,0,0,0,0,0,0,0,0,0,0,0,0,0,
0,0,0,0,0,0,0,0,0,0,0,0,0,0,0,0,
0,0,0,0,0,0,0,0,0,0,0,0,0,0,0,0,
6794,6795,6794,6795,6794,6795,6794,6795,6794,6795,6794,6795,6794,6795,6794,6795,
6762,6763,6762,6763,6762,6763,6762,6763,6762,6763,6762,6763,6762,6763,6762,6763,
6778,6779,6778,6779,6778,6779,6778,6779,6778,6779,6778,6779,6778,6779,6778,6779,
6794,6795,6794,6795,6794,6795,6794,6795,6794,6795,6794,6795,6794,6795,6794,6795,
6762,6763,6762,6763,6762,6763,6762,6763,6762,6763,6762,6763,6762,6763,6762,6763,
6778,6779,6778,6779,6778,6779,6778,6779,6778,6779,6778,6779,6778,6779,6778,6779,
6794,6795,6794,6795,6794,6795,6794,6795,6794,6795,6794,6795,6794,6795,6794,6795,
6762,6763,6762,6763,6762,6763,6762,6763,6762,6763,6762,6763,6762,6763,6762,6763,
6778,6779,6778,6779,6778,6779,6778,6779,6778,6779,6778,6779,6778,6779,6778,6779,
6794,6795,6794,6795,6794,6795,6794,6795,6794,6795,6794,6795,6794,6795,6794,6795
</chunk>
      <chunk x="96" y="-96" width="16" height="16">
0,0,0,0,6794,6795,6794,6795,6794,6795,6794,6795,6794,6795,6794,6795,
0,0,0,0,6762,6763,6762,6763,6762,6763,6762,6763,6762,6763,6762,6763,
0,0,0,0,6778,6779,6778,6779,6778,6779,6778,6779,6778,6779,6778,6779,
0,0,0,0,6794,6795,6794,6795,6794,6795,6794,6795,6794,6795,6794,6795,
0,0,0,0,6762,6763,6762,6763,6762,6763,6762,6763,6762,6763,6762,6763,
0,0,0,0,6778,6779,6778,6779,6778,6779,6778,6779,6778,6779,6778,6779,
6794,6795,6794,6795,6794,6795,6794,6795,6794,6795,6794,6795,6794,6795,6794,6795,
6762,6763,6762,6763,6762,6763,6762,6763,6762,6763,6762,6763,6762,6763,6762,6763,
6778,6779,6778,6779,6778,6779,6778,6779,6778,6779,6778,6779,6778,6779,6778,6779,
6794,6795,6794,6795,6794,6795,6794,6795,6794,6795,6794,6795,6794,6795,6794,6795,
6762,6763,6762,6763,6762,6763,6762,6763,6762,6763,6762,6763,6762,6763,6762,6763,
6778,6779,6778,6779,6778,6779,6778,6779,6778,6779,6778,6779,6778,6779,6778,6779,
6794,6795,6794,6795,6794,6795,6794,6795,6794,6795,6794,6795,6794,6795,6794,6795,
6762,6763,6762,6763,6762,6763,6762,6763,6762,6763,6762,6763,6762,6763,6762,6763,
6778,6779,6778,6779,6778,6779,6778,6779,6778,6779,6778,6779,6778,6779,6778,6779,
6794,6795,6794,6795,6794,6795,6794,6795,6794,6795,6794,6795,6794,6795,6794,6795
</chunk>
      <chunk x="112" y="-96" width="16" height="16">
6794,6795,6794,6795,6794,6795,6794,6778,4167,4364,4364,4364,4364,4364,4364,4364,
6762,6763,6762,6763,6762,6763,6762,6794,4167,4364,4364,4364,4364,4364,4364,4364,
6778,6779,6778,6779,6778,6779,6778,6762,4167,4364,4364,4364,4364,4364,4364,4364,
6794,6795,6794,6795,6794,6795,6794,6778,4167,4364,4364,4364,4364,4364,4364,4364,
6762,6763,6762,6763,6762,6763,6762,6794,4167,4364,4364,4364,4364,4364,4364,4364,
6778,6779,6778,6779,6778,6779,6778,6762,4167,4364,4364,4364,4364,4364,4364,4364,
6794,6795,6794,6795,6794,6795,6794,6778,4167,4364,4364,4364,4364,4364,4364,4364,
6762,6763,6762,6763,6762,6763,6762,6794,4167,4364,4364,4364,4364,4364,4364,4364,
6778,6779,6778,6779,6778,6779,6778,6762,4167,4364,4364,4364,4364,4364,4364,4364,
6794,6795,6794,6795,6794,6795,6794,6778,4167,4364,4364,4364,4364,4364,4364,4364,
6762,6763,6762,6763,6762,6763,6762,6794,4167,4364,4364,4364,4364,4364,4364,4364,
6778,6779,6778,6779,6778,6779,6778,6762,4167,4364,4364,4364,4364,4364,4364,4364,
6794,6795,6794,6795,6794,6795,6794,6778,4167,4364,4364,4364,4364,4364,4364,4364,
6762,6763,6762,6763,6762,6763,6762,6794,4167,4364,4364,4364,4364,4364,4364,4364,
6778,6779,6778,6779,6778,6779,6778,6762,4167,4364,4364,4364,4364,4364,4364,4364,
6794,6795,6794,6795,6794,6795,6794,6778,4167,4364,4364,4364,4364,4364,4364,4364
</chunk>
      <chunk x="128" y="-96" width="16" height="16">
4364,4364,4364,4364,4364,4364,4364,4364,4364,4364,4364,4364,4364,4364,4364,4364,
4364,4364,4364,4364,4364,4364,4364,4364,4364,4364,4364,4364,4364,4364,4364,4364,
4364,4364,4364,4364,4364,4364,4364,4364,4364,4364,4364,4364,4364,4364,4364,4364,
4364,4364,4364,4364,4364,4364,4364,4364,4364,4364,4364,4364,4364,4364,4364,4364,
4364,4364,4364,4364,4364,4364,4364,4364,4364,4364,4364,4364,4364,4364,4364,4364,
4364,4364,4364,4364,4364,4364,4364,4364,4364,4364,4364,4364,4364,4364,4364,4364,
4364,4364,4364,4364,4364,4364,4364,4364,4364,4364,4364,4364,4364,4364,4364,4364,
4364,4364,4364,4364,4364,4364,4364,4364,4364,4364,4364,4364,4364,4364,4364,4364,
4364,4364,4364,4364,4364,4364,4364,4364,4364,4364,4364,4364,4364,4364,4364,4364,
4364,4364,4364,4364,4364,4364,4364,4364,4364,4364,4364,4364,4364,4364,4364,4364,
4364,4364,4364,4364,4364,4364,4364,4364,4364,4364,4364,4364,4364,4364,4364,4364,
4364,4364,4364,4364,4364,4364,4364,4364,4364,4364,4364,4364,4364,4364,4364,4364,
4364,4364,4364,4364,4364,4364,4364,4364,4364,4364,4364,4364,4364,4364,4364,4364,
4364,4364,4364,4364,4364,4364,4364,4364,4364,4364,4364,4364,4364,4364,4364,4364,
4364,4364,4364,4364,4364,4364,4364,4364,4364,4364,4364,4364,4364,4364,4364,4364,
4364,4364,4364,4364,4364,4364,4364,4364,4364,4364,4364,4364,4364,4364,4364,4364
</chunk>
      <chunk x="144" y="-96" width="16" height="16">
4364,4364,4364,4364,4364,4364,4364,4364,4364,4364,4364,4364,4364,4364,4364,4364,
4364,4364,4364,4364,4364,4364,4364,4364,4364,4364,4364,4364,4364,4364,4364,4364,
4364,4364,4364,4364,4364,4364,4364,4364,4364,4364,4364,4364,4364,4364,4364,4364,
4364,4364,4364,4364,4364,4364,4364,4364,4364,4364,4364,4364,4364,4364,4364,4364,
4364,4364,4364,4364,4364,4364,4364,4364,4364,4364,4364,4364,4364,4364,4364,4364,
4364,4364,4364,4364,4364,4364,4364,4364,4364,4364,4364,4364,4364,4364,4364,4364,
4364,4364,4364,4364,4364,4364,4364,4364,4364,8547,8549,8549,8551,4364,4364,4364,
4364,4364,4364,4364,4364,4364,4364,4364,4364,8645,8842,8842,8649,4364,4364,4364,
4364,4364,4364,4364,4364,4364,4364,4364,4364,8645,8842,8842,8649,4364,4364,4364,
4364,4364,4364,4364,4364,4364,4364,4364,4364,8645,8842,8842,8649,4364,4364,4364,
4364,4364,4364,4364,4364,4364,4364,4364,4364,8645,8842,8842,8649,4364,4364,4364,
4364,4364,4364,4364,4364,4364,4364,4364,4364,8645,8842,8842,8649,4364,4364,4364,
4364,4364,4364,4364,4364,4364,4364,4364,4364,8645,8842,8842,8649,4364,4364,4364,
4364,4364,4364,4364,4364,4364,4364,4364,4364,8645,8842,8842,8649,4364,4364,4364,
4364,4364,4364,4364,4364,4364,4364,4364,4364,8645,8842,8842,8649,4364,4364,4364,
4364,4364,4364,4364,4364,4364,4364,4364,4364,8645,8842,8842,8649,4364,4364,4364
</chunk>
      <chunk x="160" y="-96" width="16" height="16">
4364,4364,4364,4364,4364,4364,4364,4364,4364,4364,4364,4364,4364,4364,4364,4364,
4364,4364,4364,4364,4364,4364,4364,4364,4364,4364,4364,4364,4364,4364,4364,4364,
4364,4364,4364,4364,4364,4364,4364,4364,4364,4364,4364,4364,4364,4364,4364,4364,
4364,4364,4364,4364,4364,4364,4364,4364,4364,4364,4364,4364,4364,4364,4364,4364,
4364,4364,4364,4364,4364,4364,4364,4364,4364,4364,4364,4364,4364,4364,4364,4364,
4364,4364,4364,4364,4364,4364,4364,4364,4364,4364,4364,4364,4364,4364,4364,4364,
4364,4364,4364,4364,4364,4364,4364,4364,4364,4364,4364,4364,4364,4364,4364,4364,
4364,4364,4364,4364,4364,4364,4364,4364,4364,4364,4364,4364,4364,4364,4364,4364,
4364,4364,4364,4364,4364,4364,4364,4364,4364,4364,4364,4364,4364,4364,4364,4364,
4364,4364,4364,4364,4364,4364,4364,4364,4364,4364,4364,4364,4364,4364,4364,4364,
4364,4364,4364,4364,4364,4364,4364,4364,4364,4364,4364,4364,4364,4364,4364,4364,
4364,4364,4364,4364,4364,4364,4364,4364,4364,4364,4364,4364,4364,4364,4364,4364,
4364,4364,4364,4364,4364,4364,4364,4364,4364,4364,4364,4364,4364,4364,4364,4364,
4364,4364,4364,4364,4364,4364,4364,4364,4364,4364,4364,4364,4364,4364,4364,4364,
4364,4364,4364,4364,4364,4364,4364,4364,4364,4364,4364,4364,4364,4364,4364,4364,
4364,4364,4364,4364,4364,4364,4364,4364,4364,4364,4364,4364,4364,4364,4364,4364
</chunk>
      <chunk x="176" y="-96" width="16" height="16">
4364,4364,4364,4364,4364,4364,4364,4364,4364,4364,4364,4364,4364,4171,6778,6795,
4364,4364,4364,4364,4364,4364,4364,4364,4364,4364,4364,4364,4364,4171,6794,6763,
4364,4364,4364,4364,4364,4364,4364,4364,4364,4364,4364,4364,4364,4171,6762,6779,
4364,4364,4364,4364,4364,4364,4364,4364,4364,4364,4364,4364,4364,4171,6778,6795,
4364,4364,4364,4364,4364,4364,4364,4364,4364,4364,4364,4364,4364,4171,6794,6763,
4364,4364,4364,4364,4364,4364,4364,4364,4364,4364,4364,4364,4364,4171,6762,6779,
4364,4364,4364,4364,4364,4364,4364,4364,4364,4364,4364,4364,4364,4171,6778,6795,
4364,4364,4364,4364,4364,4364,4364,4364,4364,4364,4364,4364,4364,4171,6794,6763,
4364,4364,4364,4364,4364,4364,4364,4364,4364,4364,4364,4364,4364,4171,6762,6779,
4364,4364,4364,4364,4364,4364,4364,4364,4364,4364,4364,4364,4364,4171,6778,6795,
4364,4364,4364,4364,4364,4364,4364,4364,4364,4364,4364,4364,4364,4171,6794,6763,
4364,4364,4364,4364,4364,4364,4364,4364,4364,4364,4364,4364,4364,4171,6762,6779,
4364,4364,4364,4364,4364,4364,4364,4364,4364,4364,4364,4364,4364,4171,6778,6795,
4364,4364,4364,4364,4364,4364,4364,4364,4364,4364,4364,4364,4364,4171,6794,6763,
4364,4364,4364,4364,4364,4364,4364,4364,4364,4364,4364,4364,4364,4171,6762,6779,
4364,4364,4364,4364,4364,4364,4364,4364,4364,4364,4364,4364,4364,4171,6778,6795
</chunk>
      <chunk x="192" y="-96" width="16" height="16">
6794,6795,6794,6795,6794,6795,6794,6795,6794,6795,6794,6795,6794,6795,6794,6795,
6762,6763,6762,6763,6762,6763,6762,6763,6762,6763,6762,6763,6762,6763,6762,6763,
6778,6779,6778,6779,6778,6779,6778,6779,6778,6779,6778,6779,6778,6779,6778,6779,
6794,6795,6794,6795,6794,6795,6794,6795,6794,6795,6794,6795,6794,6795,6794,6795,
6762,6763,6762,6763,6762,6763,6762,6763,6762,6763,6762,6763,6762,6763,6762,6763,
6778,6779,6778,6779,6778,6779,6778,6779,6778,6779,6778,6779,6778,6779,6778,6779,
6794,6795,6794,6795,6794,6795,6794,6795,6794,6795,6794,6795,6794,6795,6794,6795,
6762,6763,6762,6763,6762,6763,6762,6763,6762,6763,6762,6763,6762,6763,6762,6763,
6778,6779,6778,6779,6778,6779,6778,6779,6778,6779,6778,6779,6778,6779,6778,6779,
6794,6795,6794,6795,6794,6795,6794,6795,6794,6795,6794,6795,6794,6795,6794,6795,
6762,6763,6762,6763,6762,6763,6762,6763,6762,6763,6762,6763,6762,6763,6762,6763,
6778,6779,6778,6779,6778,6779,6778,6779,6778,6779,6778,6779,6778,6779,6778,6779,
6794,6795,6794,6795,6794,6795,6794,6795,6794,6795,6794,6795,6794,6795,6794,6795,
6762,6763,6762,6763,6762,6763,6762,6763,6762,6763,6762,6763,6762,6763,6762,6763,
6778,6779,6778,6779,6778,6779,6778,6779,6778,6779,6778,6779,6778,6779,6778,6779,
6794,6795,6794,6795,6794,6795,6794,6795,6794,6795,6794,6795,6794,6795,6794,6795
</chunk>
      <chunk x="208" y="-96" width="16" height="16">
6794,6795,460,460,460,460,460,460,460,460,460,460,460,460,460,460,
6762,6763,460,460,460,460,460,460,460,460,460,460,460,460,460,460,
6778,6779,460,460,460,460,460,460,460,460,460,460,460,460,460,460,
6794,6795,460,460,460,460,460,460,460,460,460,460,460,460,460,460,
6762,6763,460,460,460,460,460,460,460,460,460,460,460,460,460,460,
6778,6779,460,460,460,460,460,460,460,460,460,460,460,460,460,460,
6794,6795,6794,6795,6794,6795,6794,6795,6794,6795,6794,6795,6794,6795,6794,6795,
6762,6763,6762,6763,6762,6763,6762,6763,6762,6763,6762,6763,6762,6763,6762,6763,
6778,6779,6778,6779,6778,6779,6778,6779,6778,6779,6778,6779,6778,6779,6778,6779,
6794,6795,6794,6795,6794,6795,6794,6795,6794,6795,6794,6795,6794,6795,6794,6795,
6762,6763,6762,6763,6762,6763,6762,6763,6762,6763,6762,6763,6762,6763,6762,6763,
6778,6779,6778,6779,6778,6779,6778,6779,6778,6779,6778,6779,6778,6779,6778,6779,
6794,6795,6794,6795,6794,6795,6794,6795,6794,6795,6794,6795,6794,6795,6794,6795,
6762,6763,6762,6763,6762,6763,6762,6763,6762,6763,6762,6763,6762,6763,6762,6763,
6778,6779,6778,6779,6778,6779,6778,6779,6778,6779,6778,6779,6778,6779,6778,6779,
6794,6795,6794,6795,6794,6795,6794,6795,6794,6795,6794,6795,6794,6795,6794,6795
</chunk>
      <chunk x="224" y="-96" width="16" height="16">
460,460,460,460,460,460,460,460,460,460,460,460,460,460,460,460,
460,460,460,460,460,460,460,460,460,460,460,460,460,460,460,460,
460,460,460,460,460,460,460,460,460,460,460,460,460,460,460,460,
460,460,460,460,460,460,460,460,460,460,460,460,460,460,460,460,
460,460,460,460,460,460,460,460,460,460,460,460,460,460,460,460,
460,460,460,460,460,460,460,460,460,460,460,460,460,460,460,460,
6794,6795,6794,6795,6794,6795,6794,6795,6794,6795,6794,6795,6794,6795,6794,6795,
6762,6763,6762,6763,6762,6763,6762,6763,6762,6763,6762,6763,6762,6763,6762,6763,
6778,6779,6778,6779,6778,6779,6778,6779,6778,6779,6778,6779,6778,6779,6778,6779,
6794,6795,6794,6795,6794,6795,6794,6795,6794,6795,6794,6795,6794,6795,6794,6795,
6762,6763,6762,6763,6762,6763,6762,6763,6762,6763,6762,6763,6762,6763,6762,6763,
6778,6779,6778,6779,6778,6779,6778,6779,6778,6779,6778,6779,6778,6779,6778,6779,
6794,6795,6794,6795,6794,6795,6794,6795,6794,6795,6794,6795,6794,6795,6794,6795,
6762,6763,6762,6763,6762,6763,6762,6763,6762,6763,6762,6763,6762,6763,6762,6763,
6778,6779,6778,6779,6778,6779,6778,6779,6778,6779,6778,6779,6778,6779,6778,6779,
6794,6795,6794,6795,6794,6795,6794,6795,6794,6795,6794,6795,6794,6795,6794,6795
</chunk>
      <chunk x="240" y="-96" width="16" height="16">
460,460,460,460,460,460,460,460,0,0,0,0,0,0,0,0,
460,460,460,460,460,460,460,460,0,0,0,0,0,0,0,0,
460,460,460,460,460,460,460,460,0,0,0,0,0,0,0,0,
460,460,460,460,460,460,460,460,0,0,0,0,0,0,0,0,
460,460,460,460,460,460,460,460,0,0,0,0,0,0,0,0,
460,460,460,460,460,460,460,460,0,0,0,0,0,0,0,0,
6794,6795,6794,6795,6794,6795,6794,6795,6794,6795,6794,6795,6794,6795,6794,6795,
6762,6763,6762,6763,6762,6763,6762,6763,6762,6763,6762,6763,6762,6763,6762,6763,
6778,6779,6778,6779,6778,6779,6778,6779,6778,6779,6778,6779,6778,6779,6778,6779,
6794,6795,6794,6795,6794,6795,6794,6795,6794,6795,6794,6795,6794,6795,6794,6795,
6762,6763,6762,6763,6762,6763,6762,6763,6762,6763,6762,6763,6762,6763,6762,6763,
6778,6779,6778,6779,6778,6779,6778,6779,6778,6779,6778,6779,6778,6779,6778,6779,
6794,6795,6794,6795,6794,6795,6794,6795,6794,6795,6794,6795,6794,6795,6794,6795,
6762,6763,6762,6763,6762,6763,6762,6763,6762,6763,6762,6763,6762,6763,6762,6763,
6778,6779,6778,6779,6778,6779,6778,6779,6778,6779,6778,6779,6778,6779,6778,6779,
6794,6795,6794,6795,6794,6795,6794,6795,6794,6795,6794,6795,6794,6795,6794,6795
</chunk>
      <chunk x="256" y="-96" width="16" height="16">
0,0,0,0,0,0,0,0,0,0,0,0,0,0,0,0,
0,0,0,0,0,0,0,0,0,0,0,0,0,0,0,0,
0,0,0,0,0,0,0,0,0,0,0,0,0,0,0,0,
0,0,0,0,0,0,0,0,0,0,0,0,0,0,0,0,
0,0,0,0,0,0,0,0,0,0,0,0,0,0,0,0,
0,0,0,0,0,0,0,0,0,0,0,0,0,0,0,0,
6794,6795,6794,6795,6794,6795,6794,6795,6794,6795,6794,6795,6794,6795,6794,6795,
6762,6763,6762,6763,6762,6763,6762,6763,6762,6763,6762,6763,6762,6763,6762,6763,
6778,6779,6778,6779,6778,6779,6778,6779,6778,6779,6778,6779,6778,6779,6778,6779,
6794,6795,6794,6795,6794,6795,6794,6795,6794,6795,6794,6795,6794,6795,6794,6795,
6762,6763,6762,6763,6762,6763,6762,6763,6762,6763,6762,6763,6762,6763,6762,6763,
6778,6779,6778,6779,6778,6779,6778,6779,6778,6779,6778,6779,6778,6779,6778,6779,
6794,6795,6794,6795,6794,6795,6794,6795,6794,6795,6794,6795,6794,6795,6794,6795,
6762,6763,6762,6763,6762,6763,6762,6763,6762,6763,6762,6763,6762,6763,6762,6763,
6778,6779,6778,6779,6778,6779,6778,6779,6778,6779,6778,6779,6778,6779,6778,6779,
6794,6795,6794,6795,6794,6795,6794,6795,6794,6795,6794,6795,6794,6795,6794,6795
</chunk>
      <chunk x="272" y="-96" width="16" height="16">
0,0,0,0,0,0,0,0,0,0,0,0,0,0,0,0,
0,0,0,0,0,0,0,0,0,0,0,0,0,0,0,0,
0,0,0,0,0,0,0,0,0,0,0,0,0,0,0,0,
0,0,0,0,0,0,0,0,0,0,0,0,0,0,0,0,
0,0,0,0,0,0,0,0,0,0,0,0,0,0,0,0,
0,0,0,0,0,0,0,0,0,0,0,0,0,0,0,0,
6794,6795,6794,6795,6794,6795,6794,6795,0,0,0,0,0,0,0,0,
6762,6763,6762,6763,6762,6763,6762,6763,0,0,0,0,0,0,0,0,
6778,6779,6778,6779,6778,6779,6778,6779,0,0,0,0,0,0,0,0,
6794,6795,6794,6795,6794,6795,6794,6795,0,0,0,0,0,0,0,0,
6762,6763,6762,6763,6762,6763,6762,6763,0,0,0,0,0,0,0,0,
6778,6779,6778,6779,6778,6779,6778,6779,0,0,0,0,0,0,0,0,
6794,6795,6794,6795,6794,6795,6794,6795,0,0,0,0,0,0,0,0,
6762,6763,6762,6763,6762,6763,6762,6763,0,0,0,0,0,0,0,0,
6778,6779,6778,6779,6778,6779,6778,6779,0,0,0,0,0,0,0,0,
6794,6795,6794,6795,6794,6795,6794,6795,0,0,0,0,0,0,0,0
</chunk>
      <chunk x="16" y="-80" width="16" height="16">
0,0,0,0,0,0,0,0,0,0,0,0,0,0,6762,6763,
0,0,0,0,0,0,0,0,0,0,0,0,0,0,6778,6779,
0,0,0,0,0,0,0,0,0,0,0,0,0,0,6794,6795,
0,0,0,0,0,0,0,0,0,0,0,0,0,0,6762,6763,
0,0,0,0,0,0,0,0,0,0,0,0,0,0,6778,6779,
0,0,0,0,0,0,0,0,0,0,0,0,0,0,6794,6795,
0,0,0,0,0,0,0,0,0,0,0,0,0,0,6762,6763,
0,0,0,0,0,0,0,0,0,0,0,0,0,0,6778,6779,
0,0,0,0,0,0,0,0,0,0,0,0,0,0,6794,6795,
0,0,0,0,0,0,0,0,0,0,0,0,0,0,6762,6763,
0,0,0,0,0,0,0,0,0,0,0,0,0,0,6778,6779,
0,0,0,0,0,0,0,0,0,0,0,0,0,0,6794,6795,
0,0,0,0,0,0,0,0,0,0,0,0,0,0,6762,6763,
0,0,0,0,0,0,0,0,0,0,0,0,0,0,6778,6779,
0,0,0,0,0,0,0,0,0,0,0,0,0,0,6794,6795,
0,0,0,0,0,0,0,0,0,0,0,0,0,0,6762,6763
</chunk>
      <chunk x="32" y="-80" width="16" height="16">
6762,6763,6762,6763,6762,6763,6762,6763,6762,6763,6762,6763,6762,6763,6762,6763,
6778,6779,6778,6779,6778,6779,6778,6779,6778,6779,6778,6779,6778,6779,6778,6779,
6794,6795,6794,6795,6794,6795,6794,6795,6794,6795,6794,6795,6794,6795,6794,6795,
6762,6763,6762,6763,6762,6763,6762,6763,6762,6763,6762,6763,6762,6763,6762,6763,
6778,6779,6778,6779,6778,6779,6778,6779,6778,6779,6778,6779,6778,6779,6778,6779,
6794,6795,6794,6795,6794,6795,6794,6795,6794,6795,6794,6795,6794,6795,6794,6795,
6762,6763,6762,6763,6762,6763,6762,6763,6762,6763,6762,6763,6762,6763,6762,6763,
6778,6779,6778,6779,6778,6779,6778,6779,6778,6779,6778,6779,6778,6779,6778,6779,
6794,6795,6794,6795,6794,6795,6794,6795,6794,6795,6794,6795,6794,6795,6794,6795,
6762,6763,6762,6763,6762,6763,6762,6763,6762,6763,6762,6763,6762,6763,6762,6763,
6778,6779,6778,6779,6778,6779,6778,6779,6778,6779,6778,6779,6778,6779,6778,6779,
6794,6795,6794,6795,6794,6795,6794,6795,6794,6795,6794,6795,6794,6795,6794,6795,
6762,6763,6762,6763,6762,6763,6762,6763,6762,6763,6762,6763,6762,6763,6762,6763,
6778,6779,6778,6779,6778,6779,6778,6779,6778,6779,6778,6779,6778,6779,6778,6779,
6794,6795,6794,6795,6794,6795,6794,6795,6794,6795,6794,6795,6794,6795,6794,6795,
6762,6763,6762,6763,6762,6763,6762,6763,6762,6763,6762,6763,6762,6763,6762,6763
</chunk>
      <chunk x="48" y="-80" width="16" height="16">
6762,6763,6762,6763,6762,6763,6762,6763,6762,6763,6762,6763,6762,6763,6762,6763,
6778,6779,6778,6779,6778,6779,6778,6779,6778,6779,6778,6779,6778,6779,6778,6779,
6794,6795,6794,6795,6794,6795,6794,6795,6794,6795,6794,6795,6794,6795,6794,6795,
6762,6763,6762,6763,6762,6763,6762,6763,6762,6763,6762,6763,6762,6763,6762,6763,
6778,6779,6778,6779,6778,6779,6778,6779,6778,6779,6778,6779,6778,6779,6778,6779,
6794,6795,6794,6795,6794,6795,6794,6795,6794,6795,6794,6795,6794,6795,6794,6795,
6762,6763,6762,6763,6762,6763,6762,6763,6762,6763,6762,6763,6762,6763,6762,6763,
6778,6779,6778,6779,6778,6779,6778,6779,6778,6779,6778,6779,6778,6779,6778,6779,
6794,6795,6794,6795,6794,6795,6794,6795,6794,6795,6794,6795,6794,6795,6794,6795,
6762,6763,6762,6763,6762,6763,6762,6763,6762,6763,6762,6763,6762,6763,6762,6763,
6778,6779,7212,7213,7214,7215,7216,7212,7213,7214,7215,7216,7212,7213,7214,7215,
6794,6795,7261,7262,7263,7264,7265,7261,7262,7263,7264,7265,7261,7262,7263,7264,
6762,6763,7310,7311,7312,7313,7314,7310,7311,7312,7313,7314,7310,7311,7312,7313,
6778,6779,7359,7360,7361,7362,7363,7359,7360,7361,7362,7363,7359,7360,7361,7362,
6794,6795,7408,7409,7410,7411,7412,7408,7409,7410,7411,7412,7408,7409,7410,7411,
6762,6763,7457,7458,7459,7460,7461,7457,7458,7459,7460,7461,7457,7458,7459,7460
</chunk>
      <chunk x="64" y="-80" width="16" height="16">
6762,6763,6762,6763,6762,6763,6762,6763,6762,6763,6762,6763,6762,6763,6762,6763,
6778,6779,6778,6779,6778,6779,6778,6779,6778,6779,6778,6779,6778,6779,6778,6779,
6794,6795,6794,6795,6794,6795,6794,6795,6794,6795,6794,6795,6794,6795,6794,6795,
6762,6763,6762,6763,6762,6763,6762,6763,6762,6763,6762,6763,6762,6763,6762,6763,
6778,6779,6778,6779,6778,6779,6778,6779,6778,6779,6778,6779,6778,6779,6778,6779,
6794,6795,6794,6795,6794,6795,6794,6795,6794,6795,6794,6795,6794,6795,6794,6795,
6762,6763,6762,6763,6762,6763,6762,6763,6762,6763,6762,6763,6762,6763,6762,6763,
6778,6779,6778,6779,6778,6779,6778,6779,6778,6779,6778,6779,6778,6779,6778,6779,
6794,6795,6794,6795,6794,6795,6794,6795,6794,6795,6794,6795,6794,6795,6794,6795,
6762,6763,6762,6763,6762,6763,6762,6763,6762,6763,6762,6763,6762,6763,6762,6763,
7216,7212,7213,7214,7215,7216,7212,7213,7214,7215,7216,7212,7213,7214,7215,7216,
7265,7261,7262,7263,7264,7265,7261,7262,7263,7264,7265,7261,7262,7263,7264,7265,
7314,7310,7311,7312,7313,7314,7310,7311,7312,7313,7314,7310,7311,7312,7313,7314,
7363,7359,7360,7361,7362,7363,7359,7360,7361,7362,7363,7359,7360,7361,7362,7363,
7412,7408,7409,7410,7411,7412,7408,7409,7410,7411,7412,7408,7409,7410,7411,7412,
7461,7457,7458,7459,7460,7461,7457,7458,7459,7460,7461,7457,7458,7459,7460,7461
</chunk>
      <chunk x="80" y="-80" width="16" height="16">
6762,6763,6762,6763,6762,6763,6762,6763,6762,6763,6762,6763,6762,6763,6762,6763,
6778,6779,6778,6779,6778,6779,6778,6779,6778,6779,6778,6779,6778,6779,6778,6779,
6794,6795,6794,6795,6794,6795,6794,6795,6794,6795,6794,6795,6794,6795,6794,6795,
6762,6763,6762,6763,6762,6763,6762,6763,6762,6763,6762,6763,6762,6763,6762,6763,
6778,6779,6778,6779,6778,6779,6778,6779,6778,6779,6778,6779,6778,6779,6778,6779,
6794,6795,6794,6795,6794,6795,6794,6795,6794,6795,6794,6795,6794,6795,6794,6795,
6762,6763,6762,6763,6762,6763,6762,6763,6762,6763,6762,6763,6762,6763,6762,6763,
6778,6779,6778,6779,6778,6779,6778,6779,6778,6779,6778,6779,6778,6779,6778,6779,
6794,6795,6794,6795,6794,6795,6794,6795,6794,6795,6794,6795,6794,6795,6794,6795,
6762,6763,6762,6763,6762,6763,6762,6763,6762,6763,6762,6763,6762,6763,6762,6763,
7212,7213,7214,7215,7216,7212,7213,7214,7215,7216,7212,7213,7214,7215,7216,7212,
7261,7262,7263,7264,7265,7261,7262,7263,7264,7265,7261,7262,7263,7264,7265,7261,
7310,7311,7312,7313,7314,7310,7311,7312,7313,7314,7310,7311,7312,7313,7314,7310,
7359,7360,7361,7362,7363,7359,7360,7361,7362,7363,7359,7360,7361,7362,7363,7359,
7408,7409,7410,7411,7412,7408,7409,7410,7411,7412,7408,7409,7410,7411,7412,7408,
7457,7458,7459,7460,7461,7457,7458,7459,7460,7461,7457,7458,7459,7460,7461,7457
</chunk>
      <chunk x="96" y="-80" width="16" height="16">
6762,6763,6762,6763,6762,6763,6762,6763,6762,6763,6762,6763,6762,6763,6762,6763,
6778,6779,6778,6779,6778,6779,6778,6779,6778,6779,6778,6779,6778,6779,6778,6779,
6794,6795,6794,6795,6794,6795,6794,6795,6794,6795,6794,6795,6794,6795,6794,6795,
6762,6763,6762,6763,6762,6763,6762,6763,6762,6763,6762,6763,6762,6763,6762,6763,
6778,6779,6778,6779,6778,6779,6778,6779,6778,6779,6778,6779,6778,6779,6778,6779,
6794,6795,6794,6795,6794,6795,6794,6795,6794,6795,6794,6795,6794,6795,6794,6795,
6762,6763,6762,6763,6762,6763,6762,6763,6762,6763,6762,6763,6762,6763,6762,6763,
6778,6779,6778,6779,6778,6779,6778,6779,6778,6779,6778,6779,6778,6779,6778,6779,
6794,6795,6794,6795,6794,6795,6794,6795,6794,6795,6794,6795,6794,6795,6794,6795,
6762,6763,6762,6763,6762,6763,6762,6763,6762,6763,6762,6763,6762,6763,6762,6763,
7213,7214,7215,7216,7212,7213,7214,7215,7216,7212,7213,7214,7215,7216,7212,7213,
7262,7263,7264,7265,7261,7262,7263,7264,7265,7261,7262,7263,7264,7265,7261,7262,
7311,7312,7313,7314,7310,7311,7312,7313,7314,7310,7311,7312,7313,7314,7310,7311,
7360,7361,7362,7363,7359,7360,7361,7362,7363,7359,7360,7361,7362,7363,7359,7360,
7409,7410,7411,7412,7408,7409,7410,7411,7412,7408,7409,7410,7411,7412,7408,7409,
7458,7459,7460,7461,7457,7458,7459,7460,7461,7457,7458,7459,7460,7461,7457,7458
</chunk>
      <chunk x="112" y="-80" width="16" height="16">
6762,6763,6762,6763,6762,6763,6762,6794,4167,4364,4364,4364,4364,4364,4364,4364,
6778,6779,6778,6779,6778,6779,6778,6762,4167,4364,4364,4364,4364,4364,4364,4364,
6794,6795,6794,6795,6794,6795,6794,6778,4167,4364,4364,4364,4364,4364,4364,4364,
6762,6763,6762,6763,6762,6763,6762,6794,4167,4364,4364,4364,4364,4364,4364,4364,
6778,6779,6778,6779,6778,6779,6778,6762,4167,4364,4364,4364,4364,4364,4364,4364,
6794,6795,6794,6795,6794,6795,6794,6778,4167,4364,4364,4364,4364,4364,4364,4364,
6762,6763,6762,6763,6762,6763,6762,6794,4167,4364,4364,4364,4364,4364,4364,4364,
6778,6779,6778,6779,6778,6779,6778,6762,4167,4364,4364,4364,4364,4364,4364,4364,
6794,6795,6794,6795,6794,6795,6794,6778,4167,4364,4364,4364,4364,4364,4364,4364,
6762,6763,6762,6763,6762,6763,6762,6794,4167,4364,4364,4364,4364,4364,4364,4364,
7214,7215,7216,7212,7213,7214,7215,7216,4167,4364,4364,4364,4364,4364,4364,4364,
7263,7264,7265,7261,7262,7263,7264,7265,4167,4364,4364,4364,4364,4364,4364,4364,
7312,7313,7314,7310,7311,7312,7313,7314,4167,4364,4364,4364,4364,4364,4364,4364,
7361,7362,7363,7359,7360,7361,7362,7363,4167,4364,4364,4364,4364,4364,4364,4364,
7410,7411,7412,7408,7409,7410,7411,7412,4167,4364,4364,4364,4364,4364,4364,4364,
7459,7460,7461,7457,7458,7459,7460,7461,4167,4364,4364,4364,4364,4364,4364,4364
</chunk>
      <chunk x="128" y="-80" width="16" height="16">
4364,4364,4364,4364,4364,4364,4364,4364,4364,4364,4364,4364,4364,4364,4364,4364,
4364,4364,4364,4364,4364,4364,4364,4364,4364,4364,4364,4364,4364,4364,4364,4364,
4364,4364,4364,4364,4364,4364,4364,4364,4364,4364,4364,4364,4364,4364,4364,4364,
4364,4364,4364,4364,4364,4364,4364,4364,4364,4364,4364,4364,4364,4364,4364,4364,
4364,4364,4364,4364,4364,4364,4364,4364,4364,4364,4364,4364,4364,4364,4364,4364,
4364,4364,4364,4364,4364,4364,4364,4364,4364,4364,4364,4364,4364,4364,4364,4364,
4364,4364,4364,4364,4364,4364,4364,4364,4364,4364,4364,4364,4364,4364,4364,4364,
4364,4364,4364,4364,4364,4364,4364,4364,4364,4364,4364,4364,4364,4364,4364,4364,
4364,4364,4364,4364,4364,4364,4364,4364,4364,4364,4364,4364,4364,4364,4364,4364,
4364,4364,4364,4364,4364,4364,4364,4364,4364,4364,4364,4364,4364,4364,4364,4364,
4364,4364,4364,4364,4364,4364,4364,4364,4364,4364,4364,4364,4364,4364,4364,4364,
4364,4364,4364,4364,4364,4364,4364,4364,4364,4364,4364,4364,4364,4364,4364,4364,
4364,4364,4364,4364,4364,4364,4364,4364,4364,4364,4364,4364,4364,4364,4364,4364,
4364,4364,4364,4364,4364,4364,4364,4364,4364,4364,4364,4364,4364,4364,4364,4364,
4364,4364,4364,4364,4364,4364,4364,4364,4364,4364,4364,4364,4364,4364,4364,4364,
4364,4364,4364,4364,4364,4364,4364,4364,4364,4364,4364,4364,4364,4364,4364,4364
</chunk>
      <chunk x="144" y="-80" width="16" height="16">
4364,4364,4364,4364,4364,4364,4364,4364,4364,8645,8842,8842,8649,4364,4364,4364,
4364,4364,4364,4364,4364,4364,4364,4364,4364,8645,8842,8842,8649,4364,4364,4364,
4364,4364,4364,4364,4364,4364,4364,4364,4364,8645,8842,8842,8649,4364,4364,4364,
4364,4364,4364,4364,4364,4364,4364,4364,4364,8645,8842,8842,8649,4364,4364,4364,
4364,4364,4364,4364,4364,4364,4364,4364,4364,8645,8842,8842,8649,4364,4364,4364,
4364,4364,4364,4364,4364,4364,4364,4364,4364,8645,8842,8842,8649,4364,4364,4364,
4364,4364,4364,4364,4364,4364,4364,4364,4364,8645,8842,8842,8649,4364,4364,4364,
4364,4364,4364,4364,4364,4364,4364,4364,4364,8645,8842,8842,8649,4364,4364,4364,
4364,4364,4364,4364,4364,4364,4364,4364,4364,8645,8842,8842,8649,4364,4364,4364,
4364,4364,4364,4364,4364,4364,4364,4364,4364,8645,8842,8842,8649,4364,4364,4364,
4364,4364,4364,4364,4364,4364,4364,4364,4364,8645,8842,8842,8649,4364,4364,4364,
4364,4364,4364,4364,4364,4364,4364,4364,4364,8645,8842,8842,8649,4364,4364,4364,
4364,4364,4364,4364,4364,4364,4364,4364,4364,8645,8842,8842,8649,4364,4364,4364,
4364,4364,4364,4364,4364,4364,4364,4364,4364,8645,8842,8842,8649,4364,4364,4364,
4364,4364,4364,4364,4364,4364,4364,4364,4364,8645,8842,8842,8649,4364,4364,4364,
4364,4364,4364,4364,4364,4364,4364,4364,4364,8645,8842,8842,8649,4364,4364,4364
</chunk>
      <chunk x="160" y="-80" width="16" height="16">
4364,4364,4364,4364,4364,4364,4364,4364,4364,4364,4364,4364,4364,4364,4364,4364,
4364,4364,4364,4364,4364,4364,4364,4364,4364,4364,4364,4364,4364,4364,4364,4364,
4364,4364,4364,4364,4364,4364,4364,4364,4364,4364,4364,4364,4364,4364,4364,4364,
4364,4364,4364,4364,4364,4364,4364,4364,4364,4364,4364,4364,4364,4364,4364,4364,
4364,4364,4364,4364,4364,4364,4364,4364,4364,4364,4364,4364,4364,4364,4364,4364,
4364,4364,4364,4364,4364,4364,4364,4364,4364,4364,4364,4364,4364,4364,4364,4364,
4364,4364,4364,4364,4364,4364,4364,4364,4364,4364,4364,4364,4364,4364,4364,4364,
4364,4364,4364,4364,4364,4364,4364,4364,4364,4364,4364,4364,4364,4364,4364,4364,
4364,4364,4364,4364,4364,4364,4364,4364,4364,4364,4364,4364,4364,4364,4364,4364,
4364,4364,4364,4364,4364,4364,4364,4364,4364,4364,4364,4364,4364,4364,4364,4364,
4364,4364,4364,4364,4364,4364,4364,4364,4364,4364,4364,4364,4364,4364,4364,4364,
4364,4364,4364,4364,4364,4364,4364,4364,4364,4364,4364,4364,4364,4364,4364,4364,
4364,4364,4364,4364,4364,4364,4364,4364,4364,4364,4364,4364,4364,4364,4364,4364,
4364,4364,4364,4364,4364,4364,4364,4364,4364,4364,4364,4364,4364,4364,4364,4364,
4364,4364,4364,4364,4364,4364,4364,4364,4364,4364,4364,4364,4364,4364,4364,4364,
4364,4364,4364,4364,4364,4364,4364,4364,4364,4364,4364,4364,4364,4364,4364,4364
</chunk>
      <chunk x="176" y="-80" width="16" height="16">
4364,4364,4364,4364,4364,4364,4364,4364,4364,4364,4364,4364,4364,4171,6794,6763,
4364,4364,4364,4364,4364,4364,4364,4364,4364,4364,4364,4364,4364,4171,6762,6779,
4364,4364,4364,4364,4364,4364,4364,4364,4364,4364,4364,4364,4364,4171,6778,6795,
4364,4364,4364,4364,4364,4364,4364,4364,4364,4364,4364,4364,4364,4171,6794,6763,
4364,4364,4364,4364,4364,4364,4364,4364,4364,4364,4364,4364,4364,4171,6762,6779,
4364,4364,4364,4364,4364,4364,4364,4364,4364,4364,4364,4364,4364,4171,6778,6795,
4364,4364,4364,4364,4364,4364,4364,4364,4364,4364,4364,4364,4364,4171,6794,6763,
4364,4364,4364,4364,4364,4364,4364,4364,4364,4364,4364,4364,4364,4171,6762,6779,
4364,4364,4364,4364,4364,4364,4364,4364,4364,4364,4364,4364,4364,4171,6778,6795,
4364,4364,4364,4364,4364,4364,4364,4364,4364,4364,4364,4364,4364,4171,6794,6763,
4364,4364,4364,4364,4364,4364,4364,4364,4364,4364,4364,4364,4364,4171,6714,6715,
4364,4364,4364,4364,4364,4364,4364,4364,4364,4364,4364,4364,4364,4171,6730,6731,
4364,4364,4364,4364,4364,4364,4364,4364,4364,4364,4364,4364,4364,4171,6746,6747,
4364,4364,4364,4364,4364,4364,4364,4364,4364,4364,4364,4364,4364,4122,6714,6715,
4364,4364,4364,4364,4364,4364,4364,4364,4364,4364,4364,4364,4364,4122,6730,6731,
4364,4364,4364,4364,4364,4364,4364,4364,4364,4364,4364,4364,4364,4122,6746,6747
</chunk>
      <chunk x="192" y="-80" width="16" height="16">
6762,6763,6762,6763,6762,6763,6762,6763,6762,6763,6762,6763,6762,6763,6762,6763,
6778,6779,6778,6779,6778,6779,6778,6779,6778,6779,6778,6779,6778,6779,6778,6779,
6794,6795,6794,6795,6794,6795,6794,6795,6794,6795,6794,6795,6794,6795,6794,6795,
6762,6763,6762,6763,6762,6763,6762,6763,6762,6763,6762,6763,6762,6763,6762,6763,
6778,6779,6778,6779,6778,6779,6778,6779,6778,6779,6778,6779,6778,6779,6778,6779,
6794,6795,6794,6795,6794,6795,6794,6795,6794,6795,6794,6795,6794,6795,6794,6795,
6762,6763,6762,6763,6762,6763,6762,6763,6762,6763,6762,6763,6762,6763,6762,6763,
6778,6779,6778,6779,6778,6779,6778,6779,6778,6779,6778,6779,6778,6779,6778,6779,
6794,6795,6794,6795,6794,6795,6794,6795,6794,6795,6794,6795,6794,6795,6794,6795,
6762,6763,6762,6763,6762,6763,6762,6763,6762,6763,6762,6763,6762,6763,6762,6763,
6714,6715,6714,6715,6714,6715,6714,6715,6714,6715,6714,6715,6714,6715,6714,6715,
6730,6731,6730,6731,6730,6731,6730,6731,6730,6731,6730,6731,6730,6731,6730,6731,
6746,6747,6746,6747,6746,6747,6746,6747,6746,6747,6746,6747,6746,6747,6746,6747,
6714,6715,6714,6715,6714,6715,6714,6715,6714,6715,6714,6715,6714,6715,6714,6715,
6730,6731,6730,6731,6730,6731,6730,6731,6730,6731,6730,6731,6730,6731,6730,6731,
6746,6747,6746,6747,6746,6747,6746,6747,6746,6747,6746,6747,6746,6747,6746,6747
</chunk>
      <chunk x="208" y="-80" width="16" height="16">
6762,6763,6762,6763,6762,6763,6762,6763,6762,6763,6762,6763,6762,6763,6762,6763,
6778,6779,6778,6779,6778,6779,6778,6779,6778,6779,6778,6779,6778,6779,6778,6779,
6794,6795,6794,6795,6794,6795,6794,6795,6794,6795,6794,6795,6794,6795,6794,6795,
6762,6763,6762,6763,6762,6763,6762,6763,6762,6763,6762,6763,6762,6763,6762,6763,
6778,6779,6778,6779,6778,6779,6778,6779,6778,6779,6778,6779,6778,6779,6778,6779,
6794,6795,6794,6795,6794,6795,6794,6795,6794,6795,6794,6795,6794,6795,6794,6795,
6762,6763,6762,6763,6762,6763,6762,6763,6762,6763,6762,6763,6762,6763,6762,6763,
6778,6779,6778,6779,6778,6779,6778,6779,6778,6779,6778,6779,6778,6779,6778,6779,
6794,6795,6794,6795,6794,6795,6794,6795,6794,6795,6794,6795,6794,6795,6794,6795,
6762,6763,6762,6763,6762,6763,6762,6763,6762,6763,6762,6763,6762,6763,6762,6763,
6714,6715,6714,6715,6714,6715,6714,6715,6714,6715,6714,6715,6714,6715,6714,6715,
6730,6731,6730,6731,6730,6731,6730,6731,6730,6731,6730,6731,6730,6731,6730,6731,
6746,6747,6746,6747,6746,6747,6746,6747,6746,6747,6746,6747,6746,6747,6746,6747,
6714,6715,6714,6715,6714,6715,6714,6715,6714,6715,6714,6715,6714,6715,6714,6715,
6730,6731,6730,6731,6730,6731,6730,6731,6730,6731,6730,6731,6730,6731,6730,6731,
6746,6747,6746,6747,6746,6747,6746,6747,6746,6747,6746,6747,6746,6747,6746,6747
</chunk>
      <chunk x="224" y="-80" width="16" height="16">
6762,6763,6762,6763,6762,6763,6762,6763,6762,6763,6762,6763,6762,6763,6762,6763,
6778,6779,6778,6779,6778,6779,6778,6779,6778,6779,6778,6779,6778,6779,6778,6779,
6794,6795,6794,6795,6794,6795,6794,6795,6794,6795,6794,6795,6794,6795,6794,6795,
6762,6763,6762,6763,6762,6763,6762,6763,6762,6763,6762,6763,6762,6763,6762,6763,
6778,6779,6778,6779,6778,6779,6778,6779,6778,6779,6778,6779,6778,6779,6778,6779,
6794,6795,6794,6795,6794,6795,6794,6795,6794,6795,6794,6795,6794,6795,6794,6795,
6762,6763,6762,6763,6762,6763,6762,6763,6762,6763,6762,6763,6762,6763,6762,6763,
6778,6779,6778,6779,6778,6779,6778,6779,6778,6779,6778,6779,6778,6779,6778,6779,
6794,6795,6794,6795,6794,6795,6794,6795,6794,6795,6794,6795,6794,6795,6794,6795,
6762,6763,6762,6763,6762,6763,6762,6763,6762,6763,6762,6763,6762,6763,6762,6763,
6714,6715,6714,6715,6714,6715,6714,6715,6714,6715,6714,6715,6714,6715,6714,6715,
6730,6731,6730,6731,6730,6731,6730,6731,6730,6731,6730,6731,6730,6731,6730,6731,
6746,6747,6746,6747,6746,6747,6746,6747,6746,6747,6746,6747,6746,6747,6746,6747,
6714,6715,6714,6715,6714,6715,6714,6715,6714,6715,6714,6715,6714,6715,6714,6715,
6730,6731,6730,6731,6730,6731,6730,6731,6730,6731,6730,6731,6730,6731,6730,6731,
6746,6747,6746,6747,6746,6747,6746,6747,6746,6747,6746,6747,6746,6747,6746,6747
</chunk>
      <chunk x="240" y="-80" width="16" height="16">
6762,6763,6762,6763,6762,6763,6762,6763,6762,6763,6762,6763,6762,6763,6762,6763,
6778,6779,6778,6779,6778,6779,6778,6779,6778,6779,6778,6779,6778,6779,6778,6779,
6794,6795,6794,6795,6794,6795,6794,6795,6794,6795,6794,6795,6794,6795,6794,6795,
6762,6763,6762,6763,6762,6763,6762,6763,6762,6763,6762,6763,6762,6763,6762,6763,
6778,6779,6778,6779,6778,6779,6778,6779,6778,6779,6778,6779,6778,6779,6778,6779,
6794,6795,6794,6795,6794,6795,6794,6795,6794,6795,6794,6795,6794,6795,6794,6795,
6762,6763,6762,6763,6762,6763,6762,6763,6762,6763,6762,6763,6762,6763,6762,6763,
6778,6779,6778,6779,6778,6779,6778,6779,6778,6779,6778,6779,6778,6779,6778,6779,
6794,6795,6794,6795,6794,6795,6794,6795,6794,6795,6794,6795,6794,6795,6794,6795,
6762,6763,6762,6763,6762,6763,6762,6763,6762,6763,6762,6763,6762,6763,6762,6763,
6714,6715,6714,6715,6714,6715,6714,6715,6714,6715,6714,6715,6714,6715,6714,6715,
6730,6731,6730,6731,6730,6731,6730,6731,6730,6731,6730,6731,6730,6731,6730,6731,
6746,6747,6746,6747,6746,6747,6746,6747,6746,6747,6746,6747,6746,6747,6746,6747,
6714,6715,6714,6715,6714,6715,6714,6715,6714,6715,6714,6715,6714,6715,6714,6715,
6730,6731,6730,6731,6730,6731,6730,6731,6730,6731,6730,6731,6730,6731,6730,6731,
6746,6747,6746,6747,6746,6747,6746,6747,6746,6747,6746,6747,6746,6747,6746,6747
</chunk>
      <chunk x="256" y="-80" width="16" height="16">
6762,6763,6762,6763,6762,6763,6762,6763,6762,6763,6762,6763,6762,6763,6762,6763,
6778,6779,6778,6779,6778,6779,6778,6779,6778,6779,6778,6779,6778,6779,6778,6779,
6794,6795,6794,6795,6794,6795,6794,6795,6794,6795,6794,6795,6794,6795,6794,6795,
6762,6763,6762,6763,6762,6763,6762,6763,6762,6763,6762,6763,6762,6763,6762,6763,
6778,6779,6778,6779,6778,6779,6778,6779,6778,6779,6778,6779,6778,6779,6778,6779,
6794,6795,6794,6795,6794,6795,6794,6795,6794,6795,6794,6795,6794,6795,6794,6795,
6762,6763,6762,6763,6762,6763,6762,6763,6762,6763,6762,6763,6762,6763,6762,6763,
6778,6779,6778,6779,6778,6779,6778,6779,6778,6779,6778,6779,6778,6779,6778,6779,
6794,6795,6794,6795,6794,6795,6794,6795,6794,6795,6794,6795,6794,6795,6794,6795,
6762,6763,6762,6763,6762,6763,6762,6763,6762,6763,6762,6763,6762,6763,6762,6763,
6714,6715,6714,6715,6778,6779,6778,6779,6778,6779,6778,6779,6778,6779,6778,6779,
6730,6731,6730,6731,6794,6795,6794,6795,6794,6795,6794,6795,6794,6795,6794,6795,
6746,6747,6746,6747,6762,6763,6762,6763,6762,6763,6762,6763,6762,6763,6762,6763,
6714,6715,6714,6715,6778,6779,6778,6779,6778,6779,6778,6779,6778,6779,6778,6779,
6730,6731,6730,6731,6794,6795,6794,6795,6794,6795,6794,6795,6794,6795,6794,6795,
6746,6747,6746,6747,6762,6763,6762,6763,6762,6763,6762,6763,6762,6763,6762,6763
</chunk>
      <chunk x="272" y="-80" width="16" height="16">
6762,6763,6762,6763,6762,6763,6762,6763,0,0,0,0,0,0,0,0,
6778,6779,6778,6779,6778,6779,6778,6779,0,0,0,0,0,0,0,0,
6794,6795,6794,6795,6794,6795,6794,6795,0,0,0,0,0,0,0,0,
6762,6763,6762,6763,6762,6763,6762,6763,0,0,0,0,0,0,0,0,
6778,6779,6778,6779,6778,6779,6778,6779,0,0,0,0,0,0,0,0,
6794,6795,6794,6795,6794,6795,6794,6795,0,0,0,0,0,0,0,0,
6762,6763,6762,6763,6762,6763,6762,6763,0,0,0,0,0,0,0,0,
6778,6779,6778,6779,6778,6779,6778,6779,0,0,0,0,0,0,0,0,
6794,6795,6794,6795,6794,6795,6794,6795,0,0,0,0,0,0,0,0,
6762,6763,6762,6763,6762,6763,6762,6763,0,0,0,0,0,0,0,0,
6778,6779,6778,6779,6778,6779,6778,6779,0,0,0,0,0,0,0,0,
6794,6795,6794,6795,6794,6795,6794,6795,0,0,0,0,0,0,0,0,
6762,6763,6762,6763,6762,6763,6762,6763,0,0,0,0,0,0,0,0,
6778,6779,6778,6779,6778,6779,6778,6779,0,0,0,0,0,0,0,0,
6794,6795,6794,6795,6794,6795,6794,6795,0,0,0,0,0,0,0,0,
6762,6763,6762,6763,6762,6763,6762,6763,0,0,0,0,0,0,0,0
</chunk>
      <chunk x="16" y="-64" width="16" height="16">
0,0,0,0,0,0,0,0,0,0,0,0,0,0,6778,6779,
0,0,0,0,0,0,0,0,0,0,0,0,0,0,6794,6795,
0,0,0,0,0,0,0,0,0,0,0,0,0,0,6762,6763,
0,0,0,0,0,0,0,0,0,0,0,0,0,0,6778,6779,
0,0,0,0,0,0,0,0,0,0,0,0,0,0,6794,6795,
0,0,0,0,0,0,0,0,0,0,0,0,0,0,6762,6763,
0,0,0,0,0,0,0,0,0,0,0,0,0,0,6778,6779,
0,0,0,0,0,0,0,0,0,0,0,0,0,0,6794,6795,
0,0,0,0,0,0,0,0,0,0,0,0,0,0,6762,6763,
0,0,0,0,0,0,0,0,0,0,0,0,0,0,6778,6779,
0,0,0,0,0,0,0,0,0,0,0,0,0,0,6794,6795,
0,0,0,0,0,0,0,0,0,0,0,0,0,0,6762,6763,
0,0,0,0,0,0,0,0,0,0,0,0,0,0,6778,6779,
0,0,0,0,0,0,0,0,0,0,0,0,0,0,6794,6795,
0,0,0,0,0,0,0,0,0,0,0,0,0,0,6762,6763,
0,0,0,0,0,0,0,0,0,0,0,0,0,0,6778,6779
</chunk>
      <chunk x="32" y="-64" width="16" height="16">
6778,6779,6778,6779,6778,6779,6778,6779,6778,6779,6778,6779,6778,6779,6778,6779,
6794,6795,6794,6795,6794,6795,6794,6795,6794,6795,6794,6795,6794,6795,6794,6795,
6762,6763,6762,6763,6762,6763,6762,6763,6762,6763,6762,6763,6762,6763,6762,6763,
6778,6779,6778,6779,6778,6779,6778,6779,6778,6779,6778,6779,6778,6779,6778,6779,
6794,6795,6794,6795,6794,6795,6794,6795,6794,6795,6794,6795,6794,6795,6794,6795,
6762,6763,6762,6763,6762,6763,6762,6763,6762,6763,6762,6763,6762,6763,6762,6763,
6778,6779,6778,6779,6778,6779,6778,6779,6778,6779,6778,6779,6778,6779,6778,6779,
6794,6795,6794,6795,6794,6795,6794,6795,6794,6795,6794,6795,6794,6795,6794,6795,
6762,6763,6762,6763,6762,6763,6762,6763,6762,6763,6762,6763,6762,6763,6762,6763,
6778,6779,6778,6779,6778,6779,6778,6779,6778,6779,6778,6779,6778,6779,6778,6779,
6794,6795,6794,6795,6794,6795,6794,6795,6794,6795,6794,6795,6794,6795,6794,6795,
6762,6763,6762,6763,6762,6763,6762,6763,6762,6763,6762,6763,6762,6763,6762,6763,
6778,6779,6778,6779,6778,6779,6778,6779,6778,6779,6778,6779,6778,6779,6778,6779,
6794,6795,6794,6795,6794,6795,6794,6795,6794,6795,6794,6795,6794,6795,6794,6795,
6762,6763,6762,6763,6762,6763,6762,6763,6762,6763,6762,6763,6762,6763,6762,6763,
6778,6779,6778,6779,6778,6779,6778,6779,6778,6779,6778,6779,6778,6779,6778,6779
</chunk>
      <chunk x="48" y="-64" width="16" height="16">
6778,6779,7506,7507,7508,7509,7510,7506,7507,7508,7509,7510,7506,7507,7508,7509,
6794,6795,7212,7213,7214,7215,7216,7212,7213,7214,7215,7216,7212,7213,7214,7215,
6762,6763,7261,7262,7263,7264,7265,7261,7262,7263,7264,7265,7261,7262,7263,7264,
6778,6779,7310,7311,7312,7313,7314,7310,7311,7312,7313,7314,7310,7311,7312,7313,
6794,6795,7359,7360,7361,7362,7363,7359,7360,7361,7362,7363,7359,7360,7361,7362,
6762,6763,7408,7409,7410,7411,7412,7408,7409,7410,7411,7412,7408,7409,7410,7411,
6778,6779,7457,7458,7459,7460,7461,7457,7458,7459,7460,7461,7457,7458,7459,7460,
6794,6795,7506,7507,7508,7509,7510,7506,7507,7508,7509,7510,7506,7507,7508,7509,
6762,6763,7212,7213,7214,7215,7216,7212,7213,7214,7215,7216,7212,7213,7214,7215,
6778,6779,7261,7262,7263,7264,7265,7261,7262,7263,7264,7265,7261,7262,7263,7264,
6794,6795,7310,7311,7312,7313,7314,7310,7311,7312,7313,7314,7310,7311,7312,7313,
6762,6763,7359,7360,7361,7362,7363,7359,7360,7361,7362,7363,7359,7360,7361,7362,
6778,6779,7408,7409,7410,7411,7412,7408,7409,7410,7411,7412,7408,7409,7410,7411,
6794,6795,7457,7458,7459,7460,7461,7457,7458,7459,7460,7461,7457,7458,7459,7460,
6762,6763,7506,7507,7508,7509,7510,7506,7507,7508,7509,7510,7506,7507,7508,7509,
6778,6779,7212,7213,7214,7215,7216,7212,7213,7214,7215,7216,7212,7213,7214,7215
</chunk>
      <chunk x="64" y="-64" width="16" height="16">
7510,7506,7507,7508,7509,7510,7506,7507,7508,7509,7510,7506,7507,7508,7509,7510,
7216,7212,7213,7214,7215,7216,7212,7213,7214,7215,7216,7212,7213,7214,7215,7216,
7265,7261,7262,7263,7264,7265,7261,7262,7263,7264,7265,7261,7262,7263,7264,7265,
7314,7310,7311,7312,7313,7314,7310,7311,7312,7313,7314,7310,7311,7312,7313,7314,
7363,7359,7360,7361,7362,7363,7359,7360,7361,7362,7363,7359,7360,7361,7362,7363,
7412,7408,7409,7410,7411,7412,7408,7409,7410,7411,7412,7408,7409,7410,7411,7412,
7461,7457,7458,7459,7460,7461,7457,7458,7459,7460,7461,7457,7458,7459,7460,7461,
7510,7506,7507,7508,7509,7510,7506,7507,7508,7509,7510,7506,7507,7508,7509,7510,
7216,7212,7213,7214,7215,7216,7212,7213,7214,7215,7216,7212,7213,7214,7215,7216,
7265,7261,7262,7263,7264,7265,7261,7262,7263,7264,7265,7261,7262,7263,7264,7265,
7314,7310,7311,7312,7313,7314,7310,7311,7312,7313,7314,7310,7311,7312,7313,7314,
7363,7359,7360,7361,7362,7363,7359,7360,7361,7362,7363,7359,7360,7361,7362,7363,
7412,7408,7409,7410,7411,7412,7408,7409,7410,7411,7412,7408,7409,7410,7411,7412,
7461,7457,7458,7459,7460,7461,7457,7458,7459,7460,7461,7457,7458,7459,7460,7461,
7510,7506,7507,7508,7509,7510,7506,7507,7508,7509,7510,7506,7507,7508,7509,7510,
7216,7212,7213,7214,7215,7216,7212,7213,7214,7215,7216,7212,7213,7214,7215,7216
</chunk>
      <chunk x="80" y="-64" width="16" height="16">
7506,7507,7508,7509,7510,7506,7507,7508,7509,7510,7506,7507,7508,7509,7510,7506,
7212,7213,7214,7215,7216,7212,7213,7214,7215,7216,7212,7213,7214,7215,7216,7212,
7261,7262,7263,7264,7265,7261,7262,7263,7264,7265,7261,7262,7263,7264,7265,7261,
7310,7311,7312,7313,7314,7310,7311,7312,7313,7314,7310,7311,7312,7313,7314,7310,
7359,7360,7361,7362,7363,7359,7360,7361,7362,7363,7359,7360,7361,7362,7363,7359,
7408,7409,7410,7411,7412,7408,7409,7410,7411,7412,7408,7409,7410,7411,7412,7408,
7457,7458,7459,7460,7461,7457,7458,7459,7460,7461,7457,7458,7459,7460,7461,7457,
7506,7507,7508,7509,7510,7506,7507,7508,7509,7510,7506,7507,7508,7509,7510,7506,
7212,7213,7214,7215,7216,7212,7213,7214,7215,7216,7212,7213,7214,7215,7216,7212,
7261,7262,7263,7264,7265,7261,7262,7263,7264,7265,7261,7262,7263,7264,7265,7261,
7310,7311,7312,7313,7314,7310,7311,7312,7313,7314,7310,7311,7312,7313,7314,7310,
7359,7360,7361,7362,7363,7359,7360,7361,7362,7363,7359,7360,7361,7362,7363,7359,
7408,7409,7410,7411,7412,7408,7409,7410,7411,7412,7408,7409,7410,7411,7412,7408,
7457,7458,7459,7460,7461,7457,7458,7459,7460,7461,7457,7458,7459,7460,7461,7457,
7506,7507,7508,7509,7510,7506,7507,7508,7509,7510,7506,7507,7508,7509,7510,7506,
7212,7213,7214,7215,7216,7212,7213,7214,7215,7216,7212,7213,7214,7215,7216,7212
</chunk>
      <chunk x="96" y="-64" width="16" height="16">
7507,7508,7509,7510,7506,7507,7508,7509,7510,7506,7507,7508,7509,7510,7506,7507,
7213,7214,7215,7216,7212,7213,7214,7215,7216,7212,7213,7214,7215,7216,7212,7213,
7262,7263,7264,7265,7261,7262,7263,7264,7265,7261,7262,7263,7264,7265,7261,7262,
7311,7312,7313,7314,7310,7311,7312,7313,7314,7310,7311,7312,7313,7314,7310,7311,
7360,7361,7362,7363,7359,7360,7361,7362,7363,7359,7360,7361,7362,7363,7359,7360,
7409,7410,7411,7412,7408,7409,7410,7411,7412,7408,7409,7410,7411,7412,7408,7409,
7458,7459,7460,7461,7457,7458,7459,7460,7461,7457,7458,7459,7460,7461,7457,7458,
7507,7508,7509,7510,7506,7507,7508,7509,7510,7506,7507,7508,7509,7510,7506,7507,
7213,7214,7215,7216,7212,7213,7214,7215,7216,7212,7213,7214,7215,7216,7212,7213,
7262,7263,7264,7265,7261,7262,7263,7264,7265,7261,7262,7263,7264,7265,7261,7262,
7311,7312,7313,7314,7310,7311,7312,7313,7314,7310,7311,7312,7313,7314,7310,7311,
7360,7361,7362,7363,7359,7360,7361,7362,7363,7359,7360,7361,7362,7363,7359,7360,
7409,7410,7411,7412,7408,7409,7410,7411,7412,7408,7409,7410,7411,7412,7408,7409,
7458,7459,7460,7461,7457,7458,7459,7460,7461,7457,7458,7459,7460,7461,7457,7458,
7507,7508,7509,7510,7506,7507,7508,7509,7510,7506,7507,7508,7509,7510,7506,7507,
7213,7214,7215,7216,7212,7213,7214,7215,7216,7212,7213,7214,7215,7216,7212,7213
</chunk>
      <chunk x="112" y="-64" width="16" height="16">
7508,7509,7510,7506,7507,7508,7509,7510,4167,4364,4364,4364,4364,4364,4364,4364,
7214,7215,7216,7212,7213,7214,7215,7216,4167,4364,4364,4364,4364,4364,4364,4364,
7263,7264,7265,7261,7262,7263,7264,7265,4167,4364,4364,4364,4364,4364,4364,4364,
7312,7313,7314,7310,7311,7312,7313,7314,4167,4364,4364,4364,4364,4364,4364,4364,
7361,7362,7363,7359,7360,7361,7362,7363,4167,4364,4364,4364,4364,4364,4364,4364,
7410,7411,7412,7408,7409,7410,7411,7412,4167,4364,4364,4364,4364,4364,4364,4364,
7459,7460,7461,7457,7458,7459,7460,7461,4167,4364,4364,4364,4364,4364,4364,4364,
7508,7509,7510,7506,7507,7508,7509,7510,4167,4364,4364,4364,4364,4364,4364,4364,
7214,7215,7216,7212,7213,7214,7215,7216,4167,4364,4364,4364,4364,4364,4364,4364,
7263,7264,7265,7261,7262,7263,7264,7265,4167,4364,4364,4364,4364,4364,4364,4364,
7312,7313,7314,7310,7311,7312,7313,7314,4167,4364,4364,4364,4364,4364,4364,4364,
7361,7362,7363,7359,7360,7361,7362,7363,4167,4364,4364,4364,4364,4364,4364,4364,
7410,7411,7412,7408,7409,7410,7411,7412,4167,4364,4364,4364,4364,4364,4364,4364,
7459,7460,7461,7457,7458,7459,7460,7461,4167,4364,4364,4364,4364,4364,4364,4364,
7508,7509,7510,7506,7507,7508,7509,7510,4167,4364,4364,4364,4364,4364,4364,4364,
7214,7215,7216,7212,7213,7214,7215,7216,4167,4364,4364,4364,4364,4364,4364,4364
</chunk>
      <chunk x="128" y="-64" width="16" height="16">
4364,4364,4364,4364,4364,4364,4364,4364,4364,4364,4364,4364,4364,4364,4364,4364,
4364,4364,4364,4364,4364,4364,4364,4364,4364,4364,4364,4364,4364,4364,4364,4364,
4364,4364,4364,4364,4364,4364,4364,4364,4364,4364,4364,4364,4364,4364,4364,4364,
4364,4364,4364,4364,4364,4364,4364,4364,4364,4364,4364,4364,4364,4364,4364,4364,
4364,4364,4364,4364,4364,4364,4364,4364,4364,4364,4364,4364,4364,4364,4364,4364,
4364,4364,4364,4364,4364,4364,4364,4364,4364,4364,4364,4364,4364,4364,4364,4364,
4364,4364,4364,4364,4364,4364,4364,4364,4364,4364,4364,4364,4364,4364,4364,4364,
4364,4364,4364,4364,4364,4364,4364,4364,4364,4364,4364,4364,4364,4364,4364,4364,
4364,4364,4364,4364,4364,4364,4364,4364,4364,4364,4364,4364,4364,4364,4364,4364,
4364,4364,4364,4364,4364,4364,4364,4364,4364,4364,4364,4364,4364,4364,4364,4364,
4364,4364,4364,4364,4364,4364,4364,4364,4364,4364,4364,4364,4364,4364,4364,4364,
4364,4364,4364,4364,4364,4364,4364,4364,4364,4364,4364,4364,4364,4364,4364,4364,
4364,4364,4364,4364,4364,4364,4364,4364,4364,4364,4364,4364,4364,4364,4364,4364,
4364,4364,4364,4364,4364,4364,4364,4364,4364,4364,4364,4364,4364,4364,4364,4364,
4364,4364,4364,4364,4364,4364,4364,4364,4364,4364,4364,4364,4364,4364,4364,4364,
4364,4364,4364,4364,4364,4364,4364,4364,4364,4364,4364,4364,4364,4364,4364,4364
</chunk>
      <chunk x="144" y="-64" width="16" height="16">
4364,4364,4364,4364,4364,4364,4364,4364,4364,8645,8842,8842,8649,4364,4364,4364,
4364,4364,4364,4364,4364,4364,4364,4364,4364,8645,8842,8842,8649,4364,4364,4364,
4364,4364,4364,4364,4364,4364,4364,4364,4364,8645,8842,8842,8649,4364,4364,4364,
4364,4364,4364,4364,4364,4364,4364,4364,4364,8645,8842,8842,8649,4364,4364,4364,
4364,4364,4364,4364,4364,4364,4364,4364,4364,8645,8842,8842,8649,4364,4364,4364,
4364,4364,4364,4364,4364,4364,4364,4364,4364,8645,8842,8842,8649,4364,4364,4364,
4364,4364,4364,4364,4364,4364,4364,4364,4364,8645,8842,8842,8649,4364,4364,4364,
4364,4364,4364,4364,4364,4364,4364,4364,4364,8645,8842,8842,8649,4364,4364,4364,
4364,4364,4364,4364,4364,4364,4364,4364,4364,8645,8842,8842,8649,4364,4364,4364,
4364,4364,4364,4364,4364,4364,4364,4364,4364,8645,8842,8842,8649,4364,4364,4364,
4364,4364,4364,4364,4364,4364,4364,4364,4364,8645,8842,8842,8649,4364,4364,4364,
4364,4364,4364,4364,4364,4364,4364,4364,4364,8645,8842,8842,8649,4364,4364,4364,
4364,4364,4364,4364,4364,4364,4364,4364,4364,8645,8842,8842,8649,4364,4364,4364,
4364,4364,4364,4364,4364,4364,4364,4364,4364,8645,8842,8842,8649,4364,4364,4364,
4364,4364,4364,4364,4364,4364,4364,4364,4364,8645,8842,8842,8649,4364,4364,4364,
4364,4364,4364,4364,4364,4364,4364,4364,4364,8645,8842,8842,8649,4364,4364,4364
</chunk>
      <chunk x="160" y="-64" width="16" height="16">
4364,4364,4364,4364,4364,4364,4364,4364,4364,4364,4364,4364,4364,4364,4364,4364,
4364,4364,4364,4364,4364,4364,4364,4364,4364,4364,4364,4364,4364,4364,4364,4364,
4364,4364,4364,4364,4364,4364,4364,4364,4364,4364,4364,4364,4364,4364,4364,4364,
4364,4364,4364,4364,4364,4364,4364,4364,4364,4364,4364,4364,4364,4364,4364,4364,
4364,4364,4364,4364,4364,4364,4364,4364,4364,4364,4364,4364,4364,4364,4364,4364,
4364,4364,4364,4364,4364,4364,4364,4364,4364,4364,4364,4364,4364,4364,4364,4364,
4364,4364,4364,4364,4364,4364,4364,4364,4364,4364,4364,4364,4364,4364,4364,4364,
4364,4364,4364,4364,4364,4364,4364,4364,4364,4364,4364,4364,4364,4364,4364,4364,
4364,4364,4364,4364,4364,4364,4364,4364,4364,4364,4364,4364,4364,4364,4364,4364,
4364,4364,4364,4364,4364,4364,4364,4364,4364,4364,4364,4364,4364,4364,4364,4364,
4364,4364,4364,4364,4364,4364,4364,4364,4364,4364,4364,4364,4364,4364,4364,4364,
4364,4364,4364,4364,4364,4364,4364,4364,4364,4364,4364,4364,4364,4364,4364,4364,
4364,4364,4364,4364,4364,4364,4364,4364,4364,4364,4364,4364,4364,4364,4364,4364,
4364,4364,4364,4364,4364,4364,4364,4364,4364,4364,4364,4364,4364,4364,4364,4364,
4364,4364,4364,4364,4364,4364,4364,4364,4364,4364,4364,4364,4364,4364,4364,4364,
4364,4364,4364,4364,4364,4364,4364,4364,4364,4364,4364,4364,4364,4364,4364,4364
</chunk>
      <chunk x="176" y="-64" width="16" height="16">
4364,4364,4364,4364,4364,4364,4364,4364,4364,4364,4364,4364,4364,4122,6714,6715,
4364,4364,4364,4364,4364,4364,4364,4364,4364,4364,4364,4364,4364,4122,6730,6731,
4364,4364,4364,4364,4364,4364,4364,4364,4364,4364,4364,4364,4364,4122,6746,6747,
4364,4364,4364,4364,4364,4364,4364,4364,4364,4364,4364,4364,4364,4122,6714,6715,
4364,4364,4364,4364,4364,4364,4364,4364,4364,4364,4364,4364,4364,4122,6714,6715,
4364,4364,4364,4364,4364,4364,4364,4364,4364,4364,4364,4364,4364,4122,6730,6731,
4364,4364,4364,4364,4364,4364,4364,4364,4364,4364,4364,4364,4364,4122,6746,6747,
4364,4364,4364,4364,4364,4364,4364,4364,4364,4364,4364,4364,4364,4122,6714,6715,
4364,4364,4364,4364,4364,4364,4364,4364,4364,4364,4364,4364,4364,4122,6730,6731,
4364,4364,4364,4364,4364,4364,4364,4364,4364,4364,4364,4364,4364,4122,6746,6747,
4364,4364,4364,4364,4364,4364,4364,4364,4364,4364,4364,4364,4364,4122,6714,6715,
4364,4364,4364,4364,4364,4364,4364,4364,4364,4364,4364,4364,4364,4122,6730,6731,
4364,4364,4364,4364,4364,4364,4364,4364,4364,4364,4364,4364,4364,4122,6746,6747,
4364,4364,4364,4364,4364,4364,4364,4364,4364,4364,4364,4364,4364,4122,6714,6715,
4364,4364,4364,4364,4364,4364,4364,4364,4364,4364,4364,4364,4364,4122,6730,6731,
4364,4364,4364,4364,4364,4364,4364,4364,4364,4364,4364,4364,4364,4122,6746,6747
</chunk>
      <chunk x="192" y="-64" width="16" height="16">
6714,6715,6714,6715,6714,6715,6714,6715,6714,6715,6714,6715,6714,6715,6714,6715,
6730,6731,6730,6731,6730,6731,6730,6731,6730,6731,6730,6731,6730,6731,6730,6731,
6746,6747,6746,6747,6746,6747,6746,6747,6746,6747,6746,6747,6746,6747,6746,6747,
6714,6715,6714,6715,6714,6715,6714,6715,6714,6715,6714,6715,6714,6715,6714,6715,
6714,6715,6714,6715,6714,6715,6714,6715,6714,6715,6714,6715,6714,6715,6714,6715,
6730,6731,6730,6731,6730,6731,6730,6731,6730,6731,6730,6731,6730,6731,6730,6731,
6746,6747,6746,6747,6746,6747,6746,6747,6746,6747,6746,6747,6746,6747,6746,6747,
6714,6715,6714,6715,6714,6715,6714,6715,6714,6715,6714,6715,6714,6715,6714,6715,
6730,6731,6730,6731,6730,6731,6730,6731,6730,6731,6730,6731,6730,6731,6730,6731,
6746,6747,6746,6747,6746,6747,6746,6747,6746,6747,6746,6747,6746,6747,6746,6747,
6714,6715,6714,6715,6714,6715,6714,6715,6714,6715,6714,6715,6714,6715,6714,6715,
6730,6731,6730,6731,6730,6731,6730,6731,6730,6731,6730,6731,6730,6731,6730,6731,
6746,6747,6746,6747,6746,6747,6746,6747,6746,6747,6746,6747,6746,6747,6746,6747,
6714,6715,6714,6715,6714,6715,6714,6715,6714,6715,6714,6715,6714,6715,6714,6715,
6730,6731,6730,6731,6730,6731,6730,6731,6730,6731,6730,6731,6730,6731,6730,6731,
6746,6747,6746,6747,6746,6747,6746,6747,6746,6747,6746,6747,6746,6747,6746,6747
</chunk>
      <chunk x="208" y="-64" width="16" height="16">
6714,6715,6714,6715,6714,6715,6714,6715,6714,6715,6714,6715,6714,6715,6714,6715,
6730,6731,6730,6731,6730,6731,6730,6731,6730,6731,6730,6731,6730,6731,6730,6731,
6746,6747,6746,6747,6746,6747,6746,6747,6746,6747,6746,6747,6746,6747,6746,6747,
6714,6715,6714,6715,6714,6715,6714,6715,6714,6715,6714,6715,6714,6715,6714,6715,
6714,6715,6714,6715,6714,6715,6714,6715,6714,6715,6714,6715,6714,6715,6714,6715,
6730,6731,6730,6731,6730,6731,6730,6731,6730,6731,6730,6731,6730,6731,6730,6731,
6746,6747,6746,6747,6746,6747,6746,6747,6746,6747,6746,6747,6746,6747,6746,6747,
6714,6715,6714,6715,6714,6715,6714,6715,6714,6715,6714,6715,6714,6715,6714,6715,
6730,6731,6730,6731,6730,6731,6730,6731,6730,6731,6730,6731,6730,6731,6730,6731,
6746,6747,6746,6747,6746,6747,6746,6747,6746,6747,6746,6747,6746,6747,6746,6747,
6714,6715,6714,6715,6714,6715,6714,6715,6714,6715,6714,6715,6714,6715,6714,6715,
6730,6731,6730,6731,6730,6731,6730,6731,6730,6731,6730,6731,6730,6731,6730,6731,
6746,6747,6746,6747,6746,6747,6746,6747,6746,6747,6746,6747,6746,6747,6746,6747,
6714,6715,6714,6715,6714,6715,6714,6715,6714,6715,6714,6715,6714,6715,6714,6715,
6730,6731,6730,6731,6730,6731,6730,6731,6730,6731,6730,6731,6730,6731,6730,6731,
6746,6747,6746,6747,6746,6747,6746,6747,6746,6747,6746,6747,6746,6747,6746,6747
</chunk>
      <chunk x="224" y="-64" width="16" height="16">
6714,6715,6714,6715,6714,6715,6714,6715,6714,6715,6714,6715,6714,6715,6714,6715,
6730,6731,6730,6731,6730,6731,6730,6731,6730,6731,6730,6731,6730,6731,6730,6731,
6746,6747,6746,6747,6746,6747,6746,6747,6746,6747,6746,6747,6746,6747,6746,6747,
6714,6715,6714,6715,6714,6715,6714,6715,6714,6715,6714,6715,6714,6715,6714,6715,
6714,6715,6714,6715,6714,6715,6714,6715,6714,6715,6714,6715,6714,6715,6714,6715,
6730,6731,6730,6731,6730,6731,6730,6731,6730,6731,6730,6731,6730,6731,6730,6731,
6746,6747,6746,6747,6746,6747,6746,6747,6746,6747,6746,6747,6746,6747,6746,6747,
6714,6715,6714,6715,6714,6715,6714,6715,6714,6715,6714,6715,6714,6715,6714,6715,
6730,6731,6730,6731,6730,6731,6730,6731,6730,6731,6730,6731,6730,6731,6730,6731,
6746,6747,6746,6747,6746,6747,6746,6747,6746,6747,6746,6747,6746,6747,6746,6747,
6714,6715,6714,6715,6714,6715,6714,6715,6714,6715,6714,6715,6714,6715,6714,6715,
6730,6731,6730,6731,6730,6731,6730,6731,6730,6731,6730,6731,6730,6731,6730,6731,
6746,6747,6746,6747,6746,6747,6746,6747,6746,6747,6746,6747,6746,6747,6746,6747,
6714,6715,6714,6715,6714,6715,6714,6715,6714,6715,6714,6715,6714,6715,6714,6715,
6730,6731,6730,6731,6730,6731,6730,6731,6730,6731,6730,6731,6730,6731,6730,6731,
6746,6747,6746,6747,6746,6747,6746,6747,6746,6747,6746,6747,6746,6747,6746,6747
</chunk>
      <chunk x="240" y="-64" width="16" height="16">
6714,6715,6714,6715,6714,6715,6714,6715,6714,6715,6714,6715,6714,6715,6714,6715,
6730,6731,6730,6731,6730,6731,6730,6731,6730,6731,6730,6731,6730,6731,6730,6731,
6746,6747,6746,6747,6746,6747,6746,6747,6746,6747,6746,6747,6746,6747,6746,6747,
6714,6715,6714,6715,6714,6715,6714,6715,6714,6715,6714,6715,6714,6715,6714,6715,
6714,6715,6714,6715,6714,6715,6714,6715,6714,6715,6730,6731,6730,6731,6730,6731,
6730,6731,6730,6731,6730,6731,6730,6731,6730,6731,6746,6747,6746,6747,6746,6747,
6746,6747,6746,6747,6746,6747,6746,6747,6746,6747,6714,6715,6714,6715,6714,6715,
6714,6715,6714,6715,6714,6715,6714,6715,6714,6715,6730,6731,6730,6731,6730,6731,
6730,6731,6730,6731,6730,6731,6730,6731,6730,6731,6746,6747,6746,6747,6746,6747,
6746,6747,6746,6747,6746,6747,6746,6747,6746,6747,6714,6715,6714,6715,6714,6715,
6714,6715,6714,6715,6714,6715,6714,6715,6714,6715,6730,6731,6730,6731,6730,6731,
6730,6731,6730,6731,6730,6731,6730,6731,6730,6731,6746,6747,6746,6747,6746,6747,
6746,6747,6746,6747,6746,6747,6746,6747,6746,6747,6714,6715,6714,6715,6714,6715,
6714,6715,6714,6715,6714,6715,6714,6715,6714,6715,6730,6731,6730,6731,6730,6731,
6730,6731,6730,6731,6730,6731,6730,6731,6730,6731,6746,6747,6746,6747,6746,6747,
6746,6747,6746,6747,6746,6747,6746,6747,6746,6747,6714,6715,6714,6715,6714,6715
</chunk>
      <chunk x="256" y="-64" width="16" height="16">
6714,6715,6714,6715,6778,6779,6778,6779,6778,6779,6778,6779,6778,6779,6778,6779,
6730,6731,6730,6731,6794,6795,6794,6795,6794,6795,6794,6795,6794,6795,6794,6795,
6746,6747,6746,6747,6762,6763,6762,6763,6762,6763,6762,6763,6762,6763,6762,6763,
6714,6715,6714,6715,6778,6779,6778,6779,6778,6779,6778,6779,6778,6779,6778,6779,
6730,6731,6730,6731,6794,6795,6794,6795,6794,6795,6794,6795,6794,6795,6794,6795,
6746,6747,6746,6747,6762,6763,6762,6763,6762,6763,6762,6763,6762,6763,6762,6763,
6714,6715,6714,6715,6778,6779,6778,6779,6778,6779,6778,6779,6778,6779,6778,6779,
6730,6731,6730,6731,6794,6795,6794,6795,6794,6795,6794,6795,6794,6795,6794,6795,
6746,6747,6746,6747,6762,6763,6762,6763,6762,6763,6762,6763,6762,6763,6762,6763,
6714,6715,6714,6715,6778,6779,6778,6779,6778,6779,6778,6779,6778,6779,6778,6779,
6730,6731,6730,6731,6794,6795,6794,6795,6794,6795,6794,6795,6794,6795,6794,6795,
6746,6747,6746,6747,6762,6763,6762,6763,6762,6763,6762,6763,6762,6763,6762,6763,
6714,6715,6714,6715,6778,6779,6778,6779,6778,6779,6778,6779,6778,6779,6778,6779,
6730,6731,6730,6731,6794,6795,6794,6795,6794,6795,6794,6795,6794,6795,6794,6795,
6746,6747,6746,6747,6762,6763,6762,6763,6762,6763,6762,6763,6762,6763,6762,6763,
6714,6715,6714,6715,6778,6779,6778,6779,6778,6779,6778,6779,6778,6779,6778,6779
</chunk>
      <chunk x="272" y="-64" width="16" height="16">
6778,6779,6778,6779,6778,6779,6778,6779,0,0,0,0,0,0,0,0,
6794,6795,6794,6795,6794,6795,6794,6795,0,0,0,0,0,0,0,0,
6762,6763,6762,6763,6762,6763,6762,6763,0,0,0,0,0,0,0,0,
6778,6779,6778,6779,6778,6779,6778,6779,0,0,0,0,0,0,0,0,
6794,6795,6794,6795,6794,6795,6794,6795,0,0,0,0,0,0,0,0,
6762,6763,6762,6763,6762,6763,6762,6763,0,0,0,0,0,0,0,0,
6778,6779,6778,6779,6778,6779,6778,6779,0,0,0,0,0,0,0,0,
6794,6795,6794,6795,6794,6795,6794,6795,0,0,0,0,0,0,0,0,
6762,6763,6762,6763,6762,6763,6762,6763,0,0,0,0,0,0,0,0,
6778,6779,6778,6779,6778,6779,6778,6779,0,0,0,0,0,0,0,0,
6794,6795,6794,6795,6794,6795,6794,6795,0,0,0,0,0,0,0,0,
6762,6763,6762,6763,6762,6763,6762,6763,0,0,0,0,0,0,0,0,
6778,6779,6778,6779,6778,6779,6778,6779,0,0,0,0,0,0,0,0,
6794,6795,6794,6795,6794,6795,6794,6795,0,0,0,0,0,0,0,0,
6762,6763,6762,6763,6762,6763,6762,6763,0,0,0,0,0,0,0,0,
6778,6779,6778,6779,6778,6779,6778,6779,0,0,0,0,0,0,0,0
</chunk>
      <chunk x="16" y="-48" width="16" height="16">
0,0,0,0,0,0,0,0,0,0,0,0,0,0,6794,6795,
0,0,0,0,0,0,0,0,0,0,0,0,0,0,6762,6763,
0,0,0,0,0,0,0,0,0,0,0,0,0,0,6778,6779,
0,0,0,0,0,0,0,0,0,0,0,0,0,0,6794,6795,
0,0,0,0,0,0,0,0,0,0,0,0,0,0,6762,6763,
0,0,0,0,0,0,0,0,0,0,0,0,0,0,6778,6779,
0,0,0,0,0,0,0,0,0,0,0,0,0,0,6794,6795,
0,0,0,0,0,0,0,0,0,0,0,0,0,0,6762,6763,
0,0,0,0,0,0,0,0,0,0,0,0,0,0,6778,6779,
0,0,0,0,0,0,0,0,0,0,0,0,0,0,6794,6795,
0,0,0,0,0,0,0,0,0,0,0,0,0,0,6762,6763,
0,0,0,0,0,0,0,0,0,0,0,0,0,0,6778,6779,
0,0,0,0,0,0,0,0,0,0,0,0,0,0,6794,6795,
0,0,0,0,0,0,0,0,0,0,0,0,0,0,6762,6763,
0,0,0,0,0,0,0,0,0,0,0,0,0,0,6778,6779,
0,0,0,0,0,0,0,0,0,0,0,0,0,0,6794,6795
</chunk>
      <chunk x="32" y="-48" width="16" height="16">
6794,6795,6794,6795,6794,6795,6794,6795,6794,6795,6794,6795,6794,6795,6794,6795,
6762,6763,6762,6763,6762,6763,6762,6763,6762,6763,6762,6763,6762,6763,6762,6763,
6778,6779,6778,6779,6778,6779,6778,6779,6778,6779,6778,6779,6778,6779,6778,6779,
6794,6795,6794,6795,6794,6795,6794,6795,6794,6795,6794,6795,6794,6795,6794,6795,
6762,6763,6762,6763,6762,6763,6762,6763,6762,6763,6762,6763,6762,6763,6762,6763,
6778,6779,6778,6779,6778,6779,6778,6779,6778,6779,6778,6779,6778,6779,6778,6779,
6794,6795,6794,6795,6794,6795,6794,6795,6794,6795,6794,6795,6794,6795,6794,6795,
6762,6763,6762,6763,6762,6763,6762,6763,6762,6763,6762,6763,6762,6763,6762,6763,
6778,6779,6778,6779,6778,6779,6778,6779,6778,6779,6778,6779,6778,6779,6778,6779,
6794,6795,6794,6795,6794,6795,6794,6795,6794,6795,6794,6795,6794,6795,6794,6795,
6762,6763,6762,6763,6762,6763,6762,6763,6762,6763,6762,6763,6762,6763,6762,6763,
6778,6779,6778,6779,6778,6779,6778,6779,6778,6779,6778,6779,6778,6779,6778,6779,
6794,6795,6794,6795,6794,6795,6794,6795,6794,6795,6794,6795,6794,6795,6794,6795,
6762,6763,6762,6763,6762,6763,6762,6763,6762,6763,6762,6763,6762,6763,6762,6763,
6778,6779,6778,6779,6778,6779,6778,6779,6778,6779,6778,6779,6778,6779,6778,6779,
6794,6795,6794,6795,6794,6795,6794,6795,6794,6795,6794,6795,6794,6795,6794,6795
</chunk>
      <chunk x="48" y="-48" width="16" height="16">
6794,6795,7261,7262,7263,7264,7265,7261,7262,7263,7264,7265,7261,7262,7263,7264,
6762,6763,7310,7311,7312,7313,7314,7310,7311,7312,7313,7314,7310,7311,7312,7313,
6778,6779,7359,7360,7361,7362,7363,7359,7360,7361,7362,7363,7359,7360,7361,7362,
6794,6795,7408,7409,7410,7411,7412,7408,7409,7410,7411,7412,7408,7409,7410,7411,
6762,6763,7457,7458,7459,7460,7461,7457,7458,7459,7460,7461,7457,7458,7459,7460,
6778,6779,7506,7507,7508,7509,7510,7506,7507,7508,7509,7510,7506,7507,7508,7509,
6794,6795,7212,7213,7214,7215,7216,7212,7213,7214,7215,7216,7212,7213,7214,7215,
6762,6763,7261,7262,7263,7264,7265,7261,7262,7263,7264,7265,7261,7262,7263,7264,
6778,6779,7310,7311,7312,7313,7314,7310,7311,7312,7313,7314,7310,7311,7312,7313,
6794,6795,7359,7360,7361,7362,7363,7359,7360,7361,7362,7363,7359,7360,7361,7362,
6762,6763,7408,7409,7410,7411,7412,7408,7409,7410,7411,7412,7408,7409,7410,7411,
6778,6779,7457,7458,7459,7460,7461,7457,7458,7459,7460,7461,7457,7458,7459,7460,
6794,6795,7506,7507,7508,7509,7510,7506,7507,7508,7509,7510,7506,7507,7508,7509,
6762,6763,7212,7213,7214,7215,7216,7212,7213,7214,7215,7216,7212,7213,7214,7215,
6778,6779,7261,7262,7263,7264,7265,7261,7262,7263,7264,7265,7261,7262,7263,7264,
6794,6795,7310,7311,7312,7313,7314,7310,7311,7312,7313,7314,7310,7311,7312,7313
</chunk>
      <chunk x="64" y="-48" width="16" height="16">
7265,7261,7262,7263,7264,7265,7261,7262,7263,7264,7265,7261,7262,7263,7264,7265,
7314,7310,7311,7312,7313,7314,7310,7311,7312,7313,7314,7310,7311,7312,7313,7314,
7363,7359,7360,7361,7362,7363,7359,7360,7361,7362,7363,7359,7360,7361,7362,7363,
7412,7408,7409,7410,7411,7412,7408,7409,7410,7411,7412,7408,7409,7410,7411,7412,
7461,7457,7458,7459,7460,7461,7457,7458,7459,7460,7461,7457,7458,7459,7460,7461,
7510,7506,7507,7508,7509,7510,7506,7507,7508,7509,7510,7506,7507,7508,7509,7510,
7216,7212,7213,7214,7215,7216,7212,7213,7214,7215,7216,7212,7213,7214,7215,7216,
7265,7261,7262,7263,7264,7265,7261,7262,7263,7264,7265,7261,7262,7263,7264,7265,
7314,7310,7311,7312,7313,7314,7310,7311,7312,7313,7314,7310,7311,7312,7313,7314,
7363,7359,7360,7361,7362,7363,7359,7360,7361,7362,7363,7359,7360,7361,7362,7363,
7412,7408,7409,7410,7411,7412,7408,7409,7410,7411,7412,7408,7409,7410,7411,7412,
7461,7457,7458,7459,7460,7461,7457,7458,7459,7460,7461,7457,7458,7459,7460,7461,
7510,7506,7507,7508,7509,7510,7506,7507,7508,7509,7510,7506,7507,7508,7509,7510,
7216,7212,7213,7214,7215,7216,7212,7213,7214,7215,7216,7212,7213,7214,7215,7216,
7265,7261,7262,7263,7264,7265,7261,7262,7263,7264,7265,7261,7262,7263,7264,7265,
7314,7310,7311,7312,7313,7314,7310,7311,7312,7313,7314,7310,7311,7312,7313,7314
</chunk>
      <chunk x="80" y="-48" width="16" height="16">
7261,7262,7263,7264,7265,7261,7262,7263,7264,7265,7261,7262,7263,7264,7265,7261,
7310,7311,7312,7313,7314,7310,7311,7312,7313,7314,7310,7311,7312,7313,7314,7310,
7359,7360,7361,7362,7363,7359,7360,7361,7362,7363,7359,7360,7361,7362,7363,7359,
7408,7409,7410,7411,7412,7408,7409,7410,7411,7412,7408,7409,7410,7411,7412,7408,
7457,7458,7459,7460,7461,7457,7458,7459,7460,7461,7457,7458,7459,7460,7461,7457,
7506,7507,7508,7509,7510,7506,7507,7508,7509,7510,7506,7507,7508,7509,7510,7506,
7212,7213,7214,7215,7216,7212,7213,7214,7215,7216,7212,7213,7214,7215,7216,7212,
7261,7262,7263,7264,7265,7261,7262,7263,7264,7265,7261,7262,7263,7264,7265,7261,
7310,7311,7312,7313,7314,7310,7311,7312,7313,7314,7310,7311,7312,7313,7314,7310,
7359,7360,7361,7362,7363,7359,7360,7361,7362,7363,7359,7360,7361,7362,7363,7359,
7408,7409,7410,7411,7412,7408,7409,7410,7411,7412,7408,7409,7410,7411,7412,7408,
7457,7458,7459,4522,4524,4524,4524,4524,4524,4524,4524,4524,4524,4524,4524,4524,
7506,7507,7508,4620,4817,4817,4817,4817,4817,4817,4817,4817,4817,4817,4817,4817,
7212,7213,7214,4620,4817,4817,4817,4817,4817,4817,4817,4817,4817,4817,4817,4817,
7261,7262,7263,4620,4817,4817,4572,4720,4720,4720,4720,4720,4720,4720,4720,4720,
7310,7311,7312,4620,4817,4817,4673,7312,7313,7314,7310,7311,7312,7313,7314,7310
</chunk>
      <chunk x="96" y="-48" width="16" height="16">
7262,7263,7264,7265,7261,7262,7263,7264,7265,7261,7262,7263,7264,7265,7261,7262,
7311,7312,7313,7314,7310,7311,7312,7313,7314,7310,7311,7312,7313,7314,7310,7311,
7360,7361,7362,7363,7359,7360,7361,7362,7363,7359,7360,7361,7362,7363,7359,7360,
7409,7410,7411,7412,7408,7409,7410,7411,7412,7408,7409,7410,7411,7412,7408,7409,
7458,7459,7460,7461,7457,7458,7459,7460,7461,7457,7458,7459,7460,7461,7457,7458,
7507,7508,7509,7510,7506,7507,7508,7509,7510,7506,7507,7508,7509,7510,7506,7507,
7213,7214,7215,7216,7212,7213,7214,7215,7216,7212,7213,7214,7215,7216,7212,7213,
7262,7263,7264,7265,7261,7262,7263,7264,7265,7261,7262,7263,7264,7265,7261,7262,
7311,7312,7313,7314,7310,7311,7312,7313,7314,7310,7311,7312,7313,7314,7310,7311,
7360,7361,7362,7363,7359,7360,7361,7362,7363,7359,7360,7361,7362,7363,7359,7360,
7409,7410,7411,7412,7408,7409,7410,7411,7412,7408,7409,7410,7411,7412,7408,7409,
4524,4524,4524,4524,4524,4524,4524,4524,4524,4524,4524,4524,4524,4524,4524,4524,
4817,4817,4817,4817,4817,4817,4817,4817,4817,4817,4817,4817,4817,4817,4817,4817,
4817,4817,4817,4817,4817,4817,4817,4817,4817,4817,4817,4817,4817,4817,4817,4817,
4720,4720,4720,4720,4720,4720,4720,4720,4720,4720,4720,4720,4720,4720,4720,4720,
7311,7312,7313,7314,7310,7311,7312,7313,7314,7310,7311,7312,7313,7314,7310,7311
</chunk>
      <chunk x="112" y="-48" width="16" height="16">
7263,7264,7265,7261,7262,7263,7264,7265,4167,4364,4364,4364,4364,4364,4364,4364,
7312,7313,7314,7310,7311,7312,7313,7314,4167,4364,4364,4364,4364,4364,4364,4364,
7361,7362,7363,7359,7360,7361,7362,7363,4167,4364,4364,4364,4364,4364,4364,4364,
7410,7411,7412,7408,7409,7410,7411,7412,4167,4364,4364,4364,4364,4364,4364,4364,
7459,7460,7461,7457,7458,7459,7460,7461,4167,4364,4364,4364,4364,4364,4364,4364,
7508,7509,7510,7506,7507,7508,7509,7510,4167,4364,4364,4364,4364,4364,4364,4364,
7214,7215,7216,7212,7213,7214,7215,7216,4167,4364,4364,4364,4364,4364,4364,4364,
7263,7264,7265,7261,7262,7263,7264,7265,4167,4364,4364,4364,4364,4364,4364,4364,
7312,7313,7314,7310,7311,7312,7313,7314,4167,4364,4364,4364,4364,4364,4364,4364,
7361,7362,7363,7359,7360,7361,7362,7363,4167,4364,4364,4364,4364,4364,4364,4364,
7410,7411,7412,7408,7409,7410,7411,7412,4167,4364,4364,4364,4364,4364,4364,4364,
4524,4524,4524,4524,4524,4524,4671,4069,4364,4364,4364,8547,8548,8548,8548,8548,
4817,4817,4817,4817,4817,4817,4805,4167,4364,4364,4364,8694,8842,8842,8842,8842,
4817,4817,4817,4817,4817,4817,4805,4167,4364,4364,4364,8694,8842,8842,8842,8842,
4720,4720,4720,4720,4720,4720,4573,4167,4364,4364,4364,8743,8744,8744,8744,8744,
7312,7313,7314,7310,7311,7312,7313,7314,4167,4364,4364,4364,4364,4364,4364,4364
</chunk>
      <chunk x="128" y="-48" width="16" height="16">
4364,4364,4364,4364,4364,4364,4364,4364,4364,4364,4364,4364,4364,4364,4364,4364,
4364,4364,4364,4364,4364,4364,4364,4364,4364,4364,4364,4364,4364,4364,4364,4364,
4364,4364,4364,4364,4364,4364,4364,4364,4364,4364,4364,4364,4364,4364,4364,4364,
4364,4364,4364,4364,4364,4364,4364,4364,4364,4364,4364,4364,4364,4364,4364,4364,
4364,4364,4364,4364,4364,4364,4364,4364,4364,4364,4364,4364,4364,4364,4364,4364,
4364,4364,4364,4364,4364,4364,4364,4364,4364,4364,4364,4364,4364,4364,4364,4364,
4364,4364,4364,4364,4364,4364,4364,4364,4364,4364,4364,4364,4364,4364,4364,4364,
4364,4364,4364,4364,4364,4364,4364,4364,4364,4364,4364,4364,4364,4364,4364,4364,
4364,4364,4364,4364,4364,4364,4364,4364,4364,4364,4364,4364,4364,4364,4364,4364,
4364,4364,4364,4364,4364,4364,4364,4364,4364,4364,4364,4364,4364,4364,4364,4364,
4364,4364,4364,4364,4364,4364,4364,4364,4364,4364,4364,4364,4364,4364,4364,4364,
8548,8548,8548,8548,8548,8548,8548,8548,8548,8548,8548,8548,8548,8548,8548,8548,
8842,8842,8842,8842,8842,8842,8842,8842,8842,8842,8842,8842,8842,8842,8842,8842,
8842,8842,8842,8842,8842,8842,8842,8842,8842,8842,8842,8842,8842,8842,8842,8842,
8744,8744,8744,8744,8744,8744,8744,8744,8744,8744,8744,8744,8744,8744,8744,8744,
4364,4364,4364,4364,4364,4364,4364,4364,4364,4364,4364,4364,4364,4364,4364,4364
</chunk>
      <chunk x="144" y="-48" width="16" height="16">
4364,4364,4364,4364,4364,4364,4364,4364,4364,8645,8842,8842,8649,4364,4364,4364,
4364,4364,4364,4364,4364,4364,4364,4364,4364,8645,8842,8842,8649,4364,4364,4364,
4364,4364,4364,4364,4364,4364,4364,4364,4364,8645,8842,8842,8649,4364,4364,4364,
4364,4364,4364,4364,4364,4364,4364,4364,4364,8645,8842,8842,8649,4364,4364,4364,
4364,4364,4364,4364,4364,4364,4364,4364,4364,8645,8842,8842,8649,4364,4364,4364,
4364,4364,4364,4364,4364,4364,4364,4364,4364,8645,8842,8842,8649,4364,4364,4364,
4364,4364,4364,4364,4364,4364,4364,4364,4364,8645,8842,8842,8649,4364,4364,4364,
4364,4364,4364,4364,4364,4364,4364,4364,4364,8645,8842,8842,8649,4364,4364,4364,
4364,4364,4364,4364,4364,4364,4364,4364,4364,8645,8842,8842,8649,4364,4364,4364,
4364,4364,4364,4364,4364,4364,4364,4364,4364,8645,8842,8842,8649,4364,4364,4364,
4364,4364,4364,4364,4364,4364,4364,4364,4364,8645,8842,8842,8649,4364,4364,4364,
8548,8548,8548,8548,8548,8548,8548,8548,8548,8697,8842,8842,8695,8549,8549,8549,
8842,8842,8842,8842,8842,8842,8842,8842,8842,8842,8842,8842,8842,8842,8842,8842,
8842,8842,8842,8842,8842,8842,8842,8842,8842,8842,8842,8842,8842,8842,8842,8842,
8744,8744,8744,8744,8744,8744,8744,8744,8744,8599,8842,8842,8597,8745,8745,8745,
4364,4364,4364,4364,4364,4364,4364,4364,4364,8645,8842,8842,8649,4364,4364,4364
</chunk>
      <chunk x="160" y="-48" width="16" height="16">
4364,4364,4364,4364,4364,4364,4364,4364,4364,4364,4364,4364,4364,4364,4364,4364,
4364,4364,4364,4364,4364,4364,4364,4364,4364,4364,4364,4364,4364,4364,4364,4364,
4364,4364,4364,4364,4364,4364,4364,4364,4364,4364,4364,4364,4364,4364,4364,4364,
4364,4364,4364,4364,4364,4364,4364,4364,4364,4364,4364,4364,4364,4364,4364,4364,
4364,4364,4364,4364,4364,4364,4364,4364,4364,4364,4364,4364,4364,4364,4364,4364,
4364,4364,4364,4364,4364,4364,4364,4364,4364,4364,4364,4364,4364,4364,4364,4364,
4364,4364,4364,4364,4364,4364,4364,4364,4364,4364,4364,4364,4364,4364,4364,4364,
4364,4364,4364,4364,4364,4364,4364,4364,4364,4364,4364,4364,4364,4364,4364,4364,
4364,4364,4364,4364,4364,4364,4364,4364,4364,4364,4364,4364,4364,4364,4364,4364,
4364,4364,4364,4364,4364,4364,4364,4364,4364,4364,4364,4364,4364,4364,4364,4364,
4364,4364,4364,4364,4364,4364,4364,4364,4364,4364,4364,4364,4364,4364,4364,4364,
8549,8549,8549,8549,8549,8549,8549,8549,8549,8549,8549,8549,8549,8549,8549,8549,
8842,8842,8842,8842,8842,8842,8842,8842,8842,8842,8842,8842,8842,8842,8842,8842,
8842,8842,8842,8842,8842,8842,8842,8842,8842,8842,8842,8842,8842,8842,8842,8842,
8745,8745,8745,8745,8745,8745,8745,8745,8745,8745,8745,8745,8745,8745,8745,8745,
4364,4364,4364,4364,4364,4364,4364,4364,4364,4364,4364,4364,4364,4364,4364,4364
</chunk>
      <chunk x="176" y="-48" width="16" height="16">
4364,4364,4364,4364,4364,4364,4364,4364,4364,4364,4364,4364,4364,4122,6714,6715,
4364,4364,4364,4364,4364,4364,4364,4364,4364,4364,4364,4364,4364,4122,6730,6731,
4364,4364,4364,4364,4364,4364,4364,4364,4364,4364,4364,4364,4364,4122,6746,6747,
4364,4364,4364,4364,4364,4364,4364,4364,4364,4364,4364,4364,4364,4122,6714,6715,
4364,4364,4364,4364,4364,4364,4364,4364,4364,4364,4364,4364,4364,4122,6730,6731,
4364,4364,4364,4364,4364,4364,4364,4364,4364,4364,4364,4364,4364,4122,6746,6747,
4364,4364,4364,4364,4364,4364,4364,4364,4364,4364,4364,4364,4364,4122,6714,6715,
4364,4364,4364,4364,4364,4364,4364,4364,4364,4364,4364,4364,4364,4122,6730,6731,
4364,4364,4364,4364,4364,4364,4364,4364,4364,4364,4364,4364,4364,4122,6746,6747,
4364,4364,4364,4364,4364,4364,4364,4364,4364,4364,4364,4364,4364,4122,6714,6715,
4364,4364,4364,4364,4364,4364,4364,4364,4364,4364,4364,4364,4364,4122,6730,6731,
8549,8549,8549,8549,8549,8549,8549,8549,8549,8549,8551,4364,4364,4217,4073,2684361992,
8842,8842,8842,8842,8842,8842,8842,8842,8842,8842,8600,4364,4364,4364,4171,2684361994,
8842,8842,8842,8842,8842,8842,8842,8842,8842,8842,8600,4364,4364,4364,4171,2684361994,
8745,8745,8745,8745,8745,8745,8745,8745,8745,8745,8747,4364,4364,4364,4122,2684361996,
4364,4364,4364,4364,4364,4364,4364,4364,4364,4364,4364,4364,4364,4171,6714,2684362019
</chunk>
      <chunk x="192" y="-48" width="16" height="16">
6714,6715,6714,6715,6714,6715,6714,6715,6714,6715,6714,6715,6714,6715,6714,6715,
6730,6731,6730,6731,6730,6731,6730,6731,6730,6731,6730,6731,6730,6731,6730,6731,
6746,6747,6746,6747,6746,6747,6746,6747,6746,6747,6746,6747,6746,6747,6746,6747,
6714,6715,6714,6715,6714,6715,6714,6715,6714,6715,6714,6715,6714,6715,6714,6715,
6730,6731,6730,6731,6730,6731,6730,6731,6730,6731,6730,6731,6730,6731,6730,6731,
6746,6747,6746,6747,6746,6747,6746,6747,6746,6747,6746,6747,6746,6747,6746,6747,
6714,6715,6714,6715,6714,6715,6714,6715,6714,6715,6714,6715,6714,6715,6714,6715,
6730,6731,6730,6731,6730,6731,6730,6731,6730,6731,6730,6731,6730,6731,6730,6731,
6746,6747,6746,6747,6746,6747,6746,6747,6746,6747,6746,6747,6746,6747,6746,6747,
6714,6715,6714,6715,6714,6715,6714,6715,6714,6715,6714,6715,6714,6715,6714,6715,
6730,6731,6730,6731,6730,6731,6730,6731,6730,6731,6730,6731,6730,6731,6730,6731,
2684361845,2684361845,2684361845,2684361845,2684361845,2684361845,2684361845,2684361845,2684361845,2684361845,2684361845,2684361845,2684361845,2684361845,2684361845,2684361845,
2684362091,2684362091,2684362091,2684362091,2684362091,2684362091,2684362091,2684362091,2684362091,2684362091,2684362091,2684362091,2684362091,2684362091,2684362091,2684362091,
2684362091,2684362091,2684362091,2684362091,2684362091,2684362091,2684362091,2684362091,2684362091,2684362091,2684362091,2684362091,2684362091,2684362091,2684362091,2684362091,
2684361898,2684361898,2684361898,2684361898,2684361898,2684361898,2684361898,2684361898,2684361898,2684361898,2684361898,2684361898,2684361898,2684361898,2684361898,2684361898,
2684361970,2684361921,2684361872,2684361823,2684361774,2684362068,2684362019,2684361970,2684361921,2684361872,2684361823,2684361774,2684362068,2684362019,2684361970,2684361921
</chunk>
      <chunk x="208" y="-48" width="16" height="16">
6714,6715,6714,6715,6714,6715,6714,6715,6714,6715,6714,6715,6714,6715,6714,6715,
6730,6731,6730,6731,6730,6731,6730,6731,6730,6731,6730,6731,6730,6731,6730,6731,
6746,6747,6746,6747,6746,6747,6746,6747,6746,6747,6746,6747,6746,6747,6746,6747,
6714,6715,6714,6715,6714,6715,6714,6715,6714,6715,6714,6715,6714,6715,6714,6715,
6730,6731,6730,6731,6730,6731,6730,6731,6730,6731,6730,6731,6730,6731,6730,6731,
6746,6747,6746,6747,6746,6747,6746,6747,6746,6747,6746,6747,6746,6747,6746,6747,
6714,6715,6714,6715,6714,6715,6714,6715,6714,6715,6714,6715,6714,6715,6714,6715,
6730,6731,6730,6731,6730,6731,6730,6731,6730,6731,6730,6731,6730,6731,6730,6731,
6746,6747,6746,6747,6746,6747,6746,6747,6746,6747,6746,6747,6746,6747,6746,6747,
6714,6715,6714,6715,6714,6715,6714,6715,6714,6715,6714,6715,6714,6715,6714,6715,
6730,6731,6730,6731,6730,6731,6730,6731,6730,6731,6730,6731,6730,6731,6730,6731,
2684361845,2684361845,2684361845,2684361845,2684361845,2684361845,2684361845,2684361845,2684361845,2684361845,2684361845,2684361845,2684361845,2684361845,2684361845,2684361845,
2684362091,2684362091,2684362091,2684362091,2684362091,2684362091,2684362091,2684362091,2684362091,2684362091,2684362091,2684362091,2684362091,2684362091,2684362091,2684362091,
2684362091,2684362091,2684362091,2684362091,2684362091,2684362091,2684362091,2684362091,2684362091,2684362091,2684362091,2684362091,2684362091,2684362091,2684362091,2684362091,
2684361898,2684361898,2684361898,2684361898,2684361898,2684361898,2684361898,2684361898,2684361898,2684361898,2684361898,2684361898,2684361898,2684361898,2684361898,2684361846,
2684361872,2684361823,2684361774,2684362068,2684362019,2684361970,2684361921,2684361872,2684361823,2684361774,2684362068,2684362019,2684361970,2684361921,2684361872,2684361993
</chunk>
      <chunk x="224" y="-48" width="16" height="16">
6714,6715,6714,6715,6714,6715,6714,6715,6714,6715,6714,6715,6714,6715,6714,6715,
6730,6731,6730,6731,6730,6731,6730,6731,6730,6731,6730,6731,6730,6731,6730,6731,
6746,6747,6746,6747,6746,6747,6746,6747,6746,6747,6746,6747,6746,6747,6746,6747,
6714,6715,6714,6715,6714,6715,6714,6715,6714,6715,6714,6715,6714,6715,6714,6715,
6730,6731,6730,6731,6730,6731,6730,6731,6730,6731,6730,6731,6730,6731,6730,6731,
6746,6747,6746,6747,6746,6747,6746,6747,6746,6747,6746,6747,6746,6747,6746,6747,
6714,6715,6714,6715,6714,6715,6714,6715,6714,6715,6714,6715,6714,6715,6714,6715,
6730,6731,6730,6731,6730,6731,6730,6731,6730,6731,6730,6731,6730,6731,6730,6731,
6746,6747,6746,6747,6746,6747,6746,6747,6746,6747,6746,6747,6746,6747,6746,6747,
6714,6715,6714,6715,6714,6715,6714,6715,6714,6715,6714,6715,6714,6715,6714,6715,
6730,6731,6730,6731,6730,6731,6730,6731,6730,6731,6730,6731,6730,6731,6730,6731,
2684361845,2684361845,2684361796,6747,6746,6747,6746,6747,6746,6747,6746,6747,6746,6747,6746,6747,
2684362091,2684362091,2684361797,6715,6714,6715,6714,6715,6714,6715,6714,6715,6714,6715,6714,6715,
2684362091,2684362091,2684361797,6731,6730,6731,6730,6731,6730,6731,6730,6731,6730,6731,6730,6731,
2684362091,2684362091,2684361797,6747,6746,6747,6746,6747,6746,6747,6746,6747,6746,6747,6746,6747,
2684362091,2684362091,2684361797,6715,6714,6715,6714,6715,6714,6715,6714,6715,6714,6715,6714,6715
</chunk>
      <chunk x="240" y="-48" width="16" height="16">
6714,6715,6714,6715,6714,6715,6714,6715,6714,6715,6730,6731,6730,6731,6730,6731,
6730,6731,6730,6731,6730,6731,6730,6731,6730,6731,6746,6747,6746,6747,6746,6747,
6746,6747,6746,6747,6746,6747,6746,6747,6746,6747,6714,6715,6714,6715,6714,6715,
6714,6715,6714,6715,6714,6715,6714,6715,6714,6715,6730,6731,6730,6731,6730,6731,
6730,6731,6730,6731,6730,6731,6730,6731,6730,6731,6746,6747,6746,6747,6746,6747,
6746,6747,6746,6747,6746,6747,6746,6747,6746,6747,6714,6715,6714,6715,6714,6715,
6714,6715,6714,6715,6714,6715,6714,6715,6714,6715,6730,6731,6730,6731,6730,6731,
6730,6731,6730,6731,6730,6731,6730,6731,6730,6731,6746,6747,6746,6747,6746,6747,
6746,6747,6746,6747,6746,6747,6746,6747,6746,6747,6714,6715,6714,6715,6714,6715,
6714,6715,6714,6715,6714,6715,6714,6715,6714,6715,6730,6731,6730,6731,6730,6731,
6730,6731,6730,6731,6730,6731,6730,6731,6730,6731,6746,6747,6746,6747,6746,6747,
6746,6747,6746,6747,6746,6747,6746,6747,6746,6747,6714,6715,6714,6715,6714,6715,
6714,6715,6714,6715,6714,6715,6714,6715,6714,6715,6730,6731,6730,6731,6730,6731,
6730,6731,6730,6731,6730,6731,6730,6731,6730,6731,6746,6747,6746,6747,6746,6747,
6746,6747,6746,6747,6746,6747,6746,6747,6746,6747,6714,6715,6714,6715,6714,6715,
6714,6715,6714,6715,6714,6715,6714,6715,6714,6715,6730,6731,6730,6731,6730,6731
</chunk>
      <chunk x="256" y="-48" width="16" height="16">
6730,6731,6730,6731,6794,6795,6794,6795,6794,6795,6794,6795,6794,6795,6794,6795,
6746,6747,6746,6747,6762,6763,6762,6763,6762,6763,6762,6763,6762,6763,6762,6763,
6714,6715,6714,6715,6778,6779,6778,6779,6778,6779,6778,6779,6778,6779,6778,6779,
6730,6731,6730,6731,6794,6795,6794,6795,6794,6795,6794,6795,6794,6795,6794,6795,
6746,6747,6746,6747,6762,6763,6762,6763,6762,6763,6762,6763,6762,6763,6762,6763,
6714,6715,6714,6715,6778,6779,6778,6779,6778,6779,6778,6779,6778,6779,6778,6779,
6730,6731,6730,6731,6794,6795,6794,6795,6794,6795,6794,6795,6794,6795,6794,6795,
6746,6747,6746,6747,6762,6763,6762,6763,6762,6763,6762,6763,6762,6763,6762,6763,
6714,6715,6714,6715,6778,6779,6778,6779,6778,6779,6778,6779,6778,6779,6778,6779,
6730,6731,6730,6731,6794,6795,6794,6795,6794,6795,6794,6795,6794,6795,6794,6795,
6746,6747,6746,6747,6762,6763,6762,6763,6762,6763,6762,6763,6762,6763,6762,6763,
6714,6715,6714,6715,6778,6779,6778,6779,6778,6779,6778,6779,6778,6779,6778,6779,
6730,6731,6730,6731,6794,6795,6794,6795,6794,6795,6794,6795,6794,6795,6794,6795,
6746,6747,6746,6747,6762,6763,6762,6763,6762,6763,6762,6763,6762,6763,6762,6763,
6714,6715,6714,6715,6778,6779,6778,6779,6778,6779,6778,6779,6778,6779,6778,6779,
6730,6731,6730,6731,6794,6795,6794,6795,6794,6795,6794,6795,6794,6795,6794,6795
</chunk>
      <chunk x="272" y="-48" width="16" height="16">
6794,6795,6794,6795,6794,6795,6794,6795,0,0,0,0,0,0,0,0,
6762,6763,6762,6763,6762,6763,6762,6763,0,0,0,0,0,0,0,0,
6778,6779,6778,6779,6778,6779,6778,6779,0,0,0,0,0,0,0,0,
6794,6795,6794,6795,6794,6795,6794,6795,0,0,0,0,0,0,0,0,
6762,6763,6762,6763,6762,6763,6762,6763,0,0,0,0,0,0,0,0,
6778,6779,6778,6779,6778,6779,6778,6779,0,0,0,0,0,0,0,0,
6794,6795,6794,6795,6794,6795,6794,6795,0,0,0,0,0,0,0,0,
6762,6763,6762,6763,6762,6763,6762,6763,0,0,0,0,0,0,0,0,
6778,6779,6778,6779,6778,6779,6778,6779,0,0,0,0,0,0,0,0,
6794,6795,6794,6795,6794,6795,6794,6795,0,0,0,0,0,0,0,0,
6762,6763,6762,6763,6762,6763,6762,6763,0,0,0,0,0,0,0,0,
6778,6779,6778,6779,6778,6779,6778,6779,0,0,0,0,0,0,0,0,
6794,6795,6794,6795,6794,6795,6794,6795,0,0,0,0,0,0,0,0,
6762,6763,6762,6763,6762,6763,6762,6763,0,0,0,0,0,0,0,0,
6778,6779,6778,6779,6778,6779,6778,6779,0,0,0,0,0,0,0,0,
6794,6795,6794,6795,6794,6795,6794,6795,0,0,0,0,0,0,0,0
</chunk>
      <chunk x="0" y="-32" width="16" height="16">
0,0,0,0,0,0,0,0,0,0,0,0,0,0,0,0,
0,0,0,0,0,0,0,0,0,0,0,0,0,0,0,0,
6794,6795,6794,6795,6794,6795,6794,6795,6794,6795,6794,6795,6794,6795,6794,6795,
6762,6763,6762,6763,6762,6763,6762,6763,6762,6763,6762,6763,6762,6763,6762,6763,
6778,6779,6778,6779,6778,6779,6778,6779,6778,6779,6778,6779,6778,6779,6778,6779,
6794,6795,6794,6795,6794,6795,6794,6795,6794,6795,6794,6795,6794,6795,6794,6795,
6762,6763,6762,6763,6762,6763,6762,6763,6762,6763,6762,6763,6762,6763,6762,6763,
6778,6779,6778,6779,6778,6779,6778,6779,6778,6779,6778,6779,6778,6779,6778,6779,
6794,6795,6794,6795,6794,6795,6794,6795,6794,6795,6794,6795,6794,6795,6794,6795,
6762,6763,6762,6763,6762,6763,6762,6763,6762,6763,6762,6763,6762,6763,6762,6763,
6778,6779,6778,6779,6778,6779,6778,6779,6778,6779,6778,6779,6778,6779,6778,6779,
6794,6795,6794,6795,6794,6795,6794,6795,6794,6795,6794,6795,6794,6795,6794,6795,
6762,6763,6762,6763,6762,6763,6762,6763,6762,6763,6762,6763,6762,6763,6762,6763,
6778,6779,6778,6779,6778,6779,6778,6779,6778,6779,6778,6779,6778,6779,6778,6779,
6794,6795,6794,6795,6794,6795,6794,6795,6794,6795,6794,6795,6794,6795,6794,6795,
6762,6763,6762,6763,6762,6763,6762,6763,6762,6763,6762,6763,6762,6763,6762,6763
</chunk>
      <chunk x="16" y="-32" width="16" height="16">
0,0,0,0,0,0,0,0,0,0,0,0,0,0,6762,6763,
0,0,0,0,0,0,0,0,0,0,0,0,0,0,6778,6779,
6794,6795,6794,6795,6794,6795,6794,6795,6794,6795,6794,6795,6794,6795,6794,6795,
6762,6763,6762,6763,6762,6763,6762,6763,6762,6763,6762,6763,6762,6763,6762,6763,
6778,6779,6778,6779,6778,6779,6778,6779,6778,6779,6778,6779,6778,6779,6778,6779,
6794,6795,6794,6795,6794,6795,6794,6795,6794,6795,6794,6795,6794,6795,6794,6795,
6762,6763,6762,6763,6762,6763,6762,6763,6762,6763,6762,6763,6762,6763,6762,6763,
6778,6779,6778,6779,6778,6779,6778,6779,6778,6779,6778,6779,6778,6779,6778,6779,
6794,6795,6794,6795,6794,6795,6794,6795,6794,6795,6794,6795,6794,6795,6794,6795,
6762,6763,6762,6763,6762,6763,6762,6763,6762,6763,6762,6763,6762,6763,6762,6763,
6778,6779,6778,6779,6778,6779,6778,6779,6778,6779,6778,6779,6778,6779,6778,6779,
6794,6795,6794,6795,6794,6795,6794,6795,6794,6795,6794,6795,6794,6795,6794,6795,
6762,6763,6762,6763,6762,6763,6762,6763,6762,6763,6762,6763,6762,6763,6762,6763,
6778,6779,6778,6779,6778,6779,6778,6779,6778,6779,6778,6779,6778,6779,6778,6779,
6794,6795,6794,6795,6794,6795,6794,6795,6794,6795,6794,6795,6794,6795,6794,6795,
6762,6763,6762,6763,6762,6763,6762,6763,6762,6763,6762,6763,6762,6763,6762,6763
</chunk>
      <chunk x="32" y="-32" width="16" height="16">
6762,6763,6762,6763,6762,6763,6762,6763,6762,6763,6762,6763,6762,6763,6762,6763,
6778,6779,6778,6779,6778,6779,6778,6779,6778,6779,6778,6779,6778,6779,6778,6779,
6794,6795,6794,6795,6794,6795,6794,6795,6794,6795,6794,6795,6794,6795,6794,6795,
6762,6763,6762,6763,6762,6763,6762,6763,6762,6763,6762,6763,6762,6763,6762,6763,
6778,6779,6778,6779,6778,6779,6778,6779,6778,6779,6778,6779,6778,6779,6778,6779,
6794,6795,6794,6795,6794,6795,6794,6795,6794,6795,6794,6795,6794,6795,6794,6795,
6762,6763,6762,6763,6762,6763,6762,6763,6762,6763,6762,6763,6762,6763,6762,6763,
6778,6779,6778,6779,6778,6779,6778,6779,6778,6779,6778,6779,6778,6779,6778,6779,
6794,6795,6794,6795,6794,6795,6794,6795,6794,6795,6794,6795,6794,6795,6794,6795,
6762,6763,6762,6763,6762,6763,6762,6763,6762,6763,6762,6763,6762,6763,6762,6763,
6778,6779,6778,6779,6778,6779,6778,6779,6778,6779,6778,6779,6778,6779,6778,6779,
6794,6795,6794,6795,6794,6795,6794,6795,6794,6795,6794,6795,6794,6795,6794,6795,
6762,6763,6762,6763,6762,6763,6762,6763,6762,6763,6762,6763,6762,6763,6762,6763,
6778,6779,6778,6779,6778,6779,6778,6779,6778,6779,6778,6779,6778,6779,6778,6779,
6794,6795,6794,6795,6794,6795,6794,6795,6794,6795,6794,6795,6794,6795,6794,6795,
6762,6763,6762,6763,6762,6763,6762,6763,6762,6763,6762,6763,6762,6763,6762,6763
</chunk>
      <chunk x="48" y="-32" width="16" height="16">
6762,6763,7359,7360,7361,7362,7363,7359,7360,7361,7362,7363,7359,7360,7361,7362,
6778,6779,7408,7409,7410,7411,7412,7408,7409,7410,7411,7412,7408,7409,7410,7411,
6794,6795,7457,7458,7459,7460,7461,7457,7458,7459,7460,7461,7457,7458,7459,7460,
6762,6763,7506,7507,7508,7509,7510,7506,7507,7508,7509,7510,7506,7507,7508,7509,
6778,6779,7212,7213,7214,7215,7216,7212,7213,7214,7215,7216,7212,7213,7214,7215,
6794,6795,7261,7262,7263,7264,7265,7261,7262,7263,7264,7265,7261,7262,7263,7264,
6762,6763,7310,7311,7312,7313,7314,7310,7311,7312,7313,7314,7310,7311,7312,7313,
6778,6779,7359,7360,7361,7362,7363,7359,7360,7361,7362,7363,7359,7360,7361,7362,
6794,6795,7408,7409,7410,7411,7412,7408,7409,7410,7411,7412,7408,7409,7410,7411,
6762,6763,7457,7458,7459,7460,7461,7457,7458,7459,7460,7461,7457,7458,7459,7460,
6778,6779,7506,7507,7508,7509,7510,7506,7507,7508,7509,7510,7506,7507,7508,7509,
6794,6795,7212,7213,7214,7215,7216,7212,7213,7214,7215,7216,7212,7213,7214,7215,
6762,6763,7261,7262,7263,7264,7265,7261,7262,7263,7264,7265,7261,7262,7263,7264,
6778,6779,7310,7311,7312,7313,7314,7310,7311,7312,7313,7314,7310,7311,7312,7313,
6794,6795,7359,7360,7361,7362,7363,7359,7360,7361,7362,7363,7359,7360,7361,7362,
6762,6763,7408,7409,7410,7411,7412,7408,7409,7410,7411,7412,7408,7409,7410,7411
</chunk>
      <chunk x="64" y="-32" width="16" height="16">
7363,7359,7360,7361,7362,7363,7359,7360,7361,7362,7363,7359,7360,7361,7362,7363,
7412,7408,7409,7410,7411,7412,7408,7409,7410,7411,7412,7408,7409,7410,7411,7412,
7461,7457,7458,7459,7460,7461,7457,7458,7459,7460,7461,7457,7458,7459,7460,7461,
7510,7506,7507,7508,7509,7510,7506,7507,7508,7509,7510,7506,7507,7508,7509,7510,
7216,7212,7213,7214,7215,7216,7212,7213,7214,7215,7216,7212,7213,7214,7215,7216,
7265,7261,7262,7263,7264,7265,7261,7262,7263,7264,7265,7261,7262,7263,7264,7265,
7314,7310,7311,7312,7313,7314,7310,7311,7312,7313,7314,7310,7311,7312,7313,7314,
7363,7359,7360,7361,7362,7363,7359,7360,7361,7362,7363,7359,7360,7361,7362,7363,
7412,7408,7409,7410,7411,7412,7408,7409,7410,7411,7412,7408,7409,7410,7411,7412,
7461,7457,7458,7459,7460,7461,7457,7458,7459,7460,7461,7457,7458,7459,7460,7461,
7510,7506,7507,7508,7509,7510,7506,7507,7508,7509,7510,7506,7507,7508,7509,7510,
7216,7212,7213,7214,7215,7216,7212,7213,7214,7215,7216,7212,7213,7214,7215,7216,
7265,7261,7262,7263,7264,7265,7261,7262,7263,7264,7265,7261,7262,7263,7264,7265,
7314,7310,7311,7312,7313,7314,7310,7311,7312,7313,7314,7310,7311,7312,7313,7314,
7363,7359,7360,7361,7362,7363,7359,7360,7361,7362,7363,7359,7360,7361,7362,7363,
7412,7408,7409,7410,7411,7412,7408,7409,7410,7411,7412,7408,7409,7410,7411,7412
</chunk>
      <chunk x="80" y="-32" width="16" height="16">
7359,7360,7361,4620,4817,4817,4673,7361,7362,7363,7359,7360,7361,7362,7363,7359,
7408,7409,7410,4620,4817,4817,4673,7410,7411,7412,7408,7409,7410,7411,7412,7408,
7457,7458,7459,4620,4817,4817,4673,7459,7460,7461,7457,7458,7459,7460,7461,7457,
7506,7507,7508,4620,4817,4817,4673,7508,7509,7510,7506,7507,7508,7509,7510,7506,
7212,7213,7214,4620,4817,4817,4673,7214,7215,7216,7212,7213,7214,7215,7216,7212,
7261,7262,7263,4620,4817,4817,4673,7263,7264,7265,7261,7262,7263,7264,7265,7261,
7310,7311,7312,4620,4817,4817,4673,7312,7313,7314,7310,7311,7312,7313,7314,7310,
7359,7360,7361,4620,4817,4817,4673,7361,7362,7363,7359,7360,7361,7362,7363,7359,
7408,7409,7410,4620,4817,4817,4673,7410,7411,7412,7408,7409,7410,7411,7412,7408,
7457,7458,7459,4620,4817,4817,4673,7459,7460,7461,7457,7458,7459,7460,7461,7457,
7506,7507,7508,4620,4817,4817,4673,7508,7509,7510,7506,7507,7508,7509,7510,7506,
7212,7213,7214,4620,4817,4817,4673,7214,7215,7216,7212,7213,7214,7215,7216,7212,
7261,7262,7263,4620,4817,4817,4673,7263,7264,7265,7261,7262,7263,7264,7265,7261,
7310,7311,7312,4620,4817,4817,4673,7312,7313,7314,7310,7311,7312,7313,7314,7310,
7359,7360,7361,4620,4817,4817,4673,7361,7362,7363,7359,7360,7361,7362,7363,7359,
7408,7409,7410,4620,4817,4817,4673,7410,7411,7412,7408,7409,7410,7411,7412,7408
</chunk>
      <chunk x="96" y="-32" width="16" height="16">
7360,7361,7362,7363,7359,7360,7361,7362,7363,7359,7360,7361,7362,7363,7359,7360,
7409,7410,7411,7412,7408,7409,7410,7411,7412,7408,7409,7410,7411,7412,7408,7409,
7458,7459,7460,7461,7457,7458,7459,7460,7461,7457,7458,7459,7460,7461,7457,7458,
7507,7508,7509,7510,7506,7507,7508,7509,7510,7506,7507,7508,7509,7510,7506,7507,
7213,7214,7215,7216,7212,7213,7214,7215,7216,7212,7213,7214,7215,7216,7212,7213,
7262,7263,7264,7265,7261,7262,7263,7264,7265,7261,7262,7263,7264,7265,7261,7262,
7311,7312,7313,7314,7310,7311,7312,7313,7314,7310,7311,7312,7313,7314,7310,7311,
7360,7361,7362,7363,7359,7360,7361,7362,7363,7359,7360,7361,7362,7363,7359,7360,
7409,7410,7411,7412,7408,7409,7410,7411,7412,7408,7409,7410,7411,7412,7408,7409,
7458,7459,7460,7461,7457,7458,7459,7460,7461,7457,7458,7459,7460,7461,7457,7458,
7507,7508,7509,7510,7506,7507,7508,7509,7510,7506,7507,7508,7509,7510,7506,7507,
7213,7214,7215,7216,7212,7213,7214,7215,7216,7212,7213,7214,7215,7216,7212,7213,
7262,7263,7264,7265,7261,7262,7263,7264,7265,7261,7262,7263,7264,7265,7261,7262,
7311,7312,7313,7314,7310,7311,7312,7313,7314,7310,7311,7312,7313,7314,7310,7311,
7360,7361,7362,7363,7359,7360,7361,7362,7363,7359,7360,7361,7362,7363,7359,7360,
7409,7410,7411,7412,7408,7409,7410,7411,7412,7408,7409,7410,7411,7412,7408,7409
</chunk>
      <chunk x="112" y="-32" width="16" height="16">
7361,7362,7363,7359,7360,7361,7362,7363,4167,4364,4364,4364,4364,4364,4364,4364,
7410,7411,7412,7408,7409,7410,7411,7412,4167,4364,4364,4364,4364,4364,4364,4364,
7459,7460,7461,7457,7458,7459,7460,7461,4167,4364,4364,4364,4364,4364,4364,4364,
7508,7509,7510,7506,7507,7508,7509,7510,4167,4364,4364,4364,4364,4364,4364,4364,
7214,7215,7216,7212,7213,7214,7215,7216,4167,4364,4364,4364,4364,4364,4364,4364,
7263,7264,7265,7261,7262,7263,7264,7265,4167,4364,4364,4364,4364,4364,4364,4364,
7312,7313,7314,7310,7311,7312,7313,7314,4167,4364,4364,4364,4364,4364,4364,4364,
7361,7362,7363,7359,7360,7361,7362,7363,4167,4364,4364,4364,4364,4364,4364,4364,
7410,7411,7412,7408,7409,7410,7411,7412,4167,4364,4364,4364,4364,4364,4364,4364,
7459,7460,7461,7457,7458,7459,7460,7461,4167,4364,4364,4364,4364,4364,4364,4364,
7508,7509,7510,7506,7507,7508,7509,7510,4167,4364,4364,4364,4364,4364,4364,4364,
7214,7215,7216,7212,7213,7214,7215,7216,4167,4364,4364,4364,4364,4364,4364,4364,
7263,7264,7265,7261,7262,7263,7264,7265,4167,4364,4364,4364,4364,4364,4364,4364,
7312,7313,7314,7310,7311,7312,7313,7314,4167,4364,4364,4364,4364,4364,4364,4364,
7361,7362,7363,7359,7360,7361,7362,7363,4167,4364,4364,4364,4364,4364,4364,4364,
7410,7411,7412,7408,7409,7410,7411,7412,4167,4364,4364,4364,4364,4364,4364,4364
</chunk>
      <chunk x="128" y="-32" width="16" height="16">
4364,4364,4364,4364,4364,4364,4364,4364,4364,4364,4364,4364,4364,4364,4364,4364,
4364,4364,4364,4364,4364,4364,4364,4364,4364,4364,4364,4364,4364,4364,4364,4364,
4364,4364,4364,4364,4364,4364,4364,4364,4364,4364,4364,4364,4364,4364,4364,4364,
4364,4364,4364,4364,4364,4364,4364,4364,4364,4364,4364,4364,4364,4364,4364,4364,
4364,4364,4364,4364,4364,4364,4364,4364,4364,4364,4364,4364,4364,4364,4364,4364,
4364,4364,4364,4364,4364,4364,4364,4364,4364,4364,4364,4364,4364,4364,4364,4364,
4364,4364,4364,4364,4364,4364,4364,4364,4364,4364,4364,4364,4364,4364,4364,4364,
4364,4364,4364,4364,4364,4364,4364,4364,4364,4364,4364,4364,4364,4364,4364,4364,
4364,4364,4364,4364,4364,4364,4364,4364,4364,4364,4364,4364,4364,4364,4364,4364,
4364,4364,4364,4364,4364,4364,4364,4364,4364,4364,4364,4364,4364,4364,4364,4364,
4364,4364,4364,4364,4364,4364,4364,4364,4364,4364,4364,4364,4364,4364,4364,4364,
4364,4364,4364,4364,4364,4364,4364,4364,4364,4364,4364,4364,4364,4364,4364,4364,
4364,4364,4364,4364,4364,4364,4364,4364,4364,4364,4364,4364,4364,4364,4364,4364,
4364,4364,4364,4364,4364,4364,4364,4364,4364,4364,4364,4364,4364,4364,4364,4364,
4364,4364,4364,4364,4364,4364,4364,4364,4364,4364,4364,4364,4364,4364,4364,4364,
4364,4364,4364,4364,4364,4364,4364,4364,4364,4364,4364,4364,4364,4364,4364,4364
</chunk>
      <chunk x="144" y="-32" width="16" height="16">
4364,4364,4364,4364,4364,4364,4364,4364,4364,8645,8842,8842,8649,4364,4364,4364,
4364,4364,4364,4364,4364,4364,4364,4364,4364,8645,8842,8842,8649,4364,4364,4364,
4364,4364,4364,4364,4364,4364,4364,4364,4364,8645,8842,8842,8649,4364,4364,4364,
4364,4364,4364,4364,4364,4364,4364,4364,4364,8645,8842,8842,8649,4364,4364,4364,
4364,4364,4364,4364,4364,4364,4364,4364,4364,8645,8842,8842,8649,4364,4364,4364,
4364,4364,4364,4364,4364,4364,4364,4364,4364,8645,8842,8842,8649,4364,4364,4364,
4364,4364,4364,4364,4364,4364,4364,4364,4364,8645,8842,8842,8649,4364,4364,4364,
4364,4364,4364,4364,4364,4364,4364,4364,4364,8645,8842,8842,8649,4364,4364,4364,
4364,4364,4364,4364,4364,4364,4364,4364,4364,8645,8842,8842,8649,4364,4364,4364,
4364,4364,4364,4364,4364,4364,4364,4364,4364,8645,8842,8842,8649,4364,4364,4364,
4364,4364,4364,4364,4364,4364,4364,4364,4364,8645,8842,8842,8649,4364,4364,4364,
4364,4364,4364,4364,4364,4364,4364,4364,4364,8645,8842,8842,8649,4364,4364,4364,
4364,4364,4364,4364,4364,4364,4364,4364,4364,8645,8842,8842,8649,4364,4364,4364,
4364,4364,4364,4364,4364,4364,4364,4364,4364,8645,8842,8842,8649,4364,4364,4364,
4364,4364,4364,4364,4364,4364,4364,4364,4364,8645,8842,8842,8649,4364,4364,4364,
4364,4364,4364,4364,4364,4364,4364,4364,4364,8645,8842,8842,8649,4364,4364,4364
</chunk>
      <chunk x="160" y="-32" width="16" height="16">
4364,4364,4364,4364,4364,4364,4364,4364,4364,4364,4364,4364,4364,4364,4364,4364,
4364,4364,4364,4364,4364,4364,4364,4364,4364,4364,4364,4364,4364,4364,4364,4364,
4364,4364,4364,4364,4364,4364,4364,4364,4364,4364,4364,4364,4364,4364,4364,4364,
4364,4364,4364,4364,4364,4364,4364,4364,4364,4364,4364,4364,4364,4364,4364,4364,
4364,4364,4364,4364,4364,4364,4364,4364,4364,4364,4364,4364,4364,4364,4364,4364,
4364,4364,4364,4364,4364,4364,4364,4364,4364,4364,4364,4364,4364,4364,4364,4364,
4364,4364,4364,4364,4364,4364,4364,4364,4364,4364,4364,4364,4364,4364,4364,4364,
4364,4364,4364,4364,4364,4364,4364,4364,4364,4364,4364,4364,4364,4364,4364,4364,
4364,4364,4364,4364,4364,4364,4364,4364,4364,4364,4364,4364,4364,4364,4364,4364,
4364,4364,4364,4364,4364,4364,4364,4364,4364,4364,4364,4364,4364,4364,4364,4364,
4364,4364,4364,4364,4364,4364,4364,4364,4364,4364,4364,4364,4364,4364,4364,4364,
4364,4364,4364,4364,4364,4364,4364,4364,4364,4364,4364,4364,4364,4364,4364,4364,
4364,4364,4364,4364,4364,4364,4364,4364,4364,4364,4364,4364,4364,4364,4364,4364,
4364,4364,4364,4364,4364,4364,4364,4364,4364,4364,4364,4364,4364,4364,4364,4364,
4364,4364,4364,4364,4364,4364,4364,4364,4364,4364,4364,4364,4364,4364,4364,4364,
4364,4364,4364,4364,4364,4364,4364,4364,4364,4364,4364,4364,4364,4364,4364,4364
</chunk>
      <chunk x="176" y="-32" width="16" height="16">
4364,4364,4364,4364,4364,4364,4364,4364,4364,4364,4364,4364,4364,4171,6730,2684362020,
4364,4364,4364,4364,4364,4364,4364,4364,4364,4364,4364,4364,4364,4171,6746,2684362021,
4364,4364,4364,4364,4364,4364,4364,4364,4364,4364,4364,4364,4364,4171,6714,2684362017,
4364,4364,4364,4364,4364,4364,4364,4364,4364,4364,4364,4364,4364,4171,6730,2684362018,
4364,4364,4364,4364,4364,4364,4364,4364,4364,4364,4364,4364,4364,4171,6746,2684362019,
4364,4364,4364,4364,4364,4364,4364,4364,4364,4364,4364,4364,4364,4171,6714,2684362020,
4364,4364,4364,4364,4364,4364,4364,4364,4364,4364,4364,4364,4364,4171,6730,2684362021,
4364,4364,4364,4364,4364,4364,4364,4364,4364,4364,4364,4364,4364,4171,6746,2684362017,
4364,4364,4364,4364,4364,4364,4364,4364,4364,4364,4364,4364,4364,4171,6714,2684362018,
4364,4364,4364,4364,4364,4364,4364,4364,4364,4364,4364,4364,4364,4171,6730,2684362019,
4364,4364,4364,4364,4364,4364,4364,4364,4364,4364,4364,4364,4364,4171,6746,2684362020,
4364,4364,4364,4364,4364,4364,4364,4364,4364,4364,4364,4364,4364,4171,6714,2684362021,
4364,4364,4364,4364,4364,4364,4364,4364,4364,4364,4364,4364,4364,4171,6730,2684362017,
4364,4364,4364,4364,4364,4364,4364,4364,4364,4364,4364,4364,4364,4171,6746,2684362018,
4364,4364,4364,4364,4364,4364,4364,4364,4364,4364,4364,4364,4364,4171,6714,2684362019,
4364,4364,4364,4364,4364,4364,4364,4364,4364,4364,4364,4364,4364,4171,6730,2684362020
</chunk>
      <chunk x="192" y="-32" width="16" height="16">
2684361971,2684361922,2684361873,2684361824,2684361775,2684362069,2684362020,2684361971,2684361922,2684361873,2684361824,2684361775,2684362069,2684362020,2684361971,2684361922,
2684361972,2684361923,2684361874,2684361825,2684361776,2684362070,2684362021,2684361972,2684361923,2684361874,2684361825,2684361776,2684362070,2684362021,2684361972,2684361923,
2684361968,2684361919,2684361870,2684361821,2684361772,2684362066,2684362017,2684361968,2684361919,2684361870,2684361821,2684361772,2684362066,2684362017,2684361968,2684361919,
2684361969,2684361920,2684361871,2684361822,2684361773,2684362067,2684362018,2684361969,2684361920,2684361871,2684361822,2684361773,2684362067,2684362018,2684361969,2684361920,
2684361970,2684361921,2684361872,2684361823,2684361774,2684362068,2684362019,2684361970,2684361921,2684361872,2684361823,2684361774,2684362068,2684362019,2684361970,2684361921,
2684361971,2684361922,2684361873,2684361824,2684361775,2684362069,2684362020,2684361971,2684361922,2684361873,2684361824,2684361775,2684362069,2684362020,2684361971,2684361922,
2684361972,2684361923,2684361874,2684361825,2684361776,2684362070,2684362021,2684361972,2684361923,2684361874,2684361825,2684361776,2684362070,2684362021,2684361972,2684361923,
2684361968,2684361919,2684361870,2684361821,2684361772,2684362066,2684362017,2684361968,2684361919,2684361870,2684361821,2684361772,2684362066,2684362017,2684361968,2684361919,
2684361969,2684361920,2684361871,2684361822,2684361773,2684362067,2684362018,2684361969,2684361920,2684361871,2684361822,2684361773,2684362067,2684362018,2684361969,2684361920,
2684361970,2684361921,2684361872,2684361823,2684361774,2684362068,2684362019,2684361970,2684361921,2684361872,2684361823,2684361774,2684362068,2684362019,2684361970,2684361921,
2684361971,2684361922,2684361873,2684361824,2684361775,2684362069,2684362020,2684361971,2684361922,2684361873,2684361824,2684361775,2684362069,2684362020,2684361971,2684361922,
2684361972,2684361923,2684361874,2684361825,2684361776,2684362070,2684362021,2684361972,2684361923,2684361874,2684361825,2684361776,2684362070,2684362021,2684361972,2684361923,
2684361968,2684361919,2684361870,2684361821,2684361772,2684362066,2684362017,2684361968,2684361919,2684361870,2684361821,2684361772,2684362066,2684362017,2684361968,2684361919,
2684361969,2684361920,2684361871,2684361822,2684361773,2684362067,2684362018,2684361969,2684361920,2684361871,2684361822,2684361773,2684362067,2684362018,2684361969,2684361920,
2684361970,2684361921,2684361872,2684361823,2684361774,2684362068,2684362019,2684361970,2684361921,2684361872,2684361823,2684361774,2684362068,2684362019,2684361970,2684361921,
2684361971,2684361922,2684361873,2684361824,2684361775,2684362069,2684362020,2684361971,2684361922,2684361873,2684361824,2684361775,2684362069,2684362020,2684361971,2684361922
</chunk>
      <chunk x="208" y="-32" width="16" height="16">
2684361873,2684361824,2684361775,2684362069,2684362020,2684361971,2684361922,2684361873,2684361824,2684361775,2684362069,2684362020,2684361971,2684361922,2684361873,2684361993,
2684361874,2684361825,2684361776,2684362070,2684362021,2684361972,2684361923,2684361874,2684361825,2684361776,2684362070,2684362021,2684361972,2684361923,2684361874,2684361993,
2684361870,2684361821,2684361772,2684362066,2684362017,2684361968,2684361919,2684361870,2684361821,2684361772,2684362066,2684362017,2684361968,2684361919,2684361870,2684361993,
2684361871,2684361822,2684361773,2684362067,2684362018,2684361969,2684361920,2684361871,2684361822,2684361773,2684362067,2684362018,2684361969,2684361920,2684361871,2684361993,
2684361872,2684361823,2684361774,2684362068,2684362019,2684361970,2684361921,2684361872,2684361823,2684361774,2684362068,2684362019,2684361970,2684361921,2684361872,2684361993,
2684361873,2684361824,2684361775,2684362069,2684362020,2684361971,2684361922,2684361873,2684361824,2684361775,2684362069,2684362020,2684361971,2684361922,2684361873,2684361993,
2684361874,2684361825,2684361776,2684362070,2684362021,2684361972,2684361923,2684361874,2684361825,2684361776,2684362070,2684362021,2684361972,2684361923,2684361874,2684361993,
2684361870,2684361821,2684361772,2684362066,2684362017,2684361968,2684361919,2684361870,2684361821,2684361772,2684362066,2684362017,2684361968,2684361919,2684361870,2684361993,
2684361871,2684361822,2684361773,2684362067,2684362018,2684361969,2684361920,2684361871,2684361822,2684361773,2684362067,2684362018,2684361969,2684361920,2684361871,2684361993,
2684361872,2684361823,2684361774,2684362068,2684362019,2684361970,2684361921,2684361872,2684361823,2684361774,2684362068,2684362019,2684361970,2684361921,2684361872,2684361993,
2684361873,2684361824,2684361775,2684362069,2684362020,2684361971,2684361922,2684361873,2684361824,2684361775,2684362069,2684362020,2684361971,2684361922,2684361873,2684361993,
2684361874,2684361825,2684361776,2684362070,2684362021,2684361972,2684361923,2684361874,2684361825,2684361776,2684362070,2684362021,2684361972,2684361923,2684361874,2684361993,
2684361870,2684361821,2684361772,2684362066,2684362017,2684361968,2684361919,2684361870,2684361821,2684361772,2684362066,2684362017,2684361968,2684361919,2684361870,2684361993,
2684361871,2684361822,2684361773,2684362067,2684362018,2684361969,2684361920,2684361871,2684361822,2684361773,2684362067,2684362018,2684361969,2684361920,2684361871,2684361993,
2684361872,2684361823,2684361774,2684362068,2684362019,2684361970,2684361921,2684361872,2684361823,2684361774,2684362068,2684362019,2684361970,2684361921,2684361872,2684361993,
2684361873,2684361824,2684361775,2684362069,2684362020,2684361971,2684361922,2684361873,2684361824,2684361775,2684362069,2684362020,2684361971,2684361922,2684361873,2684361993
</chunk>
      <chunk x="224" y="-32" width="16" height="16">
2684362091,2684362091,2684361797,6731,6730,6731,6730,6731,6730,6731,6730,6731,6730,6731,6730,6731,
2684362091,2684362091,2684361797,6747,6746,6747,6746,6747,6746,6747,6746,6747,6746,6747,6746,6747,
2684362091,2684362091,2684361797,6715,6714,6715,6714,6715,6714,6715,6714,6715,6714,6715,6714,6715,
2684362091,2684362091,2684361797,6731,6730,6731,6730,6731,6730,6731,6730,6731,6730,6731,6730,6731,
2684362091,2684362091,2684361797,6747,6746,6747,6746,6747,6746,6747,6746,6747,6746,6747,6746,6747,
2684362091,2684362091,2684361797,6715,6714,6715,6714,6715,6714,6715,6714,6715,6714,6715,6714,6715,
2684362091,2684362091,2684361797,6731,6730,6731,6730,6731,6730,6731,6730,6731,6730,6731,6730,6731,
2684362091,2684362091,2684361797,6747,6746,6747,6746,6747,6746,6747,6746,6747,6746,6747,6746,6747,
2684362091,2684362091,2684361797,6715,6714,6715,6714,6715,6714,6715,6714,6715,6714,6715,6714,6715,
2684362091,2684362091,2684361797,6731,6730,6731,6730,6731,6730,6731,6730,6731,6730,6731,6730,6731,
2684362091,2684362091,2684361797,6747,6746,6747,6746,6747,6746,6747,6746,6747,6746,6747,6746,6747,
2684362091,2684362091,2684361797,6715,6714,6715,6714,6715,6714,6715,6714,6715,6714,6715,6714,6715,
2684362091,2684362091,2684361797,6731,6730,6731,6730,6731,6730,6731,6730,6731,6730,6731,6730,6731,
2684362091,2684362091,2684361797,6747,6746,6747,6746,6747,6746,6747,6746,6747,6746,6747,6746,6747,
2684362091,2684362091,2684361797,6715,6714,6715,6714,6715,6714,6715,6714,6715,6714,6715,6714,6715,
2684362091,2684362091,2684361797,6731,6730,6731,6730,6731,6730,6731,6730,6731,6730,6731,6730,6731
</chunk>
      <chunk x="240" y="-32" width="16" height="16">
6730,6731,6730,6731,6730,6731,6730,6731,6730,6731,6746,6747,6746,6747,6746,6747,
6746,6747,6746,6747,6746,6747,6746,6747,6746,6747,6714,6715,6714,6715,6714,6715,
6714,6715,6714,6715,6714,6715,6714,6715,6714,6715,6730,6731,6730,6731,6730,6731,
6730,6731,6730,6731,6730,6731,6730,6731,6730,6731,6746,6747,6746,6747,6746,6747,
6746,6747,6746,6747,6746,6747,6746,6747,6746,6747,6714,6715,6714,6715,6714,6715,
6714,6715,6714,6715,6714,6715,6714,6715,6714,6715,6730,6731,6730,6731,6730,6731,
6730,6731,6730,6731,6730,6731,6730,6731,6730,6731,6746,6747,6746,6747,6746,6747,
6746,6747,6746,6747,6746,6747,6746,6747,6746,6747,6714,6715,6714,6715,6714,6715,
6714,6715,6714,6715,6714,6715,6714,6715,6714,6715,6730,6731,6730,6731,6730,6731,
6730,6731,6730,6731,6730,6731,6730,6731,6730,6731,6746,6747,6746,6747,6746,6747,
6746,6747,6746,6747,6746,6747,6746,6747,6746,6747,6714,6715,6714,6715,6714,6715,
6714,6715,6714,6715,6714,6715,6714,6715,6714,6715,6730,6731,6730,6731,6730,6731,
6730,6731,6730,6731,6730,6731,6730,6731,6730,6731,6746,6747,6746,6747,6746,6747,
6746,6747,6746,6747,6746,6747,6746,6747,6746,6747,6714,6715,6714,6715,6714,6715,
6714,6715,6714,6715,6714,6715,6714,6715,6714,6715,6730,6731,6730,6731,6730,6731,
6730,6731,6730,6731,6730,6731,6730,6731,6730,6731,6746,6747,6746,6747,6746,6747
</chunk>
      <chunk x="256" y="-32" width="16" height="16">
6746,6747,6746,6747,6762,6763,6762,6763,6762,6763,6762,6763,6762,6763,6762,6763,
6714,6715,6714,6715,6778,6779,6778,6779,6778,6779,6778,6779,6778,6779,6778,6779,
6730,6731,6730,6731,6794,6795,6794,6795,6794,6795,6794,6795,6794,6795,6794,6795,
6746,6747,6746,6747,6762,6763,6762,6763,6762,6763,6762,6763,6762,6763,6762,6763,
6714,6715,6714,6715,6778,6779,6778,6779,6778,6779,6778,6779,6778,6779,6778,6779,
6730,6731,6730,6731,6794,6795,6794,6795,6794,6795,6794,6795,6794,6795,6794,6795,
6746,6747,6746,6747,6762,6763,6762,6763,6762,6763,6762,6763,6762,6763,6762,6763,
6714,6715,6714,6715,6778,6779,6778,6779,6778,6779,6778,6779,6778,6779,6778,6779,
6730,6731,6730,6731,6794,6795,6794,6795,6794,6795,6794,6795,6794,6795,6794,6795,
6746,6747,6746,6747,6762,6763,6762,6763,6762,6763,6762,6763,6762,6763,6762,6763,
6714,6715,6714,6715,6778,6779,6778,6779,6778,6779,6778,6779,6778,6779,6778,6779,
6730,6731,6730,6731,6794,6795,6794,6795,6794,6795,6794,6795,6794,6795,6794,6795,
6746,6747,6746,6747,6762,6763,6762,6763,6762,6763,6762,6763,6762,6763,6762,6763,
6714,6715,6714,6715,6778,6779,6778,6779,6778,6779,6778,6779,6778,6779,6778,6779,
6730,6731,6730,6731,6794,6795,6794,6795,6794,6795,6794,6795,6794,6795,6794,6795,
6746,6747,6746,6747,6762,6763,6762,6763,6762,6763,6762,6763,6762,6763,6762,6763
</chunk>
      <chunk x="272" y="-32" width="16" height="16">
6762,6763,6762,6763,6762,6763,6762,6763,0,0,0,0,0,0,0,0,
6778,6779,6778,6779,6778,6779,6778,6779,0,0,0,0,0,0,0,0,
6794,6795,6794,6795,6794,6795,6794,6795,0,0,0,0,0,0,0,0,
6762,6763,6762,6763,6762,6763,6762,6763,0,0,0,0,0,0,0,0,
6778,6779,6778,6779,6778,6779,6778,6779,0,0,0,0,0,0,0,0,
6794,6795,6794,6795,6794,6795,6794,6795,0,0,0,0,0,0,0,0,
6762,6763,6762,6763,6762,6763,6762,6763,0,0,0,0,0,0,0,0,
6778,6779,6778,6779,6778,6779,6778,6779,0,0,0,0,0,0,0,0,
6794,6795,6794,6795,6794,6795,6794,6795,0,0,0,0,0,0,0,0,
6762,6763,6762,6763,6762,6763,6762,6763,0,0,0,0,0,0,0,0,
6778,6779,6778,6779,6778,6779,6778,6779,0,0,0,0,0,0,0,0,
6794,6795,6794,6795,6794,6795,6794,6795,0,0,0,0,0,0,0,0,
6762,6763,6762,6763,6762,6763,6762,6763,6762,6763,6762,6763,6762,6763,6762,6763,
6778,6779,6778,6779,6778,6779,6778,6779,6778,6779,6778,6779,6778,6779,6778,6779,
6794,6795,6794,6795,6794,6795,6794,6795,6794,6795,6794,6795,6794,6795,6794,6795,
6762,6763,6762,6763,6762,6763,6762,6763,6762,6763,6762,6763,6762,6763,6762,6763
</chunk>
      <chunk x="288" y="-32" width="16" height="16">
0,0,0,0,0,0,0,0,0,0,0,0,0,0,0,0,
0,0,0,0,0,0,0,0,0,0,0,0,0,0,0,0,
0,0,0,0,0,0,0,0,0,0,0,0,0,0,0,0,
0,0,0,0,0,0,0,0,0,0,0,0,0,0,0,0,
0,0,0,0,0,0,0,0,0,0,0,0,0,0,0,0,
0,0,0,0,0,0,0,0,0,0,0,0,0,0,0,0,
0,0,0,0,0,0,0,0,0,0,0,0,0,0,0,0,
0,0,0,0,0,0,0,0,0,0,0,0,0,0,0,0,
0,0,0,0,0,0,0,0,0,0,0,0,0,0,0,0,
0,0,0,0,0,0,0,0,0,0,0,0,0,0,0,0,
0,0,0,0,0,0,0,0,0,0,0,0,0,0,0,0,
0,0,0,0,0,0,0,0,0,0,0,0,0,0,0,0,
6762,6763,6762,6763,6762,6763,6762,6763,6762,6763,6762,6763,6762,6763,6762,6763,
6778,6779,6778,6779,6778,6779,6778,6779,6778,6779,6778,6779,6778,6779,6778,6779,
6794,6795,6794,6795,6794,6795,6794,6795,6794,6795,6794,6795,6794,6795,6794,6795,
6762,6763,6762,6763,6762,6763,6762,6763,6762,6763,6762,6763,6762,6763,6762,6763
</chunk>
      <chunk x="304" y="-32" width="16" height="16">
0,0,0,0,0,0,0,0,0,0,0,0,0,0,0,0,
0,0,0,0,0,0,0,0,0,0,0,0,0,0,0,0,
0,0,0,0,0,0,0,0,0,0,0,0,0,0,0,0,
0,0,0,0,0,0,0,0,0,0,0,0,0,0,0,0,
0,0,0,0,0,0,0,0,0,0,0,0,0,0,0,0,
0,0,0,0,0,0,0,0,0,0,0,0,0,0,0,0,
0,0,0,0,0,0,0,0,0,0,0,0,0,0,0,0,
0,0,0,0,0,0,0,0,0,0,0,0,0,0,0,0,
0,0,0,0,0,0,0,0,0,0,0,0,0,0,0,0,
0,0,0,0,0,0,0,0,0,0,0,0,0,0,0,0,
0,0,0,0,0,0,0,0,0,0,0,0,0,0,0,0,
0,0,0,0,0,0,0,0,0,0,0,0,0,0,0,0,
6762,6763,6762,6763,6762,6763,6762,6763,6762,6763,6762,6763,6762,6763,6762,6763,
6778,6779,6778,6779,6778,6779,6778,6779,6778,6779,6778,6779,6778,6779,6778,6779,
6794,6795,6794,6795,6794,6795,6794,6795,6794,6795,6794,6795,6794,6795,6794,6795,
6762,6763,6762,6763,6762,6763,6762,6763,6762,6763,6762,6763,6762,6763,6762,6763
</chunk>
      <chunk x="-16" y="-16" width="16" height="16">
0,0,0,0,0,0,0,0,0,0,0,0,0,0,0,0,
0,0,0,0,0,0,0,0,0,0,0,0,0,0,0,0,
0,0,0,0,0,0,0,0,0,0,0,0,0,0,0,0,
0,0,0,0,0,0,0,0,0,0,0,0,0,0,0,0,
0,0,0,0,0,0,0,0,0,0,0,0,0,0,0,0,
0,0,0,0,0,0,0,0,0,0,0,0,0,0,0,0,
0,0,0,0,0,0,0,0,0,0,0,0,0,0,0,0,
0,0,0,0,0,0,0,0,0,0,0,0,0,0,0,0,
0,0,0,0,0,0,0,0,0,0,0,0,0,0,0,0,
0,0,0,0,0,0,0,0,0,0,0,0,0,0,0,0,
0,0,0,0,0,0,0,0,0,0,0,0,0,0,0,0,
0,0,0,0,0,0,0,0,0,0,0,0,0,0,0,0,
0,0,0,0,0,0,0,0,0,0,0,0,0,0,0,0,
0,0,0,0,0,0,0,0,0,0,0,0,0,0,0,0,
0,0,0,0,0,0,0,0,0,0,0,0,0,0,0,0,
0,0,0,0,0,0,0,0,0,0,0,0,0,0,4909,4909
</chunk>
      <chunk x="0" y="-16" width="16" height="16">
6778,6779,6778,6779,6778,6779,6778,6779,6778,6779,6778,6779,6778,6779,6778,6779,
6794,6795,6794,6795,6794,6795,6794,6795,6794,6795,6794,6795,6794,6795,6794,6795,
6762,6763,6762,6763,6762,6763,6762,6763,6762,6763,6762,6763,6762,6763,6762,6763,
6778,6779,6778,6779,6778,6779,6778,6779,6778,6779,6778,6779,6778,6779,6778,6779,
6794,6795,6794,6795,6794,6795,6794,6795,6794,6795,6794,6795,6794,6795,6794,6795,
6762,6763,6762,6763,6762,6763,6762,6763,6762,6763,6762,6763,6762,6763,6762,6763,
6778,6779,6778,6779,6778,6779,6778,6779,6778,6779,6778,6779,6778,6779,6778,6779,
6794,6795,6794,6795,6794,6795,6794,6795,6794,6795,6794,6795,6794,6795,6794,6795,
6762,6763,6762,6763,6762,6763,6762,6763,6762,6763,6762,6763,6762,6763,6762,6763,
6778,6779,6778,6779,6778,6779,6778,6779,6778,6779,6778,6779,6778,6779,6778,6779,
6794,6795,6794,6795,6794,6795,6794,6795,6794,6795,6794,6795,6794,6795,6794,6795,
6762,6763,6762,6763,6762,6763,6762,6763,6762,6763,6762,6763,6762,6763,6762,6763,
6778,6779,6778,6779,6778,6779,6778,6779,6778,6779,6778,6779,6778,6779,6778,6779,
6794,6795,6794,6795,6794,6795,6794,6795,6794,6795,6794,6795,6794,6795,6794,6795,
6762,6763,6762,6763,6762,6763,6762,6763,6762,6763,6762,6763,6762,6763,6762,6763,
6778,6779,6778,6779,6778,6779,6778,6779,6778,6779,6778,6779,6778,6779,6778,6779
</chunk>
      <chunk x="16" y="-16" width="16" height="16">
6778,6779,6778,6779,6778,6779,6778,6779,6778,6779,6778,6779,6778,6779,6778,6779,
6794,6795,6794,6795,6794,6795,6794,6795,6794,6795,6794,6795,6794,6795,6794,6795,
6762,6763,6762,6763,6762,6763,6762,6763,6762,6763,6762,6763,6762,6763,6762,6763,
6778,6779,6778,6779,6778,6779,6778,6779,6778,6779,6778,6779,6778,6779,6778,6779,
6794,6795,6794,6795,6794,6795,6794,6795,6794,6795,6794,6795,6794,6795,6794,6795,
6762,6763,6762,6763,6762,6763,6762,6763,6762,6763,6762,6763,6762,6763,6762,6763,
6778,6779,6778,6779,6778,6779,6778,6779,6778,6779,6778,6779,6778,6779,6778,6779,
6794,6795,6794,6795,6794,6795,6794,6795,6794,6795,6794,6795,6794,6795,6794,6795,
6762,6763,6762,6763,6762,6763,6762,6763,6762,6763,6762,6763,6762,6763,6762,6763,
6778,6779,6778,6779,6778,6779,6778,6779,6778,6779,6778,6779,6778,6779,6778,6779,
6794,6795,6794,6795,6794,6795,6794,6795,6794,6795,6794,6795,6794,6795,6794,6795,
6762,6763,6762,6763,6762,6763,6762,6763,6762,6763,6762,6763,6762,6763,6762,6763,
6778,6779,6778,6779,6778,6779,6778,6779,6778,6779,6778,6779,6778,6779,6778,6779,
6794,6795,6794,6795,6794,6795,6794,6795,6794,6795,6794,6795,6794,6795,6794,6795,
6762,6763,6762,6763,6762,6763,6762,6763,6762,6763,6762,6763,6762,6763,6762,6763,
6778,6779,6778,6779,346,346,346,346,346,346,346,346,346,346,346,346
</chunk>
      <chunk x="32" y="-16" width="16" height="16">
6778,6779,6778,6779,6778,6779,6778,6779,6778,6779,6778,6779,6778,6779,6778,6779,
6794,6795,6794,6795,6794,6795,6794,6795,6794,6795,6794,6795,6794,6795,6794,6795,
6762,6763,6762,6763,6762,6763,6762,6763,6762,6763,6762,6763,6762,6763,6762,6763,
6778,6779,6778,6779,6778,6779,6778,6779,6778,6779,6778,6779,6778,6779,6778,6779,
6794,6795,6794,6795,6794,6795,6794,6795,6794,6795,6794,6795,6794,6795,6794,6795,
6762,6763,6762,6763,6762,6763,6762,6763,6762,6763,6762,6763,6762,6763,6762,6763,
6778,6779,6778,6779,6778,6779,6778,6779,6778,6779,6778,6779,6778,6779,6778,6779,
6794,6795,6794,6795,6794,6795,6794,6795,6794,6795,6794,6795,6794,6795,6794,6795,
6762,6763,6762,6763,6762,6763,6762,6763,6762,6763,6762,6763,6762,6763,6762,6763,
6778,6779,6778,6779,6778,6779,6778,6779,6778,6779,6778,6779,6778,6779,6778,6779,
6794,6795,6794,6795,6794,6795,6794,6795,6794,6795,6794,6795,6794,6795,6794,6795,
6762,6763,6762,6763,6762,6763,6762,6763,6762,6763,6762,6763,6762,6763,6762,6763,
6778,6779,6778,6779,6778,6779,6778,6779,6778,6779,6778,6779,6778,6779,6778,6779,
6794,6795,6794,6795,6794,6795,6794,6795,6794,6795,6794,6795,6794,6795,6794,6795,
6762,6763,6762,6763,6762,6763,6762,6763,6762,6763,6762,6763,6762,6763,6762,6763,
346,346,346,346,346,346,346,346,346,346,346,346,346,346,346,346
</chunk>
      <chunk x="48" y="-16" width="16" height="16">
6778,6779,7457,7458,7459,7460,7461,7457,7458,7459,7460,7461,7457,7458,7459,7460,
6794,6795,7506,7507,7508,7509,7510,7506,7507,7508,7509,7510,7506,7507,7508,7509,
6762,6763,7212,7213,7214,7215,7216,7212,7213,7214,7215,7216,7212,7213,7214,7215,
6778,6779,7261,7262,7263,7264,7265,7261,7262,7263,7264,7265,7261,7262,7263,7264,
6794,6795,7310,7311,7312,7313,7314,7310,7311,7312,7313,7314,7310,7311,7312,7313,
6762,6763,7359,7360,7361,7362,7363,7359,7360,7361,7362,7363,7359,7360,7361,7362,
6778,6779,7408,7409,7410,7411,7412,7408,7409,7410,7411,7412,7408,7409,7410,7411,
6794,6795,7457,7458,7459,7460,7461,7457,7458,7459,7460,7461,7457,7458,7459,7460,
6762,6763,7506,7507,7508,7509,7510,7506,7507,7508,7509,7510,7506,7507,7508,7509,
6778,6779,7212,7213,7214,7215,7216,7212,7213,7214,7215,7216,7212,7213,7214,7215,
6794,6795,7261,7262,7263,7264,7265,7261,7262,7263,7264,7265,7261,7262,7263,7264,
6762,6763,7310,7311,7312,7313,7314,7310,7311,7312,7313,7314,7310,7311,7312,7313,
6778,6779,7359,7360,7361,7362,7363,7359,7360,7361,7362,7363,7359,7360,7361,7362,
6794,6795,7408,7409,7410,7411,7412,7408,7409,7410,7411,7412,7408,7409,7410,7411,
6762,6763,7457,7458,7459,7460,7461,7457,7458,7459,7460,7461,7457,7458,7459,7460,
346,346,346,346,346,346,346,346,346,346,346,346,346,346,346,346
</chunk>
      <chunk x="64" y="-16" width="16" height="16">
7461,7457,7458,7459,7460,7461,7457,7458,7459,7460,7461,7457,7458,7459,7460,7461,
7510,7506,7507,7508,7509,7510,7506,7507,7508,7509,7510,7506,7507,7508,7509,7510,
7216,7212,7213,7214,7215,7216,7212,7213,7214,7215,7216,7212,7213,7214,7215,7216,
7265,7261,7262,7263,7264,7265,7261,7262,7263,7264,7265,7261,7262,7263,7264,7265,
7314,7310,7311,7312,7313,7314,7310,7311,7312,7313,7314,7310,7311,7312,7313,7314,
7363,7359,7360,7361,7362,7363,7359,7360,7361,7362,7363,7359,7360,7361,7362,7363,
7412,7408,7409,7410,7411,7412,7408,7409,7410,7411,7412,7408,7409,7410,7411,7412,
7461,7457,7458,7459,7460,7461,7457,7458,7459,7460,7461,7457,7458,7459,7460,7461,
7510,7506,7507,7508,7509,7510,7506,7507,7508,7509,7510,7506,7507,7508,7509,7510,
7216,7212,7213,7214,7215,7216,7212,7213,7214,7215,7216,7212,7213,7214,7215,7216,
7265,7261,7262,7263,7264,7265,7261,7262,7263,7264,7265,7261,7262,7263,7264,7265,
7314,7310,7311,7312,7313,7314,7310,7311,7312,7313,7314,7310,7311,7312,7313,7314,
7363,7359,7360,7361,7362,7363,7359,7360,7361,7362,7363,7359,7360,7361,7362,7363,
7412,7408,7409,7410,7411,7412,7408,7409,7410,7411,7412,7408,7409,7410,7411,7412,
7461,7457,7458,7459,7460,7461,7457,7458,7459,7460,7461,7457,7458,7459,7460,7461,
346,346,346,346,346,346,346,346,346,346,346,346,346,346,346,346
</chunk>
      <chunk x="80" y="-16" width="16" height="16">
7457,7458,7459,4620,4817,4817,4673,7459,7460,7461,7457,7458,7459,7460,7461,7457,
7506,7507,7508,4620,4817,4817,4673,7508,7509,7510,7506,7507,7508,7509,7510,7506,
7212,7213,7214,4620,4817,4817,4673,7214,7215,7216,7212,7213,7214,7215,7216,7212,
7261,7262,7263,4620,4817,4817,4673,7263,7264,7265,7261,7262,7263,7264,7265,7261,
7310,7311,7312,4620,4817,4817,4673,7312,7313,7314,7310,7311,7312,7313,7314,7310,
7359,7360,7361,4620,4817,4817,4673,7361,7362,7363,7359,7360,7361,7362,7363,7359,
7408,7409,7410,4620,4817,4817,4673,7410,7411,7412,7408,7409,7410,7411,7412,7408,
7457,7458,7459,4620,4817,4817,4673,7459,7460,7461,7457,7458,7459,7460,7461,7457,
7506,7507,7508,4620,4817,4817,4673,7508,7509,7510,7506,7507,7508,7509,7510,7506,
7212,7213,7214,4620,4817,4817,4673,7214,7215,7216,7212,7213,7214,7215,7216,7212,
7261,7262,7263,4620,4817,4817,4673,7263,7264,7265,7261,7262,7263,7264,7265,7261,
7310,7311,7312,4620,4817,4817,4673,7312,7313,7314,7310,7311,7312,7313,7314,7310,
7359,7360,7361,4620,4817,4817,4673,7361,7362,7363,7359,7360,7361,7362,7363,7359,
7408,7409,7410,4672,4817,4817,4670,7410,7411,7412,7408,7409,7410,7411,7412,7408,
7457,7458,7459,4708,4707,4707,4708,7459,7460,7461,7457,7458,7459,7460,7461,7457,
346,346,346,4069,4071,4071,4073,346,346,346,346,346,346,346,346,346
</chunk>
      <chunk x="96" y="-16" width="16" height="16">
7458,7459,7460,7461,7457,7458,7459,7460,7461,7457,7458,7459,7460,7461,7457,7458,
7507,7508,7509,7510,7506,7507,7508,7509,7510,7506,7507,7508,7509,7510,7506,7507,
7213,7214,7215,7216,7212,7213,7214,7215,7216,7212,7213,7214,7215,7216,7212,7213,
7262,7263,7264,7265,7261,7262,7263,7264,7265,7261,7262,7263,7264,7265,7261,7262,
7311,7312,7313,7314,7310,7311,7312,7313,7314,7310,7311,7312,7313,7314,7310,7311,
7360,7361,7362,7363,7359,7360,7361,7362,7363,7359,7360,7361,7362,7363,7359,7360,
7409,7410,7411,7412,7408,7409,7410,7411,7412,7408,7409,7410,7411,7412,7408,7409,
7458,7459,7460,7461,7457,7458,7459,7460,7461,7457,7458,7459,7460,7461,7457,7458,
7507,7508,7509,7510,7506,7507,7508,7509,7510,7506,7507,7508,7509,7510,7506,7507,
7213,7214,7215,7216,7212,7213,7214,7215,7216,7212,7213,7214,7215,7216,7212,7213,
7262,7263,7264,7265,7261,7262,7263,7264,7265,7261,7262,7263,7264,7265,7261,7262,
7311,7312,7313,7314,7310,7311,7312,7313,7314,7310,7311,7312,7313,7314,7310,7311,
7360,7361,7362,7363,7359,7360,7361,7362,7363,7359,7360,7361,7362,7363,7359,7360,
7409,7410,7411,7412,7408,7409,7410,7411,7412,7408,7409,7410,7411,7412,7408,7409,
7458,7459,7460,7461,7457,7458,7459,7460,7461,7457,7458,7459,7460,7461,7457,7458,
346,346,346,346,346,346,346,346,346,346,346,346,346,346,346,346
</chunk>
      <chunk x="112" y="-16" width="16" height="16">
7459,7460,7461,7457,7458,7459,7460,7461,4167,4364,4364,4364,4364,4364,4364,4364,
7508,7509,7510,7506,7507,7508,7509,7510,4167,4364,4364,4364,4364,4364,4364,4364,
7214,7215,7216,7212,7213,7214,7215,7216,4167,4364,4364,4364,4364,4364,4364,4364,
7263,7264,7265,7261,7262,7263,7264,7265,4167,4364,4364,4364,4364,4364,4364,4364,
7312,7313,7314,7310,7311,7312,7313,7314,4167,4364,4364,4364,4364,4364,4364,4364,
7361,7362,7363,7359,7360,7361,7362,7363,4167,4364,4364,4364,4364,4364,4364,4364,
7410,7411,7412,7408,7409,7410,7411,7412,4167,4364,4364,4364,4364,4364,4364,4364,
7459,7460,7461,7457,7458,7459,7460,7461,4167,4364,4364,4364,4364,4364,4364,4364,
7508,7509,7510,7506,7507,7508,7509,7510,4167,4364,4364,4364,4364,4364,4364,4364,
7214,7215,7216,7212,7213,7214,7215,7216,4167,4364,4364,4364,4364,4364,4364,4364,
7263,7264,7265,7261,7262,7263,7264,7265,4167,4364,4364,4364,4364,4364,4364,4364,
7312,7313,7314,7310,7311,7312,7313,7314,4167,4364,4364,4364,4364,4364,4364,4364,
7361,7362,7363,7359,7360,7361,7362,7363,4167,4364,4364,4364,4364,4364,4364,4364,
7410,7411,7412,7408,7409,7410,7411,7412,4167,4364,4364,4364,4364,4364,4364,4364,
7459,7460,7461,7457,7458,7459,7460,7461,4167,4364,4364,4364,4364,4364,4364,4364,
346,346,346,346,346,346,346,346,4167,4364,4364,4364,4364,4364,4364,4364
</chunk>
      <chunk x="128" y="-16" width="16" height="16">
4364,4364,4364,4364,4364,4364,4364,4364,4364,4364,4364,4364,4364,4364,4364,4364,
4364,4364,4364,4364,4364,4364,4364,4364,4364,4364,4364,4364,4364,4364,4364,4364,
4364,4364,4364,4364,4364,4364,4364,4364,4364,4364,4364,4364,4364,4364,4364,4364,
4364,4364,4364,4364,4364,4364,4364,4364,4364,4364,4364,4364,4364,4364,4364,4364,
4364,4364,4364,4364,4364,4364,4364,4364,4364,4364,4364,4364,4364,4364,4364,4364,
4364,4364,4364,4364,4364,4364,4364,4364,4364,4364,4364,4364,4364,4364,4364,4364,
4364,4364,4364,4364,4364,4364,4364,4364,4364,4364,4364,4364,4364,4364,4364,4364,
4364,4364,4364,4364,4364,4364,4364,4364,4364,4364,4364,4364,4364,4364,4364,4364,
4364,4364,4364,4364,4364,4364,4364,4364,4364,4364,4364,4364,4364,4364,4364,4364,
4364,4364,4364,4364,4364,4364,4364,4364,4364,4364,4364,4364,4364,4364,4364,4364,
4364,4364,4364,4364,4364,4364,4364,4364,4364,4364,4364,4364,4364,4364,4364,4364,
4364,4364,4364,4364,4364,4364,4364,4364,4364,4364,4364,4364,4364,4364,4364,4364,
4364,4364,4364,4364,4364,4364,4364,4364,4364,4364,4364,4364,4364,4364,4364,4364,
4364,4364,4364,4364,4364,4364,4364,4364,4364,4364,4364,4364,4364,4364,4364,4364,
4364,4364,4364,4364,4364,4364,4364,4364,4364,4364,4364,4364,4364,4364,4364,4364,
4364,4364,4364,4364,4364,4364,4364,4364,4364,4364,4364,4364,4364,4364,4364,4364
</chunk>
      <chunk x="144" y="-16" width="16" height="16">
4364,4364,4364,4364,4364,4364,4364,4364,4364,8645,8842,8842,8649,4364,4364,4364,
4364,4364,4364,4364,4364,4364,4364,4364,4364,8645,8842,8842,8649,4364,4364,4364,
4364,4364,4364,4364,4364,4364,4364,4364,4364,8645,8842,8842,8649,4364,4364,4364,
4364,4364,4364,4364,4364,4364,4364,4364,4364,8645,8842,8842,8649,4364,4364,4364,
4364,4364,4364,4364,4364,4364,4364,4364,4364,8645,8842,8842,8649,4364,4364,4364,
4364,4364,4364,4364,4364,4364,4364,4364,4364,8645,8842,8842,8649,4364,4364,4364,
4364,4364,4364,4364,4364,4364,4364,4364,4364,8645,8842,8842,8649,4364,4364,4364,
4364,4364,4364,4364,4364,4364,4364,4364,4364,8645,8842,8842,8649,4364,4364,4364,
4364,4364,4364,4364,4364,4364,4364,4364,4364,8645,8842,8842,8649,4364,4364,4364,
4364,4364,4364,4364,4364,4364,4364,4364,4364,8645,8842,8842,8649,4364,4364,4364,
4364,4364,4364,4364,4364,4364,4364,4364,4364,8645,8842,8842,8649,4364,4364,4364,
4364,4364,4364,4364,4364,4364,4364,4364,4364,8645,8842,8842,8649,4364,4364,4364,
4364,4364,4364,4364,4364,4364,4364,4364,4364,8645,8842,8842,8649,4364,4364,4364,
4364,4364,4364,4364,4364,4364,4364,4364,4364,8645,8842,8842,8649,4364,4364,4364,
4364,4364,4364,4364,4364,4364,4364,4364,4364,8645,8842,8842,8649,4364,4364,4364,
4364,4364,4364,4364,4364,4364,4364,4364,4364,8645,8842,8842,8649,4364,4364,4364
</chunk>
      <chunk x="160" y="-16" width="16" height="16">
4364,4364,4364,4364,4364,4364,4364,4364,4364,4364,4364,4364,4364,4364,4364,4364,
4364,4364,4364,4364,4364,4364,4364,4364,4364,4364,4364,4364,4364,4364,4364,4364,
4364,4364,4364,4364,4364,4364,4364,4364,4364,4364,4364,4364,4364,4364,4364,4364,
4364,4364,4364,4364,4364,4364,4364,4364,4364,4364,4364,4364,4364,4364,4364,4364,
4364,4364,4364,4364,4364,4364,4364,4364,4364,4364,4364,4364,4364,4364,4364,4364,
4364,4364,4364,4364,4364,4364,4364,4364,4364,4364,4364,4364,4364,4364,4364,4364,
4364,4364,4364,4364,4364,4364,4364,4364,4364,4364,4364,4364,4364,4364,4364,4364,
4364,4364,4364,4364,4364,4364,4364,4364,4364,4364,4364,4364,4364,4364,4364,4364,
4364,4364,4364,4364,4364,4364,4364,4364,4364,4364,4364,4364,4364,4364,4364,4364,
4364,4364,4364,4364,4364,4364,4364,4364,4364,4364,4364,4364,4364,4364,4364,4364,
4364,4364,4364,4364,4364,4364,4364,4364,4364,4364,4364,4364,4364,4364,4364,4364,
4364,4364,4364,4364,4364,4364,4364,4364,4364,4364,4364,4364,4364,4364,4364,4364,
4364,4364,4364,4364,4364,4364,4364,4364,4364,4364,4364,4364,4364,4364,4364,4364,
4364,4364,4364,4364,4364,4364,4364,4364,4364,4364,4364,4364,4364,4364,4364,4364,
4364,4364,4364,4364,4364,4364,4364,4364,4364,4364,4364,4364,4364,4364,4364,4364,
4364,4364,4364,4364,4364,4364,4364,4364,4364,4364,4364,4364,4364,4364,4364,4364
</chunk>
      <chunk x="176" y="-16" width="16" height="16">
4364,4364,4364,4364,4364,4364,4364,4364,4364,4364,4364,4364,4364,4171,6746,2684362021,
4364,4364,4364,4364,4364,4364,4364,4364,4364,4364,4364,4364,4364,4171,6714,2684362017,
4364,4364,4364,4364,4364,4364,4364,4364,4364,4364,4364,4364,4364,4171,6730,2684362018,
4364,4364,4364,4364,4364,4364,4364,4364,4364,4364,4364,4364,4364,4171,6746,2684362019,
4364,4364,4364,4364,4364,4364,4364,4364,4364,4364,4364,4364,4364,4171,6714,2684362020,
4364,4364,4364,4364,4364,4364,4364,4364,4364,4364,4364,4364,4364,4171,6730,2684362021,
4364,4364,4364,4364,4364,4364,4364,4364,4364,4364,4364,4364,4364,4171,6746,2684362017,
4364,4364,4364,4364,4364,4364,4364,4364,4364,4364,4364,4364,4364,4171,6714,2684362018,
4364,4364,4364,4364,4364,4364,4364,4364,4364,4364,4364,4364,4364,4171,6730,2684362019,
4364,4364,4364,4364,4364,4364,4364,4364,4364,4364,4364,4364,4364,4171,6746,2684362020,
4364,4364,4364,4364,4364,4364,4364,4364,4364,4364,4364,4364,4364,4171,6714,2684362021,
4364,4364,4364,4364,4364,4364,4364,4364,4364,4364,4364,4364,4364,4171,6730,2684362017,
4364,4364,4364,4364,4364,4364,4364,4364,4364,4364,4364,4364,4364,4171,6746,2684362018,
4364,4364,4364,4364,4364,4364,4364,4364,4364,4364,4364,4364,4364,4171,6714,2684362019,
4364,4364,4364,4364,4364,4364,4364,4364,4364,4364,4364,4364,4364,4171,6730,2684362020,
4364,4364,4364,4364,4364,4364,4364,4364,4364,4364,4364,4364,4364,4171,346,346
</chunk>
      <chunk x="192" y="-16" width="16" height="16">
2684361972,2684361923,2684361874,2684361825,2684361776,2684362070,2684362021,2684361972,2684361923,2684361874,2684361825,2684361776,2684362070,2684362021,2684361972,2684361923,
2684361968,2684361919,2684361870,2684361821,2684361772,2684362066,2684362017,2684361968,2684361919,2684361870,2684361821,2684361772,2684362066,2684362017,2684361968,2684361919,
2684361969,2684361920,2684361871,2684361822,2684361773,2684362067,2684362018,2684361969,2684361920,2684361871,2684361822,2684361773,2684362067,2684362018,2684361969,2684361920,
2684361970,2684361921,2684361872,2684361823,2684361774,2684362068,2684362019,2684361970,2684361921,2684361872,2684361823,2684361774,2684362068,2684362019,2684361970,2684361921,
2684361971,2684361922,2684361873,2684361824,2684361775,2684362069,2684362020,2684361971,2684361922,2684361873,2684361824,2684361775,2684362069,2684362020,2684361971,2684361922,
2684361972,2684361923,2684361874,2684361825,2684361776,2684362070,2684362021,2684361972,2684361923,2684361874,2684361825,2684361776,2684362070,2684362021,2684361972,2684361923,
2684361968,2684361919,2684361870,2684361821,2684361772,2684362066,2684362017,2684361968,2684361919,2684361870,2684361821,2684361772,2684362066,2684362017,2684361968,2684361919,
2684361969,2684361920,2684361871,2684361822,2684361773,2684362067,2684362018,2684361969,2684361920,2684361871,2684361822,2684361773,2684362067,2684362018,2684361969,2684361920,
2684361970,2684361921,2684361872,2684361823,2684361774,2684362068,2684362019,2684361970,2684361921,2684361872,2684361823,2684361774,2684362068,2684362019,2684361970,2684361921,
2684361971,2684361922,2684361873,2684361824,2684361775,2684362069,2684362020,2684361971,2684361922,2684361873,2684361824,2684361775,2684362069,2684362020,2684361971,2684361922,
2684361972,2684361923,2684361874,2684361825,2684361776,2684362070,2684362021,2684361972,2684361923,2684361874,2684361825,2684361776,2684362070,2684362021,2684361972,2684361923,
2684361968,2684361919,2684361870,2684361821,2684361772,2684362066,2684362017,2684361968,2684361919,2684361870,2684361821,2684361772,2684362066,2684362017,2684361968,2684361919,
2684361969,2684361920,2684361871,2684361822,2684361773,2684362067,2684362018,2684361969,2684361920,2684361871,2684361822,2684361773,2684362067,2684362018,2684361969,2684361920,
2684361970,2684361921,2684361872,2684361823,2684361774,2684362068,2684362019,2684361970,2684361921,2684361872,2684361823,2684361774,2684362068,2684362019,2684361970,2684361921,
2684361971,2684361922,2684361873,2684361824,2684361775,2684362069,2684362020,2684361971,2684361922,2684361873,2684361824,2684361775,2684362069,2684362020,2684361971,2684361922,
346,346,346,346,346,346,346,346,346,346,346,346,346,346,346,346
</chunk>
      <chunk x="208" y="-16" width="16" height="16">
2684361874,2684361825,2684361776,2684362070,2684362021,2684361972,2684361923,2684361874,2684361825,2684361776,2684362070,2684362021,2684361972,2684361923,2684361874,2684361993,
2684361870,2684361821,2684361772,2684362066,2684362017,2684361968,2684361919,2684361870,2684361821,2684361772,2684362066,2684362017,2684361968,2684361919,2684361870,2684361993,
2684361871,2684361822,2684361773,2684362067,2684362018,2684361969,2684361920,2684361871,2684361822,2684361773,2684362067,2684362018,2684361969,2684361920,2684361871,2684361993,
2684361872,2684361823,2684361774,2684362068,2684362019,2684361970,2684361921,2684361872,2684361823,2684361774,2684362068,2684362019,2684361970,2684361921,2684361872,2684361993,
2684361873,2684361824,2684361775,2684362069,2684362020,2684361971,2684361922,2684361873,2684361824,2684361775,2684362069,2684362020,2684361971,2684361922,2684361873,2684361993,
2684361874,2684361825,2684361776,2684362070,2684362021,2684361972,2684361923,2684361874,2684361825,2684361776,2684362070,2684362021,2684361972,2684361923,2684361874,2684361993,
2684361870,2684361821,2684361772,2684362066,2684362017,2684361968,2684361919,2684361870,2684361821,2684361772,2684362066,2684362017,2684361968,2684361919,2684361870,2684361993,
2684361871,2684361822,2684361773,2684362067,2684362018,2684361969,2684361920,2684361871,2684361822,2684361773,2684362067,2684362018,2684361969,2684361920,2684361871,2684361993,
2684361872,2684361823,2684361774,2684362068,2684362019,2684361970,2684361921,2684361872,2684361823,2684361774,2684362068,2684362019,2684361970,2684361921,2684361872,2684361993,
2684361873,2684361824,2684361775,2684362069,2684362020,2684361971,2684361922,2684361873,2684361824,2684361775,2684362069,2684362020,2684361971,2684361922,2684361873,2684361993,
2684361874,2684361825,2684361776,2684362070,2684362021,2684361972,2684361923,2684361874,2684361825,2684361776,2684362070,2684362021,2684361972,2684361923,2684361874,2684361993,
2684361870,2684361821,2684361772,2684362066,2684362017,2684361968,2684361919,2684361870,2684361821,2684361772,2684362066,2684362017,2684361968,2684361919,2684361870,2684361993,
2684361871,2684361822,2684361773,2684362067,2684362018,2684361969,2684361920,2684361871,2684361822,2684361773,2684362067,2684362018,2684361969,2684361920,2684361871,2684361993,
2684361872,2684361823,2684361774,2684362068,2684362019,2684361970,2684361921,2684361872,2684361823,2684361774,2684362068,2684362019,2684361970,2684361921,2684361872,2684361993,
2684361873,2684361824,2684361775,2684362069,2684362020,2684361971,2684361922,2684361873,2684361824,2684361775,2684362069,2684362020,2684361971,2684361922,2684361873,2684361996,
346,346,346,346,346,346,346,346,346,346,346,346,346,346,346,4069
</chunk>
      <chunk x="224" y="-16" width="16" height="16">
2684362091,2684362091,2684361797,6747,6746,6747,6746,6747,6746,6747,6746,6747,6746,6747,6746,6747,
2684362091,2684362091,2684361797,6715,6714,6715,6714,6715,6714,6715,6714,6715,6714,6715,6714,6715,
2684362091,2684362091,2684361797,6731,6730,6731,6730,6731,6730,6731,6730,6731,6730,6731,6730,6731,
2684362091,2684362091,2684361797,6747,6746,6747,6746,6747,6746,6747,6746,6747,6746,6747,6746,6747,
2684362091,2684362091,2684361797,6715,6714,6715,6714,6715,6714,6715,6714,6715,6714,6715,6714,6715,
2684362091,2684362091,2684361797,6731,6730,6731,6730,6731,6730,6731,6730,6731,6730,6731,6730,6731,
2684362091,2684362091,2684361797,6747,6746,6747,6746,6747,6746,6747,6746,6747,6746,6747,6746,6747,
2684362091,2684362091,2684361797,6715,6714,6715,6714,6715,6714,6715,6714,6715,6714,6715,6714,6715,
2684362091,2684362091,2684361797,6731,6730,6731,6730,6731,6730,6731,6730,6731,6730,6731,6730,6731,
2684362091,2684362091,2684361797,6747,6746,6747,6746,6747,6746,6747,6746,6747,6746,6747,6746,6747,
2684362091,2684362091,2684361797,6715,6714,6715,6714,6715,6714,6715,6714,6715,6714,6715,6714,6715,
2684362091,2684362091,2684361797,6731,6730,6731,6730,6731,6730,6731,6730,6731,6730,6731,6730,6731,
2684362091,2684362091,2684361797,6747,6746,6747,6746,6747,6746,6747,6746,6747,6746,6747,6746,6747,
2684362091,2684362091,2684361797,6715,6714,6715,6714,6715,6714,6715,6714,6715,6714,6715,6714,6715,
2684361898,2684361898,2684361800,6731,6730,6731,6730,6731,6730,6731,6730,6731,6730,6731,6730,6731,
4071,4071,4073,346,346,346,346,346,346,346,346,346,346,346,346,346
</chunk>
      <chunk x="240" y="-16" width="16" height="16">
6746,6747,6746,6747,6746,6747,6746,6747,6746,6747,6714,6715,6714,6715,6714,6715,
6714,6715,6714,6715,6714,6715,6714,6715,6714,6715,6730,6731,6730,6731,6730,6731,
6730,6731,6730,6731,6730,6731,6730,6731,6730,6731,6746,6747,6746,6747,6746,6747,
6746,6747,6746,6747,6746,6747,6746,6747,6746,6747,6714,6715,6714,6715,6714,6715,
6714,6715,6714,6715,6714,6715,6714,6715,6714,6715,6730,6731,6730,6731,6730,6731,
6730,6731,6730,6731,6730,6731,6730,6731,6730,6731,6746,6747,6746,6747,6746,6747,
6746,6747,6746,6747,6746,6747,6746,6747,6746,6747,6714,6715,6714,6715,6714,6715,
6714,6715,6714,6715,6714,6715,6714,6715,6714,6715,6730,6731,6730,6731,6730,6731,
6730,6731,6730,6731,6730,6731,6730,6731,6730,6731,6746,6747,6746,6747,6746,6747,
6746,6747,6746,6747,6746,6747,6746,6747,6746,6747,6714,6715,6714,6715,6714,6715,
6714,6715,6714,6715,6714,6715,6714,6715,6714,6715,6730,6731,6730,6731,6730,6731,
6730,6731,6730,6731,6730,6731,6730,6731,6730,6731,6746,6747,6746,6747,6746,6747,
6746,6747,6746,6747,6746,6747,6746,6747,6746,6747,6714,6715,6714,6715,6714,6715,
6714,6715,6714,6715,6714,6715,6714,6715,6714,6715,6730,6731,6730,6731,6730,6731,
6730,6731,6730,6731,6730,6731,6730,6731,6730,6731,6746,6747,6746,6747,6746,6747,
346,346,346,346,346,346,346,346,346,346,346,346,346,346,346,346
</chunk>
      <chunk x="256" y="-16" width="16" height="16">
6714,6715,6714,6715,6778,6779,6778,6779,6778,6779,6778,6779,6778,6779,6778,6779,
6730,6731,6730,6731,6794,6795,6794,6795,6794,6795,6794,6795,6794,6795,6794,6795,
6746,6747,6746,6747,6762,6763,6762,6763,6762,6763,6762,6763,6762,6763,6762,6763,
6714,6715,6714,6715,6778,6779,6778,6779,6778,6779,6778,6779,6778,6779,6778,6779,
6730,6731,6730,6731,6794,6795,6794,6795,6794,6795,6794,6795,6794,6795,6794,6795,
6746,6747,6746,6747,6762,6763,6762,6763,6762,6763,6762,6763,6762,6763,6762,6763,
6714,6715,6714,6715,6778,6779,6778,6779,6778,6779,6778,6779,6778,6779,6778,6779,
6730,6731,6730,6731,6794,6795,6794,6795,6794,6795,6794,6795,6794,6795,6794,6795,
6746,6747,6746,6747,6762,6763,6762,6763,6762,6763,6762,6763,6762,6763,6762,6763,
6714,6715,6714,6715,6778,6779,6778,6779,6778,6779,6778,6779,6778,6779,6778,6779,
6730,6731,6730,6731,6794,6795,6794,6795,6794,6795,6794,6795,6794,6795,6794,6795,
6746,6747,6746,6747,6762,6763,6762,6763,6762,6763,6762,6763,6762,6763,6762,6763,
6714,6715,6714,6715,6778,6779,6778,6779,6778,6779,6778,6779,6778,6779,6778,6779,
6730,6731,6730,6731,6794,6795,6794,6795,6794,6795,6794,6795,6794,6795,6794,6795,
6746,6747,6746,6747,6762,6763,6762,6763,6762,6763,6762,6763,6762,6763,6762,6763,
346,346,346,346,346,346,346,346,346,346,346,346,346,346,346,346
</chunk>
      <chunk x="272" y="-16" width="16" height="16">
6778,6779,6778,6779,6778,6779,6778,6779,6778,6779,6778,6779,6778,6779,6778,6779,
6794,6795,6794,6795,6794,6795,6794,6795,6794,6795,6794,6795,6794,6795,6794,6795,
6762,6763,6762,6763,6762,6763,6762,6763,6762,6763,6762,6763,6762,6763,6762,6763,
6778,6779,6778,6779,6778,6779,6778,6779,6778,6779,6778,6779,6778,6779,6778,6779,
6794,6795,6794,6795,6794,6795,6794,6795,6794,6795,6794,6795,6794,6795,6794,6795,
6762,6763,6762,6763,6762,6763,6762,6763,6762,6763,6762,6763,6762,6763,6762,6763,
6778,6779,6778,6779,6778,6779,6778,6779,6778,6779,6778,6779,6778,6779,6778,6779,
6794,6795,6794,6795,6794,6795,6794,6795,6794,6795,6794,6795,6794,6795,6794,6795,
6762,6763,6762,6763,6762,6763,6762,6763,6762,6763,6762,6763,6762,6763,6762,6763,
6778,6779,6778,6779,6778,6779,6778,6779,6778,6779,6778,6779,6778,6779,6778,6779,
6794,6795,6794,6795,6794,6795,6794,6795,6794,6795,6794,6795,6794,6795,6794,6795,
6762,6763,6762,6763,6762,6763,6762,6763,6762,6763,6762,6763,6762,6763,6762,6763,
6778,6779,6778,6779,6778,6779,6778,6779,6778,6779,6778,6779,6778,6779,6778,6779,
6794,6795,6794,6795,6794,6795,6794,6795,6794,6795,6794,6795,6794,6795,6794,6795,
6762,6763,6762,6763,6762,6763,6762,6763,6762,6763,6762,6763,6762,6763,6762,6763,
346,346,346,346,346,346,346,346,346,346,346,346,346,346,346,346
</chunk>
      <chunk x="288" y="-16" width="16" height="16">
6778,6779,6778,6779,6778,6779,6778,6779,6778,6779,6778,6779,6778,6779,6778,6779,
6794,6795,6794,6795,6794,6795,6794,6795,6794,6795,6794,6795,6794,6795,6794,6795,
6762,6763,6762,6763,6762,6763,6762,6763,6762,6763,6762,6763,6762,6763,6762,6763,
6778,6779,6778,6779,6778,6779,6778,6779,6778,6779,6778,6779,6778,6779,6778,6779,
6794,6795,6794,6795,6794,6795,6794,6795,6794,6795,6794,6795,6794,6795,6794,6795,
6762,6763,6762,6763,6762,6763,6762,6763,6762,6763,6762,6763,6762,6763,6762,6763,
6778,6779,6778,6779,6778,6779,6778,6779,6778,6779,6778,6779,6778,6779,6778,6779,
6794,6795,6794,6795,6794,6795,6794,6795,6794,6795,6794,6795,6794,6795,6794,6795,
6762,6763,6762,6763,6762,6763,6762,6763,6762,6763,6762,6763,6762,6763,6762,6763,
6778,6779,6778,6779,6778,6779,6778,6779,6778,6779,6778,6779,6778,6779,6778,6779,
6794,6795,6794,6795,6794,6795,6794,6795,6794,6795,6794,6795,6794,6795,6794,6795,
6762,6763,6762,6763,6762,6763,6762,6763,6762,6763,6762,6763,6762,6763,6762,6763,
6778,6779,6778,6779,6778,6779,6778,6779,6778,6779,6778,6779,6778,6779,6778,6779,
6794,6795,6794,6795,6794,6795,6794,6795,6794,6795,6794,6795,6794,6795,6794,6795,
6762,6763,6762,6763,6762,6763,6762,6763,6762,6763,6762,6763,6762,6763,6762,6763,
346,346,6778,6779,6778,6779,6778,6779,6778,6779,6778,6779,6778,6779,6778,6779
</chunk>
      <chunk x="304" y="-16" width="16" height="16">
6778,6779,6778,6779,6778,6779,6778,6779,6778,6779,6778,6779,6778,6779,6778,6779,
6794,6795,6794,6795,6794,6795,6794,6795,6794,6795,6794,6795,6794,6795,6794,6795,
6762,6763,6762,6763,6762,6763,6762,6763,6762,6763,6762,6763,6762,6763,6762,6763,
6778,6779,6778,6779,6778,6779,6778,6779,6778,6779,6778,6779,6778,6779,6778,6779,
6794,6795,6794,6795,6794,6795,6794,6795,6794,6795,6794,6795,6794,6795,6794,6795,
6762,6763,6762,6763,6762,6763,6762,6763,6762,6763,6762,6763,6762,6763,6762,6763,
6778,6779,6778,6779,6778,6779,6778,6779,6778,6779,6778,6779,6778,6779,6778,6779,
6794,6795,6794,6795,6794,6795,6794,6795,6794,6795,6794,6795,6794,6795,6794,6795,
6762,6763,6762,6763,6762,6763,6762,6763,6762,6763,6762,6763,6762,6763,6762,6763,
6778,6779,6778,6779,6778,6779,6778,6779,6778,6779,6778,6779,6778,6779,6778,6779,
6794,6795,6794,6795,6794,6795,6794,6795,6794,6795,6794,6795,6794,6795,6794,6795,
6762,6763,6762,6763,6762,6763,6762,6763,6762,6763,6762,6763,6762,6763,6762,6763,
6778,6779,6778,6779,6778,6779,6778,6779,6778,6779,6778,6779,6778,6779,6778,6779,
6794,6795,6794,6795,6794,6795,6794,6795,6794,6795,6794,6795,6794,6795,6794,6795,
6762,6763,6762,6763,6762,6763,6762,6763,6762,6763,6762,6763,6762,6763,6762,6763,
6778,6779,6778,6779,6778,6779,6778,6779,6778,6779,6778,6779,6778,6779,6778,6779
</chunk>
      <chunk x="-16" y="0" width="16" height="16">
0,0,0,0,0,0,0,0,0,0,0,0,0,0,4909,4909,
0,0,0,0,0,0,0,0,0,0,0,0,0,0,4909,4909,
0,0,0,0,0,0,0,0,0,0,0,0,0,0,4909,4909,
0,0,0,0,0,0,0,0,0,0,0,0,0,0,4909,4909,
0,0,0,0,0,0,0,0,0,0,0,0,0,0,4909,4909,
0,0,0,0,0,0,0,0,0,0,0,0,0,0,4909,4909,
0,0,0,0,0,0,0,0,0,0,0,0,0,0,4909,4909,
0,0,0,0,0,0,0,0,0,0,0,0,0,0,4909,4909,
0,0,0,0,0,0,0,0,0,0,0,0,0,0,4909,4909,
0,0,0,0,0,0,0,0,0,0,0,0,0,0,4909,4909,
0,0,0,0,0,0,0,0,0,0,0,0,0,0,4909,4909,
0,0,0,0,0,0,0,0,0,0,0,0,0,0,4909,4909,
0,0,0,0,0,0,0,0,0,0,0,0,0,0,4909,4909,
0,0,0,0,0,0,0,0,0,0,0,0,0,0,4909,4909,
0,0,0,0,0,0,0,0,0,0,0,0,0,0,4909,4909,
0,0,0,0,0,0,0,0,0,0,0,0,0,0,4909,4909
</chunk>
      <chunk x="0" y="0" width="16" height="16">
6794,6795,6794,6795,6794,6795,6794,6795,6794,6795,6794,6795,6794,6795,6794,6795,
6762,6763,6762,6763,6762,6763,6762,6763,6762,6763,6762,6763,6762,6763,6762,6763,
6778,6779,6778,6779,6778,6779,6778,6779,6778,6779,6778,6779,6778,6779,6778,6779,
6794,6795,6794,6795,6794,6795,6794,6795,6794,6795,6794,6795,6794,6795,6794,6795,
6762,6763,6762,6763,6762,6763,6762,6763,6762,6763,6762,6763,6762,6763,6762,6763,
6778,6779,6778,6779,6778,6779,6778,6779,6778,6779,6778,6779,6778,6779,6778,6779,
6794,6795,6794,6795,6794,6795,6794,6795,6794,6795,6794,6795,6794,6795,6794,6795,
6762,6763,6762,6763,6762,6763,6762,6763,6762,6763,6762,6763,6762,6763,6762,6763,
6778,6779,6778,6779,6778,6779,6778,6779,6778,6779,6778,6779,6778,6779,6778,6779,
6794,6795,6794,6795,6794,6795,6794,6795,6794,6795,6794,6795,6794,6795,6794,6795,
6762,6763,6762,6763,6762,6763,6762,6763,6762,6763,6762,6763,6762,6763,6762,6763,
6778,6779,6778,6779,6778,6779,6778,6779,6778,6779,6778,6779,6778,6779,6778,6779,
6794,6795,6794,6795,6794,6795,6794,6795,6794,6795,6794,6795,6794,6795,6794,6795,
6762,6763,6762,6763,6762,6763,6762,6763,6762,6763,6762,6763,6762,6763,6762,6763,
6778,6779,6778,6779,6778,6779,6778,6779,6778,6779,6778,6779,6778,6779,6778,6779,
6794,6795,6794,6795,6794,6795,6794,6795,6794,6795,6794,6795,6794,6795,6794,6795
</chunk>
      <chunk x="16" y="0" width="16" height="16">
6794,6795,6794,6795,4069,4071,4071,4071,4071,4071,4071,4071,4071,4071,4071,4071,
6762,6763,6762,6763,4167,4364,4364,4364,4364,4364,4364,4364,4364,4364,4364,4364,
6778,6779,6778,6779,4167,4364,4364,4364,4364,4364,4364,4364,4364,4364,4364,4364,
6794,6795,6794,6795,4167,4364,4364,4364,4364,4364,4364,4364,4364,4364,4364,4364,
6762,6763,6762,6763,4167,4364,4364,4364,4364,4364,4364,4364,4364,4364,4364,4364,
6778,6779,6778,6779,4167,4364,4364,4364,4364,4364,4364,4364,4364,4364,4364,4364,
6794,6795,6794,6795,4167,4364,4364,4364,4364,4364,4364,4364,4364,4364,4364,4364,
6762,6763,6762,6763,4167,4364,4364,4364,4364,4364,4364,4364,4364,4364,4364,4364,
6778,6779,6778,6779,4167,4364,4364,4364,4364,4364,4364,4364,4364,4364,4364,4364,
6794,6795,6794,6795,4167,4364,4364,4364,4364,4364,4364,4364,4364,4364,4364,4364,
6762,6763,6762,6763,4167,4364,4364,4364,4364,4364,4364,4364,4364,4364,4364,4364,
6778,6779,6778,6779,4167,4364,4364,4364,4364,4364,4364,4364,4364,4364,4364,4364,
6794,6795,6794,6795,4167,4364,4364,4364,4364,4364,4364,4364,4364,4364,4364,4364,
6762,6763,6762,6763,4167,4364,4364,4364,4364,4364,4364,4364,4364,4364,4364,4364,
6778,6779,6778,6779,4167,4364,4364,4364,4364,4364,4364,4364,4364,4364,4364,4364,
6794,6795,6794,6795,4167,4364,4364,4364,4364,4364,4364,4364,4364,4364,4364,4364
</chunk>
      <chunk x="32" y="0" width="16" height="16">
4071,4071,4071,4071,4071,4071,4071,4071,4071,4071,4071,4071,4071,4071,4071,4071,
4364,4364,4364,4364,4364,4364,4364,4364,4364,4364,4364,4364,4364,4364,4364,4364,
4364,4364,4364,4364,4364,4364,4364,4364,4364,4364,4364,4364,4364,4364,4364,4364,
4364,4364,4364,4364,4364,4364,4364,4364,4364,4364,4364,4364,4364,4364,4364,4364,
4364,4364,4364,4364,4364,4364,4364,4364,4364,4364,4364,4364,4364,4364,4364,4364,
4364,4364,4364,4364,4364,4364,4364,4364,4364,4364,4364,4364,4364,4364,4364,4364,
4364,4364,4364,4364,4364,4364,4364,4364,4364,4364,4364,4364,4364,4364,4364,4364,
4364,4364,4364,4364,4364,4364,4364,4364,4364,4364,4364,4364,4364,4364,4364,4364,
4364,4364,4364,4364,4364,4364,4364,4364,4364,4364,4364,4364,4364,4364,4364,4364,
4364,4364,4364,4364,4364,4364,4364,4364,4364,4364,4364,4364,4364,4364,4364,4364,
4364,4364,4364,4364,4364,4364,4364,4364,4364,4364,4364,4364,4364,4364,4364,4364,
4364,4364,4364,4364,4364,4364,4364,4364,4364,4364,4364,4364,4364,4364,4364,4364,
4364,4364,4364,4364,4364,4364,4364,4364,4364,4364,4364,4364,4364,4364,4364,4364,
4364,4364,4364,4364,4364,4364,4364,4364,4364,4364,4364,4364,4364,4364,4364,4364,
4364,4364,4364,4364,4364,4364,4364,4364,4364,4364,4364,4364,4364,4364,4364,4364,
4364,4364,4364,4364,4364,4364,4364,4364,4364,4364,4364,4364,4364,4364,4364,4364
</chunk>
      <chunk x="48" y="0" width="16" height="16">
4071,4071,4071,4071,4071,4071,4071,4071,4071,4071,4071,4071,4071,4071,4071,4071,
4364,4364,4364,4364,4364,4364,4364,4364,4364,4364,4364,4364,4364,4364,4364,4364,
4364,4364,4364,4364,4364,4364,4364,4364,4364,4364,4364,4364,4364,4364,4364,4364,
4364,4364,4364,4364,4364,4364,4364,4364,4364,4364,4364,4364,4364,4364,4364,4364,
4364,4364,4364,4364,4364,4364,4364,4364,4364,4364,4364,4364,4364,4364,4364,4364,
4364,4364,4364,4364,4364,4364,4364,4364,4364,4364,4364,4364,4364,4364,4364,4364,
4364,4364,4364,4364,4364,4364,4364,4364,4364,4364,4364,4364,4364,4364,4364,4364,
4364,4364,4364,4364,4364,4364,4364,4364,4364,4364,4364,4364,4364,4364,4364,4364,
4364,4364,4364,4364,4364,4364,4364,4364,4364,4364,4364,4364,4364,4364,4364,4364,
4364,4364,4364,4364,4364,4364,4364,4364,4364,4364,4364,4364,4364,4364,4364,4364,
4364,4364,4364,4364,4364,4364,4364,4364,4364,4364,4364,4364,4364,4364,4364,4364,
4364,4364,4364,4364,4364,4364,4364,4364,4364,4364,4364,4364,4364,4364,4364,4364,
4364,4364,4364,4364,4364,4364,4364,4364,4364,4364,4364,4364,4364,4364,4364,4364,
4364,4364,4364,4364,4364,4364,4364,4364,4364,4364,4364,4364,4364,4364,4364,4364,
4364,4364,4364,4364,4364,4364,4364,4364,4364,4364,4364,4364,4364,4364,4364,4364,
4364,4364,4364,4364,4364,4364,4364,4364,4364,4364,4364,4364,4364,4364,4364,4364
</chunk>
      <chunk x="64" y="0" width="16" height="16">
4071,4071,4071,4071,4071,4071,4071,4071,4071,4071,4071,4071,4071,4071,4071,4071,
4364,4364,4364,4364,4364,4364,4364,4364,4364,4364,4364,4364,4364,4364,4364,4364,
4364,4364,4364,4364,4364,4364,4364,4364,4364,4364,4364,4364,4364,4364,4364,4364,
4364,4364,4364,4364,4364,4364,4364,4364,4364,4364,4364,4364,4364,4364,4364,4364,
4364,4364,4364,4364,4364,4364,4364,4364,4364,4364,4364,4364,4364,4364,4364,4364,
4364,4364,4364,4364,4364,4364,4364,4364,4364,4364,4364,4364,4364,4364,4364,4364,
4364,4364,4364,4364,4364,4364,4364,4364,4364,4364,4364,4364,4364,4364,4364,4364,
4364,4364,4364,4364,4364,4364,4364,4364,4364,4364,4364,4364,4364,4364,4364,4364,
4364,4364,4364,4364,4364,4364,4364,4364,4364,4364,4364,4364,4364,4364,4364,4364,
4364,4364,4364,4364,4364,4364,4364,4364,4364,4364,4364,4364,4364,4364,4364,4364,
4364,4364,4364,4364,4364,4364,4364,4364,4364,4364,4364,4364,4364,4364,4364,4364,
4364,4364,4364,4364,4364,4364,4364,4364,4364,4364,4364,4364,4364,4364,4364,4364,
4364,4364,4364,4364,4364,4364,4364,4364,4364,4364,4364,4364,4364,4364,4364,4364,
4364,4364,4364,4364,4364,4364,4364,4364,4364,4364,4364,4364,4364,4364,4364,4364,
4364,4364,4364,4364,4364,4364,4364,4364,4364,4364,4364,4364,4364,4364,4364,4364,
4364,4364,4364,4364,4364,4364,4364,4364,4364,4364,4364,4364,4364,4364,4364,4364
</chunk>
      <chunk x="80" y="0" width="16" height="16">
4071,4071,4071,4219,4364,4364,4364,4071,4071,4071,4071,4071,4071,4071,4071,4071,
4364,4364,4364,4364,4364,4364,4364,4364,4364,4364,4364,4364,4364,4364,4364,4364,
4364,4364,4364,4364,4364,4364,4364,4364,4364,4364,4364,4364,4364,4364,4364,4364,
4364,4364,4364,4364,4364,4364,4364,4364,4364,4364,4364,4364,4364,4364,4364,4364,
4364,4364,4364,4364,4364,4364,4364,4364,4364,4364,4364,4364,4364,4364,4364,4364,
4364,4364,4364,4364,4364,4364,4364,4364,4364,4364,4364,4364,4364,4364,4364,4364,
4364,4364,4364,8547,8549,8549,8551,4364,4364,4364,4364,4364,4364,4364,4364,4364,
4364,4364,4364,8596,8842,8842,8600,4364,4364,4364,4364,4364,4364,4364,4364,4364,
4364,4364,4364,8596,8842,8842,8600,4364,4364,4364,4364,4364,4364,4364,4364,4364,
4364,4364,4364,8596,8842,8842,8600,4364,4364,4364,4364,4364,4364,4364,4364,4364,
4364,4364,4364,8596,8842,8842,8600,4364,4364,4364,4364,4364,4364,4364,4364,4364,
4364,4364,4364,8596,8842,8842,8600,4364,4364,4364,4364,4364,4364,4364,4364,4364,
4364,4364,4364,8596,8842,8842,8600,4364,4364,4364,4364,4364,4364,4364,4364,4364,
4364,4364,4364,8596,8842,8842,8600,4364,4364,4364,4364,4364,4364,4364,4364,4364,
4364,4364,4364,8596,8842,8842,8600,4364,4364,4364,4364,4364,4364,4364,4364,4364,
4364,4364,4364,8596,8842,8842,8600,4364,4364,4364,4364,4364,4364,4364,4364,4364
</chunk>
      <chunk x="96" y="0" width="16" height="16">
4071,4071,4071,4071,4071,4071,4071,4071,4071,4071,4071,4071,4071,4071,4071,4071,
4364,4364,4364,4364,4364,4364,4364,4364,4364,4364,4364,4364,4364,4364,4364,4364,
4364,4364,4364,4364,4364,4364,4364,4364,4364,4364,4364,4364,4364,4364,4364,4364,
4364,4364,4364,4364,4364,4364,4364,4364,4364,4364,4364,4364,4364,4364,4364,4364,
4364,4364,4364,4364,4364,4364,4364,4364,4364,4364,4364,4364,4364,4364,4364,4364,
4364,4364,4364,4364,4364,4364,4364,4364,4364,4364,4364,4364,4364,4364,4364,4364,
4364,4364,4364,4364,4364,4364,4364,4364,4364,4364,4364,4364,4364,4364,4364,4364,
4364,4364,4364,4364,4364,4364,4364,4364,4364,4364,4364,4364,4364,4364,4364,4364,
4364,4364,4364,4364,4364,4364,4364,4364,4364,4364,4364,4364,4364,4364,4364,4364,
4364,4364,4364,4364,4364,4364,4364,4364,4364,4364,4364,4364,4364,4364,4364,4364,
4364,4364,4364,4364,4364,4364,4364,4364,4364,4364,4364,4364,4364,4364,4364,4364,
4364,4364,4364,4364,4364,4364,4364,4364,4364,4364,4364,4364,4364,4364,4364,4364,
4364,4364,4364,4364,4364,4364,4364,4364,4364,4364,4364,4364,4364,4364,4364,4364,
4364,4364,4364,4364,4364,4364,4364,4364,4364,4364,4364,4364,4364,4364,4364,4364,
4364,4364,4364,4364,4364,4364,4364,4364,4364,4364,4364,4364,4364,4364,4364,4364,
4364,4364,4364,4364,4364,4364,4364,4364,4364,4364,4364,4364,4364,4364,4364,4364
</chunk>
      <chunk x="112" y="0" width="16" height="16">
4071,4071,4071,4071,4071,4071,4071,4071,4219,4364,4364,4364,4364,4364,4364,4364,
4364,4364,4364,4364,4364,4364,4364,4364,4364,4364,4364,4364,4364,4364,4364,4364,
4364,4364,4364,4364,4364,4364,4364,4364,4364,4364,4364,4364,4364,4364,4364,4364,
4364,4364,4364,4364,4364,4364,4364,4364,4364,4364,4364,4364,4364,4364,4364,4364,
4364,4364,4364,4364,4364,4364,4364,4364,4364,4364,4364,4364,4364,4364,4364,4364,
4364,4364,4364,4364,4364,4364,4364,4364,4364,4364,4364,4364,4364,4364,4364,4364,
4364,4364,4364,4364,4364,4364,4364,4364,4364,4364,4364,4364,4364,4364,4364,4364,
4364,4364,4364,4364,4364,4364,4364,4364,4364,4364,4364,4364,4364,4364,4364,4364,
4364,4364,4364,4364,4364,4364,4364,4364,4364,4364,4364,4364,4364,4364,4364,4364,
4364,4364,4364,4364,4364,4364,4364,4364,4364,4364,4364,4364,4364,4364,4364,4364,
4364,4364,4364,4364,4364,4364,4364,4364,4364,4364,4364,4364,4364,8804,8805,8805,
4364,4364,4364,4364,4364,4364,4364,4364,4364,4364,4364,4364,4364,8853,8375,8376,
4364,4364,4364,4364,4364,4364,4364,4364,4364,4364,4364,4364,4364,8853,8424,8609,
4364,4364,4364,4364,4364,4364,4364,4364,4364,4364,4364,4364,4364,8853,8424,8661,
4364,4364,4364,4364,4364,4364,4364,4364,4364,4364,4364,4364,4364,8853,8424,8661,
4364,4364,4364,4364,4364,4364,4364,4364,4364,4364,4364,4364,4364,8853,8424,8661
</chunk>
      <chunk x="128" y="0" width="16" height="16">
4364,4364,4364,4364,4364,4364,4364,4364,4364,4364,4364,4364,4364,4364,4364,4364,
4364,4364,4364,4364,4364,4364,4364,4364,4364,4364,4364,4364,4364,4364,4364,4364,
4364,4364,4364,4364,4364,4364,4364,4364,4364,4364,4364,4364,4364,4364,4364,4364,
4364,4364,4364,4364,4364,4364,4364,4364,4364,4364,4364,4364,4364,4364,4364,4364,
4364,4364,4364,4364,4364,4364,4364,4364,4364,4364,4364,4364,4364,4364,4364,4364,
4364,4364,4364,4364,4364,4364,4364,4364,4364,4364,4364,4364,4364,4364,4364,4364,
4364,4364,4364,4364,4364,4364,4364,4364,4364,4364,4364,4364,4364,4364,4364,4364,
4364,4364,4364,4364,4364,4364,4364,4364,4364,4364,4364,4364,4364,4364,4364,4364,
4364,4364,4364,4364,4364,4364,4364,4364,4364,4364,4364,4364,4364,4364,4364,4364,
4364,4364,4364,4364,4364,4364,4364,4364,4364,4364,4364,4364,4364,4364,4364,4364,
8805,8805,8805,8805,8805,8805,8806,4364,4364,4364,4364,4364,4364,4364,4364,4364,
8376,8376,8376,8376,8376,8377,8855,4364,4364,4364,4364,4364,4364,4364,4364,4364,
8757,8757,8757,8757,8611,8426,8855,4364,4364,4364,4364,4364,4364,4364,4364,4364,
8130,8132,8132,8134,8657,8426,8855,4364,4364,4364,4364,4364,4364,4364,4364,4364,
8228,8180,8182,8232,8657,8426,8855,4364,4364,4364,4364,4364,4364,4364,4364,4364,
8228,8278,8280,8232,8657,8426,8855,4364,4364,4364,4364,4364,4364,4364,4364,4364
</chunk>
      <chunk x="144" y="0" width="16" height="16">
4364,4364,4364,4364,4364,4364,4364,4364,4364,8645,8842,8842,8649,4364,4364,4364,
4364,4364,4364,4364,4364,4364,4364,4364,4364,8645,8842,8842,8649,4364,4364,4364,
4364,4364,4364,4364,4364,4364,4364,4364,4364,8645,8842,8842,8649,4364,4364,4364,
4364,4364,4364,4364,4364,4364,4364,4364,4364,8645,8842,8842,8649,4364,4364,4364,
4364,4364,4364,4364,4364,4364,4364,4364,4364,8645,8842,8842,8649,4364,4364,4364,
4364,4364,4364,4364,4364,4364,4364,4364,4364,8645,8842,8842,8649,4364,4364,4364,
4364,4364,4364,4364,4364,4364,4364,4364,4364,8645,8842,8842,8649,4364,4364,4364,
4364,4364,4364,4364,4364,4364,4364,4364,4364,8645,8842,8842,8649,4364,4364,4364,
4364,4364,4364,4364,4364,4364,4364,4364,4364,8645,8842,8842,8649,4364,4364,4364,
4364,4364,4364,4364,4364,4364,4364,4364,4364,8645,8842,8842,8649,4364,4364,4364,
4364,4364,4364,4364,4364,4364,4364,4364,4364,8645,8842,8842,8649,4364,4364,4364,
4364,4364,4364,4364,4364,4364,4364,4364,4364,8645,8842,8842,8649,4364,4364,4364,
4364,4364,4364,4364,4364,4364,4364,4364,4364,8645,8842,8842,8649,4364,4364,4364,
4364,4364,4364,4364,4364,4364,4364,4364,4364,8645,8842,8842,8649,4364,4364,4364,
4364,4364,4364,4364,4364,4364,4364,4364,4364,8645,8842,8842,8649,4364,4364,4364,
4364,4364,4364,4364,4364,4364,4364,4364,4364,8645,8842,8842,8649,4364,4364,4364
</chunk>
      <chunk x="160" y="0" width="16" height="16">
4364,4364,4364,4364,4364,4364,4364,4364,4364,4364,4364,4364,4364,4364,4364,4364,
4364,4364,4364,4364,4364,4364,4364,4364,4364,4364,4364,4364,4364,4364,4364,4364,
4364,4364,4364,4364,4364,4364,4364,4364,4364,4364,4364,4364,4364,4364,4364,4364,
4364,4364,4364,4364,4364,4364,4364,4364,4364,4364,4364,4364,4364,4364,4364,4364,
4364,4364,4364,4364,4364,4364,4364,4364,4364,4364,4364,4364,4364,4364,4364,4364,
4364,4364,4364,4364,4364,4364,4364,4364,4364,4364,4364,4364,4364,4364,4364,4364,
4364,4364,4364,4364,4364,4364,4364,4364,4364,4364,4364,4364,4364,4364,4364,4364,
4364,4364,4364,4364,4364,4364,4364,4364,4364,4364,4364,4364,4364,4364,4364,4364,
4364,4364,4364,4364,4364,4364,4364,4364,4364,4364,4364,4364,4364,4364,4364,4364,
4364,4364,4364,4364,4364,4364,4364,4364,4364,4364,4364,4364,4364,4364,4364,4364,
4364,4364,4364,4364,4364,4364,4364,4364,4364,4364,4364,4364,4364,4364,4364,8804,
4364,4364,4364,4364,4364,4364,4364,4364,4364,4364,4364,4364,4364,4364,4364,8853,
4364,4364,4364,4364,4364,4364,4364,4364,4364,4364,4364,4364,4364,4364,4364,8853,
4364,4364,4364,4364,4364,4364,4364,4364,4364,4364,4364,4364,4364,4364,4364,8853,
4364,4364,4364,4364,4364,4364,4364,4364,4364,4364,4364,4364,4364,4364,4364,8853,
4364,4364,4364,4364,4364,4364,4364,4364,4364,4364,4364,4364,4364,4364,4364,8853
</chunk>
      <chunk x="176" y="0" width="16" height="16">
4364,4364,4364,4364,4364,4364,4364,4364,4364,4364,4364,4364,4364,4217,4071,4071,
4364,4364,4364,4364,4364,4364,4364,4364,4364,4364,4364,4364,4364,4364,4364,4364,
4364,4364,4364,4364,4364,4364,4364,4364,4364,4364,4364,4364,4364,4364,4364,4364,
4364,4364,4364,4364,4364,4364,4364,4364,4364,4364,4364,4364,4364,4364,4364,4364,
4364,4364,4364,4364,4364,4364,4364,4364,4364,4364,4364,4364,4364,4364,4364,4364,
4364,4364,4364,4364,4364,4364,4364,4364,4364,4364,4364,4364,4364,4364,4364,4364,
4364,4364,4364,4364,4364,4364,4364,4364,4364,4364,4364,4364,4364,4364,4364,4364,
4364,4364,4364,4364,4364,4364,4364,4364,4364,4364,4364,4364,4364,4364,4364,4364,
4364,4364,4364,4364,4364,4364,4364,4364,4364,4364,4364,4364,4364,4364,4364,4364,
4364,4364,4364,4364,4364,4364,4364,4364,4364,4364,4364,4364,4364,4364,4364,4364,
8805,8805,8805,8805,8805,8805,8805,8805,8806,4364,4364,4364,4364,4364,4364,4364,
8375,8376,8376,8376,8376,8376,8376,8377,8855,4364,4364,4364,4364,4364,4364,4364,
8424,8609,8757,8757,8757,8757,8611,8426,8855,4364,4364,4364,4364,4364,4364,4364,
8424,8661,8130,8132,8132,8134,8657,8426,8855,4364,4364,4364,4364,4364,4364,4364,
8424,8661,8228,8180,8182,8232,8657,8426,8855,4364,4364,4364,4364,4364,4364,4364,
8424,8661,8228,8278,8280,8232,8657,8426,8855,4364,4364,4364,4364,4364,4364,4364
</chunk>
      <chunk x="192" y="0" width="16" height="16">
4071,4071,4071,4071,4071,4071,4071,4071,4071,4071,4071,4071,4071,4071,4071,4071,
4364,4364,4364,4364,4364,4364,4364,4364,4364,4364,4364,4364,4364,4364,4364,4364,
4364,4364,4364,4364,4364,4364,4364,4364,4364,4364,4364,4364,4364,4364,4364,4364,
4364,4364,4364,4364,4364,4364,4364,4364,4364,4364,4364,4364,4364,4364,4364,4364,
4364,4364,4364,4364,4364,4364,4364,4364,4364,4364,4364,4364,4364,4364,4364,4364,
4364,4364,4364,4364,4364,4364,4364,4364,4364,4364,4364,4364,4364,4364,4364,4364,
4364,4364,4364,4364,4364,4364,4364,4364,4364,4364,4364,4364,4364,4364,4364,4364,
4364,4364,4364,4364,4364,4364,4364,4364,4364,4364,4364,4364,4364,4364,4364,4364,
4364,4364,4364,4364,4364,4364,4364,4364,4364,4364,4364,4364,4364,4364,4364,4364,
4364,4364,4364,4364,4364,4364,4364,4364,4364,4364,4364,4364,4364,4364,4364,4364,
4364,4364,4364,4364,4364,4364,4364,4364,4364,4364,4364,4364,4364,4364,4364,4364,
4364,4364,4364,4364,4364,4364,4364,4364,4364,4364,4364,4364,4364,4364,4364,4364,
4364,4364,4364,4364,4364,4364,4364,4364,4364,4364,4364,4364,4364,4364,4364,4364,
4364,4364,4364,4364,4364,4364,4364,4364,4364,4364,4364,4364,4364,4364,4364,4364,
4364,4364,4364,4364,4364,4364,4364,4364,4364,4364,4364,4364,4364,4364,4364,4364,
4364,4364,4364,4364,4364,4364,4364,4364,4364,4364,4364,4364,4364,4364,4364,4364
</chunk>
      <chunk x="208" y="0" width="16" height="16">
4071,4071,4071,4071,4071,4071,4071,4071,4071,4071,4071,4071,4071,4071,4071,4219,
4364,4364,4364,4364,4364,4364,4364,4364,4364,4364,4364,4364,4364,4364,4364,4364,
4364,4364,4364,4364,4364,4364,4364,4364,4364,4364,4364,4364,4364,4364,4364,4364,
4364,4364,4364,4364,4364,4364,4364,4364,4364,4364,4364,4364,4364,4364,4364,4364,
4364,4364,4364,4364,4364,4364,4364,4364,4364,4364,4364,4364,4364,4364,4364,4364,
4364,4364,4364,4364,4364,4364,4364,4364,4364,4364,4364,4364,4364,4364,4364,4364,
4364,4364,4364,4364,4364,4364,4364,4364,4364,4364,4364,4364,4364,4364,4364,8547,
4364,4364,4364,4364,4364,4364,4364,4364,4364,4364,4364,4364,4364,4364,4364,8596,
4364,4364,4364,4364,4364,4364,4364,4364,4364,4364,4364,4364,4364,4364,4364,8596,
4364,4364,4364,4364,4364,4364,4364,4364,4364,4364,4364,4364,4364,4364,4364,8596,
4364,4364,4364,4364,4364,4364,4364,4364,4364,4364,4364,4364,4364,4364,4364,8596,
4364,4364,4364,4364,4364,4364,4364,4364,4364,4364,4364,4364,4364,4364,4364,8596,
4364,4364,4364,4364,4364,4364,4364,4364,4364,4364,4364,4364,4364,4364,4364,8596,
4364,4364,4364,4364,4364,4364,4364,4364,4364,4364,4364,4364,4364,4364,4364,8596,
4364,4364,4364,4364,4364,4364,4364,4364,4364,4364,4364,4364,4364,4364,4364,8596,
4364,4364,4364,4364,4364,4364,4364,4364,4364,4364,4364,4364,4364,4364,4364,8596
</chunk>
      <chunk x="224" y="0" width="16" height="16">
4364,4364,4217,4071,4071,4071,4071,4071,4071,4071,4071,4071,4071,4071,4071,4071,
4364,4364,4364,4364,4364,4364,4364,4364,4364,4364,4364,4364,4364,4364,4364,4364,
4364,4364,4364,4364,4364,4364,4364,4364,4364,4364,4364,4364,4364,4364,4364,4364,
4364,4364,4364,4364,4364,4364,4364,4364,4364,4364,4364,4364,4364,4364,4364,4364,
4364,4364,4364,4364,4364,4364,4364,4364,4364,4364,4364,4364,4364,4364,4364,4364,
4364,4364,4364,4364,4364,4364,4364,4364,4364,4364,4364,4364,4364,4364,4364,4364,
8549,8549,8551,4364,4364,4364,4364,4364,4364,4364,4364,4364,4364,4364,4364,4364,
8842,8842,8600,4364,4364,4364,4364,4364,4364,4364,4364,4364,4364,4364,4364,4364,
8842,8842,8600,4364,4364,4364,4364,4364,4364,4364,4364,4364,4364,4364,4364,4364,
8842,8842,8600,4364,4364,4364,4364,4364,4364,4364,4364,4364,4364,4364,4364,4364,
8842,8842,8600,4364,4364,4364,4364,4364,4364,4364,4364,4364,4364,4364,4364,4364,
8842,8842,8600,4364,4364,4364,4364,4364,4364,4364,4364,4364,4364,4364,4364,4364,
8842,8842,8600,4364,4364,4364,4364,4364,4364,4364,4364,4364,4364,4364,4364,4364,
8842,8842,8600,4364,4364,4364,4364,4364,4364,4364,4364,4364,4364,4364,4364,4364,
8842,8842,8600,4364,4364,4364,4364,4364,4364,4364,4364,4364,4364,4364,4364,4364,
8842,8842,8600,4364,4364,4364,4364,4364,4364,4364,4364,4364,4364,4364,4364,4364
</chunk>
      <chunk x="240" y="0" width="16" height="16">
4071,4071,4071,4071,4071,4071,4071,4071,4071,4071,4071,4071,4071,4071,4071,4071,
4364,4364,4364,4364,4364,4364,4364,4364,4364,4364,4364,4364,4364,4364,4364,4364,
4364,4364,4364,4364,4364,4364,4364,4364,4364,4364,4364,4364,4364,4364,4364,4364,
4364,4364,4364,4364,4364,4364,4364,4364,4364,4364,4364,4364,4364,4364,4364,4364,
4364,4364,4364,4364,4364,4364,4364,4364,4364,4364,4364,4364,4364,4364,4364,4364,
4364,4364,4364,4364,4364,4364,4364,4364,4364,4364,4364,4364,4364,4364,4364,4364,
4364,4364,4364,4364,4364,4364,4364,4364,4364,4364,4364,4364,4364,4364,4364,4364,
4364,4364,4364,4364,4364,4364,4364,4364,4364,4364,4364,4364,4364,4364,4364,4364,
4364,4364,4364,4364,4364,4364,4364,4364,4364,4364,4364,4364,4364,4364,4364,4364,
4364,4364,4364,4364,4364,4364,4364,4364,4364,4364,4364,4364,4364,4364,4364,4364,
4364,4364,4364,4364,4364,4364,4364,4364,4364,4364,4364,4364,4364,4364,4364,4364,
4364,4364,4364,4364,4364,4364,4364,4364,4364,4364,4364,4364,4364,4364,4364,4364,
4364,4364,4364,4364,4364,4364,4364,4364,4364,4364,4364,4364,4364,4364,4364,4364,
4364,4364,4364,4364,4364,4364,4364,4364,4364,4364,4364,4364,4364,4364,4364,4364,
4364,4364,4364,4364,4364,4364,4364,4364,4364,4364,4364,4364,4364,4364,4364,4364,
4364,4364,4364,4364,4364,4364,4364,4364,4364,4364,4364,4364,4364,4364,4364,4364
</chunk>
      <chunk x="256" y="0" width="16" height="16">
4071,4071,4071,4071,4071,4071,4071,4071,4071,4071,4071,4071,4071,4071,4071,4071,
4364,4364,4364,4364,4364,4364,4364,4364,4364,4364,4364,4364,4364,4364,4364,4364,
4364,4364,4364,4364,4364,4364,4364,4364,4364,4364,4364,4364,4364,4364,4364,4364,
4364,4364,4364,4364,4364,4364,4364,4364,4364,4364,4364,4364,4364,4364,4364,4364,
4364,4364,4364,4364,4364,4364,4364,4364,4364,4364,4364,4364,4364,4364,4364,4364,
4364,4364,4364,4364,4364,4364,4364,4364,4364,4364,4364,4364,4364,4364,4364,4364,
4364,4364,4364,4364,4364,4364,4364,4364,4364,4364,4364,4364,4364,4364,4364,4364,
4364,4364,4364,4364,4364,4364,4364,4364,4364,4364,4364,4364,4364,4364,4364,4364,
4364,4364,4364,4364,4364,4364,4364,4364,4364,4364,4364,4364,4364,4364,4364,4364,
4364,4364,4364,4364,4364,4364,4364,4364,4364,4364,4364,4364,4364,4364,4364,4364,
4364,4364,4364,4364,4364,4364,4364,4364,4364,4364,4364,4364,4364,4364,4364,4364,
4364,4364,4364,4364,4364,4364,4364,4364,4364,4364,4364,4364,4364,4364,4364,4364,
4364,4364,4364,4364,4364,4364,4364,4364,4364,4364,4364,4364,4364,4364,4364,4364,
4364,4364,4364,4364,4364,4364,4364,4364,4364,4364,4364,4364,4364,4364,4364,4364,
4364,4364,4364,4364,4364,4364,4364,4364,4364,4364,4364,4364,4364,4364,4364,4364,
4364,4364,4364,4364,4364,4364,4364,4364,4364,4364,4364,4364,4364,4364,4364,4364
</chunk>
      <chunk x="272" y="0" width="16" height="16">
4071,4071,4071,4071,4071,4071,4071,4071,4071,4071,4071,4071,4071,4071,4071,4071,
4364,4364,4364,4364,4364,4364,4364,4364,4364,4364,4364,4364,4364,4364,4364,4364,
4364,4364,4364,4364,4364,4364,4364,4364,4364,4364,4364,4364,4364,4364,4364,4364,
4364,4364,4364,4364,4364,4364,4364,4364,4364,4364,4364,4364,4364,4364,4364,4364,
4364,4364,4364,4364,4364,4364,4364,4364,4364,4364,4364,4364,4364,4364,4364,4364,
4364,4364,4364,4364,4364,4364,4364,4364,4364,4364,4364,4364,4364,4364,4364,4364,
4364,4364,4364,4364,4364,4364,4364,4364,4364,4364,4364,4364,4364,4364,4364,4364,
4364,4364,4364,4364,4364,4364,4364,4364,4364,4364,4364,4364,4364,4364,4364,4364,
4364,4364,4364,4364,4364,4364,4364,4364,4364,4364,4364,4364,4364,4364,4364,4364,
4364,4364,4364,4364,4364,4364,4364,4364,4364,4364,4364,4364,4364,4364,4364,4364,
4364,4364,4364,4364,4364,4364,4364,4364,4364,4364,4364,4364,4364,4364,4364,4364,
4364,4364,4364,4364,4364,4364,4364,4364,4364,4364,4364,4364,4364,4364,4364,4364,
4364,4364,4364,4364,4364,4364,4364,4364,4364,4364,4364,4364,4364,4364,4364,4364,
4364,4364,4364,4364,4364,4364,4364,4364,4364,4364,4364,4364,4364,4364,4364,4364,
4364,4364,4364,4364,4364,4364,4364,4364,4364,4364,4364,4364,4364,4364,4364,4364,
4364,4364,4364,4364,4364,4364,4364,4364,4364,4364,4364,4364,4364,4364,4364,4364
</chunk>
      <chunk x="288" y="0" width="16" height="16">
4071,4073,6794,6795,6794,6795,6794,6795,6794,6795,6794,6795,6794,6795,6794,6795,
4364,4171,6762,6763,6762,6763,6762,6763,6762,6763,6762,6763,6762,6763,6762,6763,
4364,4171,6778,6779,6778,6779,6778,6779,6778,6779,6778,6779,6778,6779,6778,6779,
4364,4171,6794,6795,6794,6795,6794,6795,6794,6795,6794,6795,6794,6795,6794,6795,
4364,4171,6762,6763,6762,6763,6762,6763,6762,6763,6762,6763,6762,6763,6762,6763,
4364,4171,6778,6779,6778,6779,6778,6779,6778,6779,6778,6779,6778,6779,6778,6779,
4364,4171,6794,6795,6794,6795,6794,6795,6794,6795,6794,6795,6794,6795,6794,6795,
4364,4171,6762,6763,6762,6763,6762,6763,6762,6763,6762,6763,6762,6763,6762,6763,
4364,4171,6778,6779,6778,6779,6778,6779,6778,6779,6778,6779,6778,6779,6778,6779,
4364,4171,6794,6795,6794,6795,6794,6795,6794,6795,6794,6795,6794,6795,6794,6795,
4364,4171,6762,6763,6762,6763,6762,6763,6762,6763,6762,6763,6762,6763,6762,6763,
4364,4171,6778,6779,6778,6779,6778,6779,6778,6779,6778,6779,6778,6779,6778,6779,
4364,4171,6794,6795,6794,6795,6794,6795,6794,6795,6794,6795,6794,6795,6794,6795,
4364,4171,6762,6763,6762,6763,6762,6763,6762,6763,6762,6763,6762,6763,6762,6763,
4364,4171,6778,6779,6778,6779,6778,6779,6778,6779,6778,6779,6778,6779,6778,6779,
4364,4171,6794,6795,6794,6795,6794,6795,6794,6795,6794,6795,6794,6795,6794,6795
</chunk>
      <chunk x="304" y="0" width="16" height="16">
6794,6795,6794,6795,6794,6795,6794,6795,6794,6795,6794,6795,6794,6795,6794,6795,
6762,6763,6762,6763,6762,6763,6762,6763,6762,6763,6762,6763,6762,6763,6762,6763,
6778,6779,6778,6779,6778,6779,6778,6779,6778,6779,6778,6779,6778,6779,6778,6779,
6794,6795,6794,6795,6794,6795,6794,6795,6794,6795,6794,6795,6794,6795,6794,6795,
6762,6763,6762,6763,6762,6763,6762,6763,6762,6763,6762,6763,6762,6763,6762,6763,
6778,6779,6778,6779,6778,6779,6778,6779,6778,6779,6778,6779,6778,6779,6778,6779,
6794,6795,6794,6795,6794,6795,6794,6795,6794,6795,6794,6795,6794,6795,6794,6795,
6762,6763,6762,6763,6762,6763,6762,6763,6762,6763,6762,6763,6762,6763,6762,6763,
6778,6779,6778,6779,6778,6779,6778,6779,6778,6779,6778,6779,6778,6779,6778,6779,
6794,6795,6794,6795,6794,6795,6794,6795,6794,6795,6794,6795,6794,6795,6794,6795,
6762,6763,6762,6763,6762,6763,6762,6763,6762,6763,6762,6763,6762,6763,6762,6763,
6778,6779,6778,6779,6778,6779,6778,6779,6778,6779,6778,6779,6778,6779,6778,6779,
6794,6795,6794,6795,6794,6795,6794,6795,6794,6795,6794,6795,6794,6795,6794,6795,
6762,6763,6762,6763,6762,6763,6762,6763,6762,6763,6762,6763,6762,6763,6762,6763,
6778,6779,6778,6779,6778,6779,6778,6779,6778,6779,6778,6779,6778,6779,6778,6779,
6794,6795,6794,6795,6794,6795,6794,6795,6794,6795,6794,6795,6794,6795,6794,6795
</chunk>
      <chunk x="-16" y="16" width="16" height="16">
0,0,0,0,0,0,0,0,0,0,0,0,0,0,4909,4909,
0,0,0,0,0,0,0,0,0,0,0,0,0,0,4909,4909,
0,0,0,0,0,0,0,0,0,0,0,0,0,0,4909,4909,
0,0,0,0,0,0,0,0,0,0,0,0,0,0,4909,4909,
0,0,0,0,0,0,0,0,0,0,0,0,0,0,4909,4909,
0,0,0,0,0,0,0,0,0,0,0,0,0,0,4909,4909,
0,0,0,0,0,0,0,0,0,0,0,0,4909,4909,4909,4909,
0,0,0,0,0,0,0,0,0,0,0,0,4909,4909,4909,4909,
0,0,0,0,0,0,0,0,0,0,0,0,4909,4909,4909,4909,
0,0,0,0,0,0,0,0,0,0,0,0,4909,4909,4909,4909,
0,0,0,0,0,0,0,0,0,0,0,0,4909,4909,4909,4909,
0,0,0,0,0,0,0,0,0,0,0,0,4909,4909,4909,4909,
0,0,0,0,0,0,0,0,0,0,0,0,4909,4909,4909,4909,
0,0,0,0,0,0,0,0,0,0,0,0,4909,4909,4909,4909,
0,0,0,0,0,0,0,0,0,0,0,0,4909,4909,4909,4909,
0,0,0,0,0,0,0,0,0,0,0,0,4909,4909,4909,4909
</chunk>
      <chunk x="0" y="16" width="16" height="16">
6762,6763,6762,6763,6762,6763,6762,6763,6762,6763,6762,6763,6762,6763,6762,6763,
6778,6779,6778,6779,6778,6779,6778,6779,6778,6779,6778,6779,6778,6779,6778,6779,
6794,6795,6794,6795,6794,6795,6794,6795,6794,6795,6794,6795,6794,6795,6794,6795,
6762,6763,6762,6763,6762,6763,6762,6763,6762,6763,6762,6763,6762,6763,6762,6763,
6778,6779,6778,6779,6778,6779,6778,6779,6778,6779,6778,6779,6778,6779,6778,6779,
6794,6795,6794,6795,6794,6795,6794,6795,6794,6795,6794,6795,6794,6795,6794,6795,
6762,6763,6762,6763,6762,6763,6762,6763,6762,6763,6762,6763,6762,6763,6762,6763,
6778,6779,6778,6779,6778,6779,6778,6779,6778,6779,6778,6779,6778,6779,6778,6779,
6794,6795,6794,6795,6794,6795,6794,6795,6794,6795,6794,6795,6794,6795,6794,6795,
6762,6763,6762,6763,6762,6763,6762,6763,6762,6763,6762,6763,6762,6763,6762,6763,
6778,6779,6778,6779,6778,6779,6778,6779,6778,6779,6778,6779,6778,6779,6778,6779,
6794,6795,6794,6795,6794,6795,6794,6795,6794,6795,6794,6795,6794,6795,6794,6795,
6762,6763,6762,6763,6762,6763,6762,6763,6762,6763,6762,6763,6762,6763,6762,6763,
6778,6779,6778,6779,6778,6779,6778,6779,6778,6779,6778,6779,6778,6779,6778,6779,
6794,6795,6794,6795,6794,6795,6794,6795,6794,6795,6794,6795,6794,6795,6794,6795,
6762,6763,6762,6763,6762,6763,6762,6763,6762,6763,6762,6763,6762,6763,6762,6763
</chunk>
      <chunk x="16" y="16" width="16" height="16">
6762,6763,6762,6763,4167,4364,4364,4364,4364,4364,4364,4364,4364,4364,4364,4364,
6778,6779,6778,6779,4167,4364,4364,4364,4364,4364,4364,4364,4364,4364,4364,4364,
6794,6795,6794,6795,4167,4364,4364,4364,4364,4364,4364,4364,4364,4364,4364,4364,
6762,6763,6762,6763,4167,4364,4364,4364,4364,4364,4364,4364,4364,4364,4364,4364,
6778,6779,6778,6779,4167,4364,4364,4364,4364,4364,4364,4364,4364,4364,4364,4364,
6794,6795,6794,6795,4167,4364,4364,4364,4364,4364,4364,4364,4364,4364,4364,4364,
6762,6763,6762,6763,4167,4364,4364,4364,4364,4364,4364,4364,4364,4364,4364,4364,
6778,6779,6778,6779,4167,4364,4364,4364,4364,4364,4364,4364,4364,4364,4364,4364,
6794,6795,6794,6795,4167,4364,4364,4364,4364,4364,4364,4364,4364,4364,4364,4364,
6762,6763,6762,6763,4167,4364,4364,4364,4364,4364,4364,4364,4364,4364,4364,4364,
6778,6779,6778,6779,4167,4364,4364,4364,4364,4364,4364,4364,4364,4364,4364,4364,
6794,6795,6794,6795,4167,4364,4364,4364,4364,4364,4364,4364,4364,4364,4364,4364,
6762,6763,6762,6763,4167,4364,4364,4364,4364,4364,4364,4364,4364,4364,4364,4364,
6778,6779,6778,6779,4167,4364,4364,4364,4364,4364,4364,4364,4364,4364,4364,4364,
6794,6795,6794,6795,4167,4364,4364,4364,4364,4364,4364,4364,4364,4364,4364,4364,
6762,6763,6762,6763,4167,4364,4364,4364,4364,4364,4364,4364,4364,4364,4364,4364
</chunk>
      <chunk x="32" y="16" width="16" height="16">
4364,4364,4364,4364,4364,4364,4364,4364,4364,4364,4364,4364,4364,4364,4364,4364,
4364,4364,4364,4364,4364,4364,4364,4364,4364,4364,4364,4364,4364,4364,4364,4364,
4364,4364,4364,4364,4364,4364,4364,4364,4364,4364,4364,4364,4364,4364,4364,4364,
4364,4364,4364,4364,4364,4364,4364,4364,4364,4364,4364,4364,4364,4364,4364,4364,
4364,4364,4364,4364,4364,4364,4364,4364,4364,4364,4364,4364,4364,4364,4364,4364,
4364,4364,4364,4364,4364,4364,4364,4364,4364,4364,4364,4364,4364,4364,4364,4364,
4364,4364,4364,4364,4364,4364,4364,4364,4364,4364,4364,4364,4364,4364,4364,4364,
4364,4364,4364,4364,4364,4364,4364,4364,4364,4364,4364,4364,4364,4364,4364,4364,
4364,4364,4364,4364,4364,4364,4364,4364,4364,4364,4364,4364,4364,4364,4364,4364,
4364,4364,4364,4364,4364,4364,4364,4364,4364,4364,4364,4364,4364,4364,4364,4364,
4364,4364,4364,4364,4364,4364,4364,4364,4364,4364,4364,4364,4364,4364,4364,4364,
4364,4364,4364,4364,4364,4364,4364,4364,4364,4364,4364,4364,4364,4364,4364,4364,
4364,4364,4364,4364,4364,4364,4364,4364,4364,4364,4364,4364,4364,4364,4364,4364,
4364,4364,4364,4364,4364,4364,4364,4364,4364,4364,4364,4364,4364,4364,4364,4364,
4364,4364,4364,4364,4364,4364,4364,4364,4364,4364,4364,4364,4364,4364,4364,4364,
4364,4364,4364,4364,4364,4364,4364,4364,4364,4364,4364,4364,4364,4364,4364,4364
</chunk>
      <chunk x="48" y="16" width="16" height="16">
4364,4364,4364,4364,4364,4364,4364,4364,4364,4364,4364,4364,4364,4364,4364,4364,
4364,4364,4364,4364,4364,4364,4364,4364,4364,4364,4364,4364,4364,4364,4364,4364,
4364,4364,4364,4364,4364,4364,4364,4364,4364,4364,4364,4364,4364,4364,4364,4364,
4364,4364,4364,4364,4364,4364,4364,4364,4364,4364,4364,4364,4364,4364,4364,4364,
4364,4364,4364,4364,4364,4364,4364,4364,4364,4364,4364,4364,4364,4364,4364,4364,
4364,4364,4364,4364,4364,4364,4364,4364,4364,4364,4364,4364,4364,4364,4364,4364,
4364,4364,4364,4364,4364,4364,4364,4364,4364,4364,4364,4364,4364,4364,4364,4364,
4364,4364,4364,4364,4364,4364,4364,4364,4364,4364,4364,4364,4364,4364,4364,4364,
4364,4364,4364,4364,4364,4364,4364,4364,4364,4364,4364,4364,4364,4364,4364,4364,
4364,4364,4364,4364,4364,4364,4364,4364,4364,4364,4364,4364,4364,4364,4364,4364,
4364,4364,4364,4364,4364,4364,4364,4364,4364,4364,4364,4364,4364,4364,4364,4364,
4364,4364,4364,4364,4364,4364,4364,4364,4364,4364,4364,4364,4364,4364,4364,4364,
4364,4364,4364,4364,4364,4364,4364,4364,4364,4364,4364,4364,4364,4364,4364,4364,
4364,4364,4364,4364,4364,4364,4364,4364,4364,4364,4364,4364,4364,4364,4364,4364,
4364,4364,4364,4364,4364,4364,4364,4364,4364,4364,4364,4364,4364,4364,4364,4364,
4364,4364,4364,4364,4364,4364,4364,4364,4364,4364,4364,4364,4364,4364,4364,4364
</chunk>
      <chunk x="64" y="16" width="16" height="16">
4364,4364,4364,4364,4364,4364,4364,4364,4364,4364,4364,4364,4364,4364,4364,4364,
4364,4364,4364,4364,4364,4364,4364,4364,4364,4364,4364,4364,4364,4364,4364,4364,
4364,4364,4364,4364,4364,4364,4364,4364,4364,4364,4364,4364,4364,4364,4364,4364,
4364,4364,4364,4364,4364,4364,4364,4364,4364,4364,4364,4364,4364,4364,4364,4364,
4364,4364,4364,4364,4364,4364,4364,3221234219,3221234217,3221234217,3221234217,3221234217,3221234217,3221234217,3221234217,3221234217,
4364,4364,4364,4364,4364,4364,4364,3221234170,3221234314,3221234314,3221234314,3221234314,3221234314,3221234314,3221234314,3221234314,
4364,4364,4364,4364,4364,4364,4364,3221234170,3221234314,3221234314,3221234314,3221234314,3221234314,3221234314,3221234314,3221234314,
4364,4364,4364,4364,4364,4364,4364,3221234170,3221234314,3221234314,3221234169,3221234021,3221234021,3221234021,3221234021,3221234021,
4364,4364,4364,4364,4364,4364,4364,3221234170,3221234314,3221234314,3221234166,3221229836,3221229836,3221229836,3221229836,3221229836,
4364,4364,4364,4364,4364,4364,4364,3221234170,3221234314,3221234314,3221234166,3221229836,3221229836,3221229836,3221229836,3221229836,
4364,4364,4364,4364,4364,4364,4364,3221234170,3221234314,3221234314,3221234166,3221229836,3221229836,3221229836,3221229836,3221229836,
4364,4364,4364,4364,4364,4364,4364,3221234170,3221234314,3221234314,3221234166,3221229836,3221229836,3221229836,3221229836,3221229836,
4364,4364,4364,4364,4364,4364,4364,3221234170,3221234314,3221234314,3221234166,3221229836,3221229836,3221229836,3221229836,3221229836,
4364,4364,4364,4364,4364,4364,4364,3221234170,3221234314,3221234314,3221234166,3221229836,3221229836,3221229836,3221229836,3221229836,
4364,4364,4364,4364,4364,4364,4364,3221234170,3221234314,3221234314,3221234166,3221229836,3221229836,3221229836,3221229836,3221229836,
4364,4364,4364,4364,4364,4364,4364,3221234170,3221234314,3221234314,3221234166,3221229836,3221229836,3221229836,3221229836,3221229836
</chunk>
      <chunk x="80" y="16" width="16" height="16">
4364,4364,4364,8596,8842,8842,8600,4364,4364,4364,4364,4364,4364,4364,4364,4364,
4364,4364,4364,8596,8842,8842,8600,4364,4364,4364,4364,4364,4364,4364,4364,4364,
4364,4364,4364,8596,8842,8842,8600,4364,4364,4364,4364,4364,4364,4364,4364,4364,
4364,4364,4364,8596,8842,8842,8600,4364,4364,4364,4364,4364,4364,4364,4364,4364,
3221234217,3221234217,3221234217,8697,3221234314,3221234314,8695,3221234217,3221234217,3221234217,3221234217,3221234217,3221234217,3221234217,3221234217,3221234216,
3221234314,3221234314,3221234314,3221234314,3221234314,3221234314,3221234314,3221234314,3221234314,3221234314,3221234314,3221234314,3221234314,3221234314,3221234314,3221234314,
3221234314,3221234314,3221234314,3221234314,3221234314,3221234314,3221234314,3221234314,3221234314,3221234314,3221234314,3221234314,3221234314,3221234314,3221234314,3221234314,
3221234021,3221234021,3221234021,3221234167,3221234314,3221234314,3221234169,3221234021,3221234021,3221234021,3221234021,3221234021,3221234021,3221234021,3221234021,3221234167,
3221229836,3221229836,3221229836,3221234170,3221234314,3221234314,3221234166,3221229836,3221229836,3221229836,3221229836,3221229836,3221229836,3221229836,3221229836,3221234170,
3221229836,3221229836,3221229836,3221234170,3221234314,3221234314,3221234166,3221229836,3221229836,3221229836,3221229836,3221229836,3221229836,3221229836,3221229836,3221234170,
3221229836,3221229836,3221229836,3221234170,3221234314,3221234314,3221234166,3221229836,3221229836,3221229836,3221229836,3221229836,3221229836,3221229836,3221229836,3221234170,
3221229836,3221229836,3221229836,3221234170,3221234314,3221234314,3221234166,3221229836,3221229836,3221229836,3221229836,3221229836,3221229836,3221229836,3221229836,3221234170,
3221229836,3221229836,3221229836,3221234170,3221234314,3221234314,3221234166,3221229836,3221229836,3221229836,3221229836,3221229836,3221229836,3221229836,3221229836,3221234170,
3221229836,3221229836,3221229836,3221234170,3221234314,3221234314,3221234166,3221229836,3221229836,3221229836,3221229836,3221229836,3221229836,3221229836,3221229836,3221234170,
3221229836,3221229836,3221229836,3221234170,3221234314,3221234314,3221234166,3221229836,3221229836,3221229836,3221229836,3221229836,3221229836,3221229836,3221229836,3221234170,
3221229836,3221229836,3221229836,3221234170,3221234314,3221234314,3221234166,3221229836,3221229836,3221229836,3221229836,3221229836,3221229836,3221229836,3221229836,3221234170
</chunk>
      <chunk x="96" y="16" width="16" height="16">
4364,4364,4364,4364,4364,4364,4364,4364,4364,4364,4364,4364,4364,4364,4364,4364,
4364,4364,4364,4364,4364,4364,4364,4364,4364,4364,4364,4364,4364,4364,4364,4364,
4364,4364,4364,4364,4364,4364,4364,4364,4364,4364,4364,4364,4364,4364,4364,4364,
4364,4364,4364,4364,4364,4364,4364,4364,4364,4364,4364,4364,4364,4364,4364,4364,
3221234216,3221234216,3221234215,4364,4364,4364,4364,4364,4364,4364,4364,4364,4364,4364,4364,4364,
3221234314,3221234314,3221234166,4364,4364,4364,4364,4364,4364,4364,4364,4364,4364,4364,4364,4364,
3221234314,3221234314,3221234166,4364,4364,4364,4364,4364,4364,4364,4364,4364,4364,4364,4364,4364,
3221234314,3221234314,3221234166,4364,4364,4364,4364,4364,4364,4364,4364,4364,4364,4364,4364,4364,
3221234314,3221234314,3221234166,4364,4364,4364,4364,4364,4364,4364,4364,4364,4364,4364,4364,4364,
3221234314,3221234314,3221234166,4364,4364,4364,4364,4364,4364,4364,4364,4364,4364,4364,4364,4364,
3221234314,3221234314,3221234166,4364,4364,4364,4364,4364,4364,4364,4364,4364,4364,4364,4364,4364,
3221234314,3221234314,3221234166,4364,4364,4364,4364,4364,4364,4364,4364,4364,4364,4364,4364,4364,
3221234314,3221234314,3221234166,4364,4364,4364,4364,4364,4364,4364,4364,4364,4364,4364,4364,4364,
3221234314,3221234314,3221234166,4364,4364,4364,4364,4364,4364,4364,4364,4364,4364,4364,4364,4364,
3221234314,3221234314,3221234166,4364,4364,4364,4364,4364,4364,4364,4364,4364,4364,4364,4364,4364,
3221234314,3221234314,3221234166,4364,4364,4364,4364,4364,4364,4364,4364,4364,4364,4364,4364,4364
</chunk>
      <chunk x="112" y="16" width="16" height="16">
4364,4364,4364,4364,4364,4364,4364,4364,4364,4364,4364,4364,4364,8853,8424,8661,
4364,4364,4364,4364,4364,4364,4364,4364,4364,4364,4364,4364,4364,8853,8424,8707,
4364,4364,4364,4364,4364,4364,4364,4364,4364,4364,4364,4364,4364,8853,8473,8474,
4364,4364,4364,4364,4364,4364,4364,4364,4364,4364,4364,4364,4364,8902,8903,8903,
4364,4364,4364,4364,4364,4364,4364,4364,4364,4364,4364,4364,4364,4364,4364,4364,
4364,4364,4364,4364,4364,4364,4364,4364,4364,4364,4364,4364,4364,4364,4364,4364,
4364,4364,4364,4364,4364,4364,4364,4364,4364,4364,4364,4364,4364,4364,4364,4364,
4364,4364,4364,4364,4364,4364,4364,4364,4364,4364,4364,4364,4364,4364,4364,4364,
4364,4364,4364,4364,4364,4364,4364,4364,4364,4364,4364,4364,4364,4364,4364,4364,
4364,4364,4364,4364,4364,4364,4364,4364,4364,4364,4364,4364,4364,4364,4364,4364,
4364,4364,4364,4364,4364,4364,4364,4364,4364,4364,4364,4364,4364,4364,4364,4364,
4364,4364,4364,4364,4364,4364,4364,4364,4364,4364,4364,4364,4364,4364,4364,4364,
4364,4364,4364,4364,4364,4364,4364,4364,4364,4364,4364,4364,4364,4364,4364,4364,
4364,4364,4364,4364,4364,4364,4364,4364,4364,4364,4364,4364,4364,4364,4364,4364,
4364,4364,4364,4364,4364,4364,4364,4364,4364,4364,4364,4364,4364,4364,4364,4364,
4364,4364,4364,4364,4364,4364,4364,4364,4364,4364,4364,4364,4364,4364,4364,4364
</chunk>
      <chunk x="128" y="16" width="16" height="16">
8326,8328,8328,8330,8657,8426,8855,4364,4364,4364,4364,4364,4364,4364,4364,4364,
8561,8561,8561,8561,8709,8426,8855,4364,4364,4364,4364,4364,4364,4364,4364,4364,
8474,8474,8474,8474,8474,8475,8855,4364,4364,4364,4364,4364,4364,4364,4364,4364,
8903,8903,8903,8903,8903,8903,8904,4364,4364,4364,4364,4364,4364,4364,4364,4364,
4364,4364,4364,4364,4364,4364,4364,4364,4364,4364,4364,4364,4364,4364,4364,4364,
4364,4364,4364,4364,4364,4364,4364,4364,4364,4364,4364,4364,4364,4364,4364,4364,
4364,4364,4364,4364,4364,4364,4364,4364,4364,4364,4364,4364,4364,4364,4364,4364,
4364,4364,4364,4364,4364,4364,4364,4364,4364,4364,4364,4364,4364,4364,4364,4364,
4364,4364,4364,4364,4364,4364,4364,4364,4364,4364,4364,4364,4364,4364,4364,4364,
4364,4364,4364,4364,4364,4364,4364,4364,4364,4364,4364,4364,4364,4364,4364,4364,
4364,4364,4364,4364,4364,4364,4364,4364,4364,4364,4364,4364,4364,4364,4364,4364,
4364,4364,4364,4364,4364,4364,4364,4364,4364,4364,4364,4364,4364,4364,4364,4364,
4364,4364,4364,4364,4364,4364,4364,4364,4364,4364,4364,4364,4364,4364,4364,4364,
4364,4364,4364,4364,4364,4364,4364,4364,4364,4364,4364,4364,4364,4364,4364,4364,
4364,4364,4364,4364,4364,4364,4364,4364,4364,4364,4364,4364,4364,4364,4364,4364,
4364,4364,4364,4364,4364,4364,4364,4364,4364,4364,4364,4364,4364,4364,4364,4364
</chunk>
      <chunk x="144" y="16" width="16" height="16">
4364,4364,4364,4364,4364,4364,4364,4364,4364,8645,8842,8842,8649,4364,4364,4364,
4364,4364,4364,4364,4364,4364,4364,4364,4364,8645,8842,8842,8649,4364,4364,4364,
4364,4364,4364,4364,4364,4364,4364,4364,4364,8645,8842,8842,8649,4364,4364,4364,
4364,4364,4364,4364,4364,4364,4364,4364,4364,8645,8842,8842,8649,4364,4364,4364,
4364,4364,4364,4364,4364,4364,4364,4364,4364,8645,8842,8842,8649,4364,4364,4364,
4364,4364,4364,4364,4364,4364,4364,4364,4364,8645,8842,8842,8649,4364,4364,4364,
4364,4364,4364,4364,4364,4364,4364,4364,4364,8645,8842,8842,8649,4364,4364,4364,
4364,4364,4364,4364,4364,4364,4364,4364,4364,8645,8842,8842,8649,4364,4364,4364,
4364,4364,4364,4364,4364,4364,4364,4364,4364,8645,8842,8842,8649,4364,4364,4364,
4364,4364,4364,4364,4364,4364,4364,4364,4364,8645,8842,8842,8649,4364,4364,4364,
4364,4364,4364,4364,4364,4364,4364,4364,4364,8645,8842,8842,8649,4364,4364,4364,
4364,4364,4364,4364,4364,4364,4364,4364,4364,8645,8842,8842,8649,4364,4364,4364,
4364,4364,4364,4364,4364,4364,4364,4364,4364,8645,8842,8842,8649,4364,4364,4364,
4364,4364,4364,4364,4364,4364,4364,4364,4364,8645,8842,8842,8649,4364,4364,4364,
4364,4364,4364,4364,4364,4364,8547,8550,8550,8697,8842,8842,8695,8550,8550,8551,
4364,4364,4364,4364,4364,4364,8694,8842,8842,8842,8842,8842,8842,8842,8842,8698
</chunk>
      <chunk x="160" y="16" width="16" height="16">
4364,4364,4364,4364,4364,4364,4364,4364,4364,4364,4364,4364,4364,4364,4364,8853,
4364,4364,4364,4364,4364,4364,4364,4364,4364,4364,4364,4364,4364,4364,4364,8853,
4364,4364,4364,4364,4364,4364,4364,4364,4364,4364,4364,4364,4364,4364,4364,8853,
4364,4364,4364,4364,4364,4364,4364,4364,4364,4364,4364,4364,4364,4364,4364,8902,
4364,4364,4364,4364,4364,4364,4364,4364,4364,4364,4364,4364,4364,4364,4364,4364,
4364,4364,4364,4364,4364,4364,4364,4364,4364,4364,4364,4364,4364,4364,4364,4364,
4364,4364,4364,4364,4364,4364,4364,4364,4364,4364,4364,4364,4364,4364,4364,4364,
4364,4364,4364,4364,4364,4364,4364,4364,4364,4364,4364,4364,4364,4364,4364,4364,
4364,4364,4364,4364,4364,4364,4364,4364,4364,4364,4364,4364,4364,4364,4364,4364,
4364,4364,4364,4364,4364,4364,4364,4364,4364,4364,4364,4364,4364,4364,4364,4364,
4364,4364,4364,4364,4364,4364,4364,4364,4364,4364,4364,4364,4364,4364,4364,4364,
4364,4364,4364,4364,4364,4364,4364,4364,4364,4364,4364,4364,4364,4364,4364,4364,
4364,4364,4364,4364,4364,4364,4364,4364,4364,4364,4364,4364,4364,4364,4364,4364,
4364,4364,4364,4364,4364,4364,4364,4364,4364,4364,4364,4364,4364,4364,4364,4364,
4364,4364,4364,4364,4364,4364,4364,4364,4364,4364,4364,4364,4364,4364,4364,4364,
4364,4364,4364,4364,4364,4364,4364,4364,4364,4364,4364,4364,4364,4364,4364,4364
</chunk>
      <chunk x="176" y="16" width="16" height="16">
8424,8661,8326,8328,8328,8330,8657,8426,8855,4364,4364,4364,4364,4364,4364,4364,
8424,8707,8561,8561,8561,8561,8709,8426,8855,4364,4364,4364,4364,4364,4364,4364,
8473,8474,8474,8474,8474,8474,8474,8475,8855,4364,4364,4364,4364,4364,4364,4364,
8903,8903,8903,8903,8903,8903,8903,8903,8904,4364,4364,4364,4364,4364,4364,4364,
4364,4364,4364,4364,4364,4364,4364,4364,4364,4364,4364,4364,4364,4364,4364,4364,
4364,4364,4364,4364,4364,4364,4364,4364,4364,4364,4364,4364,4364,4364,4364,4364,
4364,4364,4364,4364,4364,4364,4364,4364,4364,4364,4364,4364,4364,4364,4364,4364,
4364,4364,4364,4364,4364,4364,4364,4364,4364,4364,4364,4364,4364,4364,4364,4364,
4364,4364,4364,4364,4364,4364,4364,4364,4364,4364,4364,4364,4364,4364,4364,4364,
4364,4364,4364,4364,4364,4364,4364,4364,4364,4364,4364,4364,4364,4364,4364,4364,
4364,4364,4364,4364,4364,4364,4364,4364,4364,4364,4364,4364,4364,4364,4364,4364,
4364,4364,4364,4364,4364,4364,4364,4364,4364,4364,4364,4364,4364,4364,4364,4364,
4364,4364,4364,4364,4364,4364,4364,4364,4364,4364,4364,4364,4364,4364,4364,4364,
4364,4364,4364,4364,4364,4364,4364,4364,4364,4364,4364,4364,4364,4364,4364,4364,
4364,4364,4364,4364,4364,4364,4364,4364,4364,4364,4364,4364,4364,4364,4364,4364,
4364,4364,4364,4364,4364,4364,4364,4364,4364,4364,4364,4364,4364,4364,4364,4364
</chunk>
      <chunk x="192" y="16" width="16" height="16">
4364,4364,4364,4364,4364,4364,4364,4364,4364,4364,4364,4364,4364,4364,4364,4364,
4364,4364,4364,4364,4364,4364,4364,4364,4364,4364,4364,4364,4364,4364,4364,4364,
4364,4364,4364,4364,4364,4364,4364,4364,4364,4364,4364,4364,4364,4364,4364,4364,
4364,4364,4364,4364,4364,4364,4364,4364,4364,4364,4364,4364,4364,4364,4364,4364,
4364,4364,4364,4364,4364,4364,4364,4364,4364,4364,4364,4364,4364,4364,4364,4364,
4364,4364,4364,4364,4364,4364,4364,4364,4364,4364,4364,4364,4364,4364,4364,4364,
4364,4364,4364,4364,4364,4364,4364,4364,4364,4364,4364,4364,4364,4364,4364,4364,
4364,4364,4364,4364,4364,4364,4364,4364,4364,4364,4364,4364,4364,4364,4364,4364,
4364,4364,4364,4364,4364,4364,4364,4364,4364,4364,4364,4364,4364,4364,4364,4364,
4364,4364,4364,4364,4364,4364,4364,4364,4364,4364,4364,4364,4364,4364,4364,4364,
4364,4364,4364,4364,4364,4364,4364,4364,4364,4364,4364,4364,4364,4364,4364,4364,
4364,4364,4364,4364,4364,4364,4364,4364,4364,4364,4364,4364,4364,4364,4364,4364,
4364,4364,4364,4364,4364,4364,4364,4364,4364,4364,4364,4364,4364,4364,4364,4364,
4364,4364,4364,4364,4364,4364,4364,4364,4364,4364,4364,4364,4364,4364,4364,4364,
4364,4364,4364,4364,4364,4364,4364,4364,4364,4364,4364,4364,4364,4364,4364,4364,
4364,4364,4364,4364,4364,4364,4364,4364,4364,4364,4364,4364,4364,4364,4364,4364
</chunk>
      <chunk x="208" y="16" width="16" height="16">
4364,4364,4364,4364,4364,4364,4364,4364,4364,4364,4364,4364,4364,4364,4364,8596,
4364,4364,4364,4364,4364,4364,4364,4364,4364,4364,4364,4364,4364,4364,4364,8596,
4364,4364,4364,4364,4364,4364,4364,4364,4364,4364,4364,4364,4364,4364,4364,8596,
4364,4364,4364,4364,4364,4364,4364,4364,4364,4364,4364,4364,4364,4364,4364,8596,
4364,4364,4364,3221234219,3221234217,3221234217,3221234217,3221234217,3221234217,3221234217,3221234217,3221234217,3221234217,3221234217,3221234217,8697,
4364,4364,4364,3221234170,3221234314,3221234314,3221234314,3221234314,3221234314,3221234314,3221234314,3221234314,3221234314,3221234314,3221234314,3221234314,
4364,4364,4364,3221234170,3221234314,3221234314,3221234314,3221234314,3221234314,3221234314,3221234314,3221234314,3221234314,3221234314,3221234314,3221234314,
4364,4364,4364,3221234170,3221234314,3221234314,3221234169,3221234021,3221234021,3221234021,3221234021,3221234021,3221234021,3221234021,3221234021,3221234167,
4364,4364,4364,3221234170,3221234314,3221234314,3221234166,3221229836,3221229836,3221229836,3221229836,3221229836,3221229836,3221229836,3221229836,3221234170,
4364,4364,4364,3221234170,3221234314,3221234314,3221234166,3221229836,3221229836,3221229836,3221229836,3221229836,3221229836,3221229836,3221229836,3221234170,
4364,4364,4364,3221234170,3221234314,3221234314,3221234166,3221229836,3221229836,3221229836,3221229836,3221229836,3221229836,3221229836,3221229836,3221234170,
4364,4364,4364,3221234170,3221234314,3221234314,3221234166,3221229836,3221229836,3221229836,3221229836,3221229836,3221229836,3221229836,3221229836,3221234170,
4364,4364,4364,3221234170,3221234314,3221234314,3221234166,3221229836,3221229836,3221229836,3221229836,3221229836,3221229836,3221229836,3221229836,3221234170,
4364,4364,4364,3221234170,3221234314,3221234314,3221234166,3221229836,3221229836,3221229836,3221229836,3221229836,3221229836,3221229836,3221229836,3221234170,
4364,4364,4364,3221234170,3221234314,3221234314,3221234166,3221229836,3221229836,3221229836,3221229836,3221229836,3221229836,3221229836,3221229836,3221234170,
4364,4364,4364,3221234170,3221234314,3221234314,3221234166,3221229836,3221229836,3221229836,3221229836,3221229836,3221229836,3221229836,3221229836,3221234170
</chunk>
      <chunk x="224" y="16" width="16" height="16">
8842,8842,8600,4364,4364,4364,4364,4364,4364,4364,4364,4364,4364,4364,4364,4364,
8842,8842,8600,4364,4364,4364,4364,4364,4364,4364,4364,4364,4364,4364,4364,4364,
8842,8842,8600,4364,4364,4364,4364,4364,4364,4364,4364,4364,4364,4364,4364,4364,
3221234314,3221234314,8600,4364,4364,4364,4364,4364,4364,4364,4364,4364,4364,4364,4364,4364,
3221234314,3221234314,8695,3221234217,3221234217,3221234217,3221234217,3221234217,3221234217,3221234217,3221234217,3221234216,3221234216,3221234216,3221234215,4364,
3221234314,3221234314,3221234314,3221234314,3221234314,3221234314,3221234314,3221234314,3221234314,3221234314,3221234314,3221234314,3221234314,3221234314,3221234166,4364,
3221234314,3221234314,3221234314,3221234314,3221234314,3221234314,3221234314,3221234314,3221234314,3221234314,3221234314,3221234314,3221234314,3221234314,3221234166,4364,
3221234314,3221234314,3221234169,3221234021,3221234021,3221234021,3221234021,3221234021,3221234021,3221234021,3221234021,3221234167,3221234314,3221234314,3221234166,4364,
3221234314,3221234314,3221234166,3221229836,3221229836,3221229836,3221229836,3221229836,3221229836,3221229836,3221229836,3221234170,3221234314,3221234314,3221234166,4364,
3221234314,3221234314,3221234166,3221229836,3221229836,3221229836,3221229836,3221229836,3221229836,3221229836,3221229836,3221234170,3221234314,3221234314,3221234166,4364,
3221234314,3221234314,3221234166,3221229836,3221229836,3221229836,3221229836,3221229836,3221229836,3221229836,3221229836,3221234170,3221234314,3221234314,3221234166,4364,
3221234314,3221234314,3221234166,3221229836,3221229836,3221229836,3221229836,3221229836,3221229836,3221229836,3221229836,3221234170,3221234314,3221234314,3221234166,4364,
3221234314,3221234314,3221234166,3221229836,3221229836,3221229836,3221229836,3221229836,3221229836,3221229836,3221229836,3221234170,3221234314,3221234314,3221234166,4364,
3221234314,3221234314,3221234166,3221229836,3221229836,3221229836,3221229836,3221229836,3221229836,3221229836,3221229836,3221234170,3221234314,3221234314,3221234166,4364,
3221234314,3221234314,3221234166,3221229836,3221229836,3221229836,3221229836,3221229836,3221229836,3221229836,3221229836,3221234170,3221234314,3221234314,3221234166,4364,
3221234314,3221234314,3221234166,3221229836,3221229836,3221229836,3221229836,3221229836,3221229836,3221229836,3221229836,3221234170,3221234314,3221234314,3221234166,4364
</chunk>
      <chunk x="240" y="16" width="16" height="16">
4364,4364,4364,4364,4364,4364,4364,4364,4364,4364,4364,4364,4364,4364,4364,4364,
4364,4364,4364,4364,4364,4364,4364,4364,4364,4364,4364,4364,4364,4364,4364,4364,
4364,4364,4364,4364,4364,4364,4364,4364,4364,4364,4364,4364,4364,4364,4364,4364,
4364,4364,4364,4364,4364,4364,4364,4364,4364,4364,4364,4364,4364,4364,4364,4364,
4364,4364,4364,4364,4364,4364,4364,4364,4364,4364,4364,4364,4364,4364,4364,4364,
4364,4364,4364,4364,4364,4364,4364,4364,4364,4364,4364,4364,4364,4364,4364,4364,
4364,4364,4364,4364,4364,4364,4364,4364,4364,4364,4364,4364,4364,4364,4364,4364,
4364,4364,4364,4364,4364,4364,4364,4364,4364,4364,4364,4364,4364,4364,4364,4364,
4364,4364,4364,4364,4364,4364,4364,4364,4364,4364,4364,4364,4364,4364,4364,4364,
4364,4364,4364,4364,4364,4364,4364,4364,4364,4364,4364,4364,4364,4364,4364,4364,
4364,4364,4364,4364,4364,4364,4364,4364,4364,4364,4364,4364,4364,4364,4364,4364,
4364,4364,4364,4364,4364,4364,4364,4364,4364,4364,4364,4364,4364,4364,4364,4364,
4364,4364,4364,4364,4364,4364,4364,4364,4364,4364,4364,4364,4364,4364,4364,4364,
4364,4364,4364,4364,4364,4364,4364,4364,4364,4364,4364,4364,4364,4364,4364,4364,
4364,4364,4364,4364,4364,4364,4364,4364,4364,4364,4364,4364,4364,4364,4364,4364,
4364,4364,4364,4364,4364,4364,4364,4364,4364,4364,4364,4364,4364,4364,4364,4364
</chunk>
      <chunk x="256" y="16" width="16" height="16">
4364,4364,4364,4364,4364,4364,4364,4364,4364,4364,4364,4364,4364,4364,4364,4364,
4364,4364,4364,4364,4364,4364,4364,4364,4364,4364,4364,4364,4364,4364,4364,4364,
4364,4364,4364,4364,4364,4364,4364,4364,4364,4364,4364,4364,4364,4364,4364,4364,
4364,4364,4364,4364,4364,4364,4364,4364,4364,4364,4364,4364,4364,4364,4364,4364,
4364,4364,4364,4364,4364,4364,4364,4364,4364,4364,4364,4364,4364,4364,4364,4364,
4364,4364,4364,4364,4364,4364,4364,4364,4364,4364,4364,4364,4364,4364,4364,4364,
4364,4364,4364,4364,4364,4364,4364,4364,4364,4364,4364,4364,4364,4364,4364,4364,
4364,4364,4364,4364,4364,4364,4364,4364,4364,4364,4364,4364,4364,4364,4364,4364,
4364,4364,4364,4364,4364,4364,4364,4364,4364,4364,4364,4364,4364,4364,4364,4364,
4364,4364,4364,4364,4364,4364,4364,4364,4364,4364,4364,4364,4364,4364,4364,4364,
4364,4364,4364,4364,4364,4364,4364,4364,4364,4364,4364,4364,4364,4364,4364,4364,
4364,4364,4364,4364,4364,4364,4364,4364,4364,4364,4364,4364,4364,4364,4364,4364,
4364,4364,4364,4364,4364,4364,4364,4364,4364,4364,4364,4364,4364,4364,4364,4364,
4364,4364,4364,4364,4364,4364,4364,4364,4364,4364,4364,4364,4364,4364,4364,4364,
4364,4364,4364,4364,4364,4364,4364,4364,4364,4364,4364,4364,4364,4364,4364,4364,
4364,4364,4364,4364,4364,4364,4364,4364,4364,4364,4364,4364,4364,4364,4364,4364
</chunk>
      <chunk x="272" y="16" width="16" height="16">
4364,4364,4364,4364,4364,4364,4364,4364,4364,4364,4364,4364,4364,4364,4364,4364,
4364,4364,4364,4364,4364,4364,4364,4364,4364,4364,4364,4364,4364,4364,4364,4364,
4364,4364,4364,4364,4364,4364,4364,4364,4364,4364,4364,4364,4364,4364,4364,4364,
4364,4364,4364,4364,4364,4364,4364,4364,4364,4364,4364,4364,4364,4364,4364,4364,
4364,4364,4364,4364,4364,4364,4364,4364,4364,4364,4364,4364,4364,4364,4364,4364,
4364,4364,4364,4364,4364,4364,4364,4364,4364,4364,4364,4364,4364,4364,4364,4364,
4364,4364,4364,4364,4364,4364,4364,4364,4364,4364,4364,4364,4364,4364,4364,4364,
4364,4364,4364,4364,4364,4364,4364,4364,4364,4364,4364,4364,4364,4364,4364,4364,
4364,4364,4364,4364,4364,4364,4364,4364,4364,4364,4364,4364,4364,4364,4364,4364,
4364,4364,4364,4364,4364,4364,4364,4364,4364,4364,4364,4364,4364,4364,4364,4364,
4364,4364,4364,4364,4364,4364,4364,4364,4364,4364,4364,4364,4364,4364,4364,4364,
4364,4364,4364,4364,4364,4364,4364,4364,4364,4364,4364,4364,4364,4364,4364,4364,
4364,4364,4364,4364,4364,4364,4364,4364,4364,4364,4364,4364,4364,4364,4364,4364,
4364,4364,4364,4364,4364,4364,4364,4364,4364,4364,4364,4364,4364,4364,4364,4364,
4364,4364,4364,4364,4364,4364,4364,4364,4364,4364,4364,4364,4364,4364,4364,4364,
4364,4364,4364,4364,4364,4364,4364,4364,4364,4364,4364,4364,4364,4364,4364,4364
</chunk>
      <chunk x="288" y="16" width="16" height="16">
4364,4171,6762,6763,6762,6763,6762,6763,6762,6763,6762,6763,6762,6763,6762,6763,
4364,4171,6778,6779,6778,6779,6778,6779,6778,6779,6778,6779,6778,6779,6778,6779,
4364,4171,6794,6795,6794,6795,6794,6795,6794,6795,6794,6795,6794,6795,6794,6795,
4364,4171,6762,6763,6762,6763,6762,6763,6762,6763,6762,6763,6762,6763,6762,6763,
4364,4171,6778,6779,6778,6779,6778,6779,6778,6779,6778,6779,6778,6779,6778,6779,
4364,4171,6794,6795,6794,6795,6794,6795,6794,6795,6794,6795,6794,6795,6794,6795,
4364,4171,6762,6763,6762,6763,6762,6763,6762,6763,6762,6763,6762,6763,6762,6763,
4364,4171,6778,6779,6778,6779,6778,6779,6778,6779,6778,6779,6778,6779,6778,6779,
4364,4171,6794,6795,6794,6795,6794,6795,6794,6795,6794,6795,6794,6795,6794,6795,
4364,4171,6762,6763,6762,6763,6762,6763,6762,6763,6762,6763,6762,6763,6762,6763,
4364,4171,6778,6779,6778,6779,6778,6779,6778,6779,6778,6779,6778,6779,6778,6779,
4364,4171,6794,6795,6794,6795,6794,6795,6794,6795,6794,6795,6794,6795,6794,6795,
4364,4171,6762,6763,6762,6763,6762,6763,6762,6763,6762,6763,6762,6763,6762,6763,
4364,4171,6778,6779,6778,6779,6778,6779,6778,6779,6778,6779,6778,6779,6778,6779,
4364,4171,6794,6795,6794,6795,6794,6795,6794,6795,6794,6795,6794,6795,6794,6795,
4364,4171,6762,6763,6762,6763,6762,6763,6762,6763,6762,6763,6762,6763,6762,6763
</chunk>
      <chunk x="304" y="16" width="16" height="16">
6762,6763,6762,6763,6762,6763,6762,6763,6762,6763,6762,6763,6762,6763,6762,6763,
6778,6779,6778,6779,6778,6779,6778,6779,6778,6779,6778,6779,6778,6779,6778,6779,
6794,6795,6794,6795,6794,6795,6794,6795,6794,6795,6794,6795,6794,6795,6794,6795,
6762,6763,6762,6763,6762,6763,6762,6763,6762,6763,6762,6763,6762,6763,6762,6763,
6778,6779,6778,6779,6778,6779,6778,6779,6778,6779,6778,6779,6778,6779,6778,6779,
6794,6795,6794,6795,6794,6795,6794,6795,6794,6795,6794,6795,6794,6795,6794,6795,
6762,6763,6762,6763,6762,6763,6762,6763,6762,6763,6762,6763,6762,6763,6762,6763,
6778,6779,6778,6779,6778,6779,6778,6779,6778,6779,6778,6779,6778,6779,6778,6779,
6794,6795,6794,6795,6794,6795,6794,6795,6794,6795,6794,6795,6794,6795,6794,6795,
6762,6763,6762,6763,6762,6763,6762,6763,6762,6763,6762,6763,6762,6763,6762,6763,
6778,6779,6778,6779,6778,6779,6778,6779,6778,6779,6778,6779,6778,6779,6778,6779,
6794,6795,6794,6795,6794,6795,6794,6795,6794,6795,6794,6795,6794,6795,6794,6795,
6762,6763,6762,6763,6762,6763,6762,6763,6762,6763,6762,6763,6762,6763,6762,6763,
6778,6779,6778,6779,6778,6779,6778,6779,6778,6779,6778,6779,6778,6779,6778,6779,
6794,6795,6794,6795,6794,6795,6794,6795,6794,6795,6794,6795,6794,6795,6794,6795,
6762,6763,6762,6763,6762,6763,6762,6763,6762,6763,6762,6763,6762,6763,6762,6763
</chunk>
      <chunk x="-16" y="32" width="16" height="16">
0,0,0,0,0,0,0,0,0,0,0,0,4909,4909,4909,4909,
0,0,0,0,0,0,0,0,0,0,0,0,4909,4909,4909,4909,
0,0,0,0,0,0,0,0,0,0,0,0,4909,4909,4909,4909,
0,0,0,0,0,0,0,0,0,0,0,0,4909,4909,4909,4909,
0,0,0,0,0,0,0,0,0,0,0,0,4909,4909,4909,4909,
0,0,0,0,0,0,0,0,0,0,0,0,4909,4909,4909,4909,
0,0,0,0,0,0,0,0,0,0,0,0,4909,4909,4909,4909,
0,0,0,0,0,0,0,0,0,0,0,0,4909,4909,4909,4909,
0,0,0,0,0,0,0,0,0,0,0,0,0,0,4909,4909,
0,0,0,0,0,0,0,0,0,0,0,0,0,0,4909,4909,
0,0,0,0,0,0,0,0,0,0,0,0,0,0,4909,4909,
0,0,0,0,0,0,0,0,0,0,0,0,0,0,4909,4909,
0,0,0,0,0,0,0,0,0,0,0,0,0,0,4909,4909,
0,0,0,0,0,0,0,0,0,0,0,0,0,0,4909,4909,
0,0,0,0,0,0,0,0,0,0,0,0,0,0,4909,4909,
0,0,0,0,0,0,0,0,0,0,0,0,0,0,4909,4909
</chunk>
      <chunk x="0" y="32" width="16" height="16">
6778,6779,6778,6779,6778,6779,6778,6779,6778,6779,6778,6779,6778,6779,6778,6779,
6794,6795,6794,6795,6794,6795,6794,6795,6794,6795,6794,6795,6794,6795,6794,6795,
6762,6763,6762,6763,6762,6763,6762,6763,6762,6763,6762,6763,6762,6763,6762,6763,
6778,6779,6778,6779,6778,6779,6778,6779,6778,6779,6778,6779,6778,6779,6778,6779,
6794,6795,6794,6795,6794,6795,6794,6795,6794,6795,6794,6795,6794,6795,6794,6795,
6762,6763,6762,6763,6762,6763,6762,6763,6762,6763,6762,6763,6762,6763,6762,6763,
6778,6779,6778,6779,6778,6779,6778,6779,6778,6779,6778,6779,6778,6779,6778,6779,
6794,6795,6794,6795,6794,6795,6794,6795,6794,6795,6794,6795,6794,6795,6794,6795,
6762,6763,6762,6763,6762,6763,6762,6763,6762,6763,6762,6763,6762,6763,6762,6763,
6778,6779,6778,6779,6778,6779,6778,6779,6778,6779,6778,6779,6778,6779,6778,6779,
6794,6795,6794,6795,6794,6795,6794,6795,6794,6795,6794,6795,6794,6795,6794,6795,
6762,6763,6762,6763,6762,6763,6762,6763,6762,6763,6762,6763,6762,6763,6762,6763,
6778,6779,6778,6779,6778,6779,6778,6779,6778,6779,6778,6779,6778,6779,6778,6779,
6794,6795,6794,6795,6794,6795,6794,6795,6794,6795,6794,6795,6794,6795,6794,6795,
6762,6763,6762,6763,6762,6763,6762,6763,6762,6763,6762,6763,6762,6763,6762,6763,
6778,6779,6778,6779,6778,6779,6778,6779,6778,6779,6778,6779,6778,6779,6778,6779
</chunk>
      <chunk x="16" y="32" width="16" height="16">
6778,6779,6778,6779,4167,4364,4364,4364,4364,4364,4364,4364,4364,4364,4364,4364,
6794,6795,6794,6795,4167,4364,4364,8375,8376,8376,8376,8377,4364,4364,8547,8549,
6762,6763,6762,6763,4167,4364,4364,8424,8375,8376,8377,8426,4364,4364,8694,8842,
6778,6779,6778,6779,4167,4364,4364,8424,8473,8474,8475,8426,4364,4364,8694,8842,
6794,6795,6794,6795,4167,4364,4364,8473,8474,8474,8474,8475,4364,4364,8743,8745,
6762,6763,6762,6763,4167,4364,4364,4364,4364,4364,4364,4364,4364,4364,4364,4364,
6778,6779,6778,6779,4167,4364,4364,4364,4364,4364,4364,4364,4364,4364,4364,4364,
6794,6795,6794,6795,4167,4364,4364,4364,4364,4364,4364,4364,4364,4364,4364,4364,
6762,6763,6762,6763,4167,4364,4364,4364,4364,4364,4364,4364,4364,4364,4364,4364,
6778,6779,6778,6779,4167,4364,4364,4364,4364,4364,4364,4364,4364,4364,4364,4364,
6794,6795,6794,6795,4167,4364,4364,4364,4364,4364,4364,4364,4364,4364,4364,4364,
6762,6763,6762,6763,4167,4364,4364,4364,4364,4364,4364,4364,4364,4364,4364,4364,
6778,6779,6778,6779,4167,4364,4364,4364,4364,4364,4364,4364,4364,4364,4364,4364,
6794,6795,6794,6795,4167,4364,4364,4364,4364,4364,4364,4364,4364,4364,4364,4364,
6762,6763,6762,6763,4167,4364,4364,4364,4364,4364,4364,4364,4364,4364,4364,4364,
6778,6779,6778,6779,4167,4364,4364,4364,4364,4364,4364,4364,4364,4364,4364,4364
</chunk>
      <chunk x="32" y="32" width="16" height="16">
4364,4364,4364,4364,4364,4364,4364,4364,4364,4364,4364,4364,4364,4364,4364,4364,
8549,8549,8549,8549,8549,8549,8549,8549,8549,8549,8549,8549,8549,8549,8549,8549,
8842,8842,8842,8842,8842,8842,8842,8842,8842,8842,8842,8842,8842,8842,8842,8842,
8842,8842,8842,8842,8842,8842,8842,8842,8842,8842,8842,8842,8842,8842,8842,8842,
8745,8745,8745,8745,8745,8745,8745,8745,8745,8745,8745,8745,8745,8745,8745,8745,
4364,4364,4364,4364,4364,4364,4364,4364,4364,4364,4364,4364,4364,4364,4364,4364,
4364,4364,4364,4364,4364,4364,4364,4364,4364,4364,4364,4364,4364,4364,4364,4364,
4364,4364,4364,4364,4364,4364,4364,4364,4364,4364,4364,4364,4364,4364,4364,4364,
4364,4364,4364,4364,4364,4364,4364,4364,4364,4364,4364,4364,4364,4364,4364,4364,
4364,4364,4364,4364,4364,4364,4364,4364,4364,4364,4364,4364,4364,4364,4364,4364,
4364,4364,4364,4364,4364,4364,4364,4364,4364,4364,4364,4364,4364,4364,4364,4364,
4364,4364,4364,4364,4364,4364,4364,4364,4364,4364,4364,4364,4364,4364,4364,4364,
4364,4364,4364,4364,4364,4364,4364,4364,4364,4364,4364,4364,4364,4364,4364,4364,
4364,4364,4364,4364,4364,4364,4364,4364,4364,4364,4364,4364,4364,4364,4364,4364,
4364,4364,4364,4364,4364,4364,4364,4364,4364,4364,4364,4364,4364,4364,4364,4364,
4364,4364,4364,4364,4364,4364,4364,4364,4364,4364,4364,4364,4364,4364,4364,4364
</chunk>
      <chunk x="48" y="32" width="16" height="16">
4364,4364,4364,4364,4364,4364,4364,4364,4364,4364,4364,4364,4364,4364,4364,4364,
8549,8549,8549,8549,8549,8549,8549,8549,8549,8549,8549,8549,8549,8549,8549,8549,
8842,8842,8842,8842,8842,8842,8842,8842,8842,8842,8842,8842,8842,8842,8842,8842,
8842,8842,8842,8842,8842,8842,8842,8842,8842,8842,8842,8842,8842,8842,8842,8842,
8745,8745,8745,8745,8745,8745,8745,8745,8745,8745,8745,8745,8745,8745,8745,8745,
4364,4364,4364,4364,4364,4364,4364,4364,4364,4364,4364,4364,4364,4364,4364,4364,
4364,4364,4364,4364,4364,4364,4364,4364,4364,4364,4364,4364,4364,4364,4364,4364,
4364,4364,4364,4364,4364,4364,4364,4364,4364,4364,4364,4364,4364,4364,4364,4364,
4364,4364,4364,4364,4364,4364,4364,4364,4364,4364,4364,4364,4364,4364,4364,4364,
4364,4364,4364,4364,4364,4364,4364,4364,4364,4364,4364,4364,4364,4364,4364,4364,
4364,4364,4364,4364,4364,4364,4364,4364,4364,4364,4364,4364,4364,4364,4364,4364,
4364,4364,4364,4364,4364,4364,4364,4364,4364,4364,4364,4364,4364,4364,4364,4364,
4364,4364,4364,4364,4364,4364,4364,4364,4364,4364,4364,4364,4364,4364,4364,4364,
4364,4364,4364,4364,4364,4364,4364,4364,4364,4364,4364,4364,4364,4364,4364,4364,
4364,4364,4364,4364,4364,4364,4364,4364,4364,4364,4364,4364,4364,4364,4364,4364,
4364,4364,4364,4364,4364,4364,4364,4364,4364,4364,4364,4364,4364,4364,4364,4364
</chunk>
      <chunk x="64" y="32" width="16" height="16">
4364,4364,4364,4364,4364,4364,4364,3221234170,3221234314,3221234314,3221234166,3221229836,3221229836,3221229836,3221229836,3221229836,
8549,8549,8549,8549,8549,8549,8549,3221234069,3221234314,3221234314,3221234071,3221234217,3221234217,3221234217,3221234217,3221234217,
8842,8842,8842,8842,8842,8842,8842,3221234314,3221234314,3221234314,3221234314,3221234314,3221234314,3221234314,3221234314,3221234314,
8842,8842,8842,8842,8842,8842,8842,3221234314,3221234314,3221234314,3221234314,3221234314,3221234314,3221234314,3221234314,3221234314,
8745,8745,8745,8745,8745,8745,8745,8599,3221234314,3221234314,8597,3221234021,3221234021,3221234021,3221234021,3221234021,
4364,4364,4364,4364,4364,4364,4364,8694,8842,8842,8698,4364,4364,4364,4364,4364,
4364,4364,4364,4364,4364,4364,4364,8694,8842,8842,8698,4364,4364,4364,4364,4364,
4364,4364,4364,4364,4364,4364,4364,8694,8842,8842,8698,4364,4364,4364,4364,4364,
4364,4364,4364,4364,4364,4364,4364,8694,8842,8842,8698,4364,4364,4364,4364,4364,
4364,4364,4364,4364,4364,4364,4364,8694,8842,8842,8698,4364,4364,4364,4364,4364,
4364,4364,4364,4364,4364,4364,4364,8694,8842,8842,8698,4364,4364,4364,4364,4364,
4364,4364,4364,4364,4364,4364,4364,8694,8842,8842,8698,4364,4364,4364,4364,4364,
4364,4364,4364,4364,4364,4364,4364,8694,8842,8842,8698,4364,4364,4364,4364,4364,
4364,4364,4364,4364,4364,4364,4364,8694,8842,8842,8698,4364,4364,4364,4364,4364,
4364,4364,4364,4364,4364,4364,4364,8694,8842,8842,8695,8549,8549,8549,8549,8549,
4364,4364,4364,4364,4364,4364,4364,8694,8842,8842,8842,8842,8842,8842,8842,8842
</chunk>
      <chunk x="80" y="32" width="16" height="16">
3221229836,3221229836,3221229836,3221234170,3221234314,3221234314,3221234166,3221229836,3221229836,3221229836,3221229836,3221229836,3221229836,3221229836,3221229836,3221234170,
3221234217,3221234217,3221234217,3221234069,3221234314,3221234314,3221234071,3221234217,3221234217,3221234217,3221234217,3221234217,3221234217,3221234217,3221234217,3221234069,
3221234314,3221234314,3221234314,3221234314,3221234314,3221234314,3221234314,3221234314,3221234314,3221234314,3221234314,3221234314,3221234314,3221234314,3221234314,3221234314,
3221234314,3221234314,3221234314,3221234314,3221234314,3221234314,3221234314,3221234314,3221234314,3221234314,3221234314,3221234314,3221234314,3221234314,3221234314,3221234314,
3221234021,3221234021,3221234021,3221234167,3221234314,3221234314,3221234169,3221234021,3221234021,3221234021,3221234021,3221234021,3221234021,3221234021,3221234021,8599,
4364,4364,4364,8694,8842,8842,8698,4364,4364,4364,4364,4364,4364,4364,4364,8694,
4364,4364,4364,8694,8842,8842,8698,4364,4364,4364,4364,4364,4364,4364,4364,8694,
4364,4364,4364,8694,8842,8842,8698,4364,4364,4364,4364,4364,4364,4364,4364,8694,
4364,4364,4364,8694,8842,8842,8698,4364,4364,4364,4364,4364,4364,4364,4364,8694,
4364,4364,4364,8694,8842,8842,8698,4364,4364,4364,4364,4364,4364,4364,4364,8694,
4364,4364,4364,8694,8842,8842,8698,4364,4364,4364,4364,4364,4364,4364,4364,8694,
4364,4364,4364,8694,8842,8842,8698,4364,4364,4364,4364,4364,4364,4364,4364,8694,
4364,4364,4364,8694,8842,8842,8698,4364,4364,4364,4364,4364,4364,4364,4364,8694,
4364,4364,4364,8694,8842,8842,8698,4364,4364,4364,4364,4364,4364,4364,4364,8694,
8549,8549,8549,8697,8842,8842,8695,8549,8549,8549,8549,8549,8549,8549,8549,8697,
8842,8842,8842,8842,8842,8842,8842,8842,8842,8842,8842,8842,8842,8842,8842,8842
</chunk>
      <chunk x="96" y="32" width="16" height="16">
3221234314,3221234314,3221234166,4364,4364,4364,4364,4364,4364,4364,4364,4364,4364,4364,4364,4364,
3221234314,3221234314,3221234071,8549,8549,8549,8549,8549,8549,8549,8549,8549,8549,8549,8549,8549,
3221234314,3221234314,3221234314,8842,8842,8842,8842,8842,8842,8842,8842,8842,8842,8842,8842,8842,
3221234314,3221234314,3221234314,8842,8842,8842,8842,8842,8842,8842,8842,8842,8842,8842,8842,8842,
3221234314,3221234314,8597,8745,8745,8745,8745,8745,8745,8745,8745,8745,8745,8745,8745,8745,
3221234314,3221234314,8698,4364,4364,4364,4364,4364,4364,4364,4364,4364,4364,4364,4364,4364,
8842,8842,8698,4364,4364,4364,4364,4364,4364,4364,4364,4364,4364,4364,4364,4364,
8842,8842,8698,4364,4364,4364,4364,4364,4364,4364,4364,4364,4364,4364,4364,4364,
8842,8842,8698,4364,4364,4364,4364,4364,4364,4364,4364,4364,4364,4364,4364,4364,
8842,8842,8698,4364,4364,4364,4364,4364,4364,4364,4364,4364,4364,4364,4364,4364,
8842,8842,8698,4364,4364,4364,4364,4364,4364,4364,4364,4364,4364,4364,4364,4364,
8842,8842,8698,4364,4364,4364,4364,4364,4364,4364,4364,4364,4364,4364,4364,4364,
8842,8842,8698,4364,4364,4364,4364,4364,4364,4364,4364,4364,4364,4364,4364,4364,
8842,8842,8698,4364,4364,4364,4364,4364,4364,4364,4364,4364,4364,4364,4364,4364,
8842,8842,8698,4364,4364,4364,4364,4364,4364,4364,4364,4364,4364,4364,4364,4364,
8842,8842,8698,4364,4364,4364,4364,4364,4364,4364,4364,4364,4364,4364,4364,4364
</chunk>
      <chunk x="112" y="32" width="16" height="16">
4364,4364,4364,4364,4364,4364,4364,4364,4364,4364,4364,4364,4364,4364,4364,4364,
8549,8549,8549,8549,8549,8549,8549,8549,8549,8549,8549,8549,8549,8549,8549,8549,
8842,8842,8842,8842,8842,8842,8842,8842,8842,8842,8842,8842,8842,8842,8842,8842,
8842,8842,8842,8842,8842,8842,8842,8842,8842,8842,8842,8842,8842,8842,8842,8842,
8745,8745,8745,8745,8745,8745,8745,8745,8745,8745,8745,8745,8745,8745,8745,8745,
4364,4364,4364,4364,4364,4364,4364,4364,4364,4364,4364,4364,4364,4364,4364,4364,
4364,4364,4364,4364,4364,4364,4364,4364,4364,4364,4364,4364,4364,4364,4364,4364,
4364,4364,4364,4364,4364,4364,4364,4364,4364,4364,4364,4364,4364,4364,4364,4364,
4364,4364,4364,4364,4364,4364,4364,4364,4364,4364,4364,4364,4364,4364,4364,4364,
4364,4364,4364,4364,4364,4364,4364,4364,4364,4364,4364,4364,4364,4364,4364,4364,
4364,4364,4364,4364,4364,4364,4364,4364,4364,4364,4364,4364,4364,4364,4364,4364,
4364,4364,4364,4364,4364,4364,4364,4364,4364,4364,4364,4364,4364,4364,4364,4364,
4364,4364,4364,4364,4364,4364,4364,4364,4364,4364,4364,4364,4364,4364,4364,4364,
4364,4364,4364,4364,4364,4364,4364,4364,4364,4364,4364,4364,4364,4364,4364,4364,
4364,4364,4364,4364,4364,4364,4364,4364,4364,4364,4364,4364,4364,4364,4364,4364,
4364,4364,4364,4364,4364,4364,4364,4364,4364,4364,4364,4364,4364,4364,4364,4364
</chunk>
      <chunk x="128" y="32" width="16" height="16">
4364,4364,4364,4364,4364,4364,4364,4364,4364,4364,4364,4364,4364,4364,4364,4364,
8549,8549,8549,8549,8549,8549,8549,8549,8549,8549,8549,8549,8549,8549,8549,8549,
8842,8842,8842,8842,8842,8842,8842,8842,8842,8842,8842,8842,8842,8842,8842,8842,
8842,8842,8842,8842,8842,8842,8842,8842,8842,8842,8842,8842,8842,8842,8842,8842,
8745,8745,8745,8745,8745,8745,8745,8745,8745,8745,8745,8745,8745,8745,8745,8745,
4364,4364,4364,4364,4364,4364,4364,4364,4364,4364,4364,4364,4364,4364,4364,4364,
4364,4364,4364,4364,4364,4364,4364,4364,4364,4364,4364,4364,4364,4364,4364,4364,
4364,4364,4364,4364,4364,4364,4364,4364,4364,4364,4364,4364,4364,4364,4364,4364,
4364,4364,4364,4364,4364,4364,4364,4364,4364,4364,4364,4364,4364,4364,4364,4364,
4364,4364,4364,4364,4364,4364,4364,4364,4364,4364,4364,4364,4364,4364,4364,4364,
4364,4364,4364,4364,4364,4364,4364,4364,4364,4364,4364,4364,4364,4364,4364,4364,
4364,4364,4364,4364,4364,4364,4364,4364,4364,4364,4364,4364,4364,4364,4364,4364,
4364,4364,4364,4364,4364,4364,4364,4364,4364,4364,4364,4364,4364,4364,4364,4364,
4364,4364,4364,4364,4364,4364,4364,4364,4364,4364,4364,4364,4364,4364,4364,4364,
4364,4364,4364,4364,4364,4364,4364,4364,4364,4364,4364,4364,4364,4364,4364,4364,
4364,4364,4364,4364,4364,4364,4364,4364,4364,4364,4364,4364,4364,4364,4364,4364
</chunk>
      <chunk x="144" y="32" width="16" height="16">
4364,4364,4364,4364,4364,4364,8694,8842,8842,8842,8842,8842,8842,8842,8842,8698,
8549,8549,8549,8549,8549,8549,8697,8842,8842,8597,8598,8598,8599,8842,8842,8695,
8842,8842,8842,8842,8842,8842,8842,8842,8842,8646,8647,8647,8648,8842,8842,8842,
8842,8842,8842,8842,8842,8842,8842,8842,8842,8646,8647,8647,8648,8842,8842,8842,
8745,8745,8745,8745,8745,8745,8599,8842,8842,8695,8696,8696,8697,8842,8842,8597,
4364,4364,4364,4364,4364,4364,8694,8842,8842,8842,8842,8842,8842,8842,8842,8698,
4364,4364,4364,4364,4364,4364,8694,8842,8842,8842,8842,8842,8842,8842,8842,8698,
4364,4364,4364,4364,4364,4364,8743,8744,8744,8599,8842,8842,8597,8744,8744,8747,
4364,4364,4364,4364,4364,4364,4364,4364,4364,8645,8842,8842,8649,4364,4364,4364,
4364,4364,4364,4364,4364,4364,4364,4364,4364,8694,8842,8842,8698,4364,4364,4364,
4364,4364,4364,4364,4364,4364,4364,4364,4364,8694,8842,8842,8698,4364,4364,4364,
4364,4364,4364,4364,4364,4364,4364,4364,4364,8694,8842,8842,8698,4364,4364,4364,
4364,4364,4364,4364,4364,4364,4364,4364,4364,8694,8842,8842,8698,4364,4364,4364,
4364,4364,4364,4364,4364,4364,4364,4364,4364,8694,8842,8842,8698,4364,4364,4364,
4364,4364,4364,4364,4364,4364,4364,4364,4364,8694,8842,8842,8698,4364,4364,4364,
4364,4364,4364,4364,4364,4364,4364,4364,4364,8694,8842,8842,8698,4364,4364,4364
</chunk>
      <chunk x="160" y="32" width="16" height="16">
4364,4364,4364,4364,4364,4364,4364,4364,4364,4364,4364,4364,4364,4364,4364,4364,
8549,8549,8549,8549,8549,8549,8549,8549,8549,8549,8549,8549,8549,8549,8549,8549,
8842,8842,8842,8842,8842,8842,8842,8842,8842,8842,8842,8842,8842,8842,8842,8842,
8842,8842,8842,8842,8842,8842,8842,8842,8842,8842,8842,8842,8842,8842,8842,8842,
8745,8745,8745,8745,8745,8745,8745,8745,8745,8745,8745,8745,8745,8745,8745,8745,
4364,4364,4364,4364,4364,4364,4364,4364,4364,4364,4364,4364,4364,4364,4364,4364,
4364,4364,4364,4364,4364,4364,4364,4364,4364,4364,4364,4364,4364,4364,4364,4364,
4364,4364,4364,4364,4364,4364,4364,4364,4364,4364,4364,4364,4364,4364,4364,4364,
4364,4364,4364,4364,4364,4364,4364,4364,4364,4364,4364,4364,4364,4364,4364,4364,
4364,4364,4364,4364,4364,4364,4364,4364,4364,4364,4364,4364,4364,4364,4364,4364,
4364,4364,4364,4364,4364,4364,4364,4364,4364,4364,4364,4364,4364,4364,4364,4364,
4364,4364,4364,4364,4364,4364,4364,4364,4364,4364,4364,4364,4364,4364,4364,4364,
4364,4364,4364,4364,4364,4364,4364,4364,4364,4364,4364,4364,4364,4364,4364,4364,
4364,4364,4364,4364,4364,4364,4364,4364,4364,4364,4364,4364,4364,4364,4364,4364,
4364,4364,4364,4364,4364,4364,4364,4364,4364,4364,4364,4364,4364,4364,4364,4364,
4364,4364,4364,4364,4364,4364,4364,4364,4364,4364,4364,4364,4364,4364,4364,4364
</chunk>
      <chunk x="176" y="32" width="16" height="16">
4364,4364,4364,4364,4364,4364,4364,4364,4364,4364,4364,4364,4364,4364,4364,4364,
8549,8549,8549,8549,8549,8549,8549,8549,8549,8549,8549,8549,8549,8549,8549,8549,
8842,8842,8842,8842,8842,8842,8842,8842,8842,8842,8842,8842,8842,8842,8842,8842,
8842,8842,8842,8842,8842,8842,8842,8842,8842,8842,8842,8842,8842,8842,8842,8842,
8745,8745,8745,8745,8745,8745,8745,8745,8745,8745,8745,8745,8745,8745,8745,8745,
4364,4364,4364,4364,4364,4364,4364,4364,4364,4364,4364,4364,4364,4364,4364,4364,
4364,4364,4364,4364,4364,4364,4364,4364,4364,4364,4364,4364,4364,4364,4364,4364,
4364,4364,4364,4364,4364,4364,4364,4364,4364,4364,4364,4364,4364,4364,4364,4364,
4364,4364,4364,4364,4364,4364,4364,4364,4364,4364,4364,4364,4364,4364,4364,4364,
4364,4364,4364,4364,4364,4364,4364,4364,4364,4364,4364,4364,4364,4364,4364,4364,
4364,4364,4364,4364,4364,4364,4364,4364,4364,4364,4364,4364,4364,4364,4364,4364,
4364,4364,4364,4364,4364,4364,4364,4364,4364,4364,4364,4364,4364,4364,4364,4364,
4364,4364,4364,4364,4364,4364,4364,4364,4364,4364,4364,4364,4364,4364,4364,4364,
4364,4364,4364,4364,4364,4364,4364,4364,4364,4364,4364,4364,4364,4364,4364,4364,
4364,4364,4364,4364,4364,4364,4364,4364,4364,4364,4364,4364,4364,4364,4364,4364,
4364,4364,4364,4364,4364,4364,4364,4364,4364,4364,4364,4364,4364,4364,4364,4364
</chunk>
      <chunk x="192" y="32" width="16" height="16">
4364,4364,4364,4364,4364,4364,4364,4364,4364,4364,4364,4364,4364,4364,4364,4364,
8549,8549,8549,8549,8549,8549,8549,8549,8549,8549,8549,8549,8549,8549,8549,8549,
8842,8842,8842,8842,8842,8842,8842,8842,8842,8842,8842,8842,8842,8842,8842,8842,
8842,8842,8842,8842,8842,8842,8842,8842,8842,8842,8842,8842,8842,8842,8842,8842,
8745,8745,8745,8745,8745,8745,8745,8745,8745,8745,8745,8745,8745,8745,8745,8745,
4364,4364,4364,4364,4364,4364,4364,4364,4364,4364,4364,4364,4364,4364,4364,4364,
4364,4364,4364,4364,4364,4364,4364,4364,4364,4364,4364,4364,4364,4364,4364,4364,
4364,4364,4364,4364,4364,4364,4364,4364,4364,4364,4364,4364,4364,4364,4364,4364,
4364,4364,4364,4364,4364,4364,4364,4364,4364,4364,4364,4364,4364,4364,4364,4364,
4364,4364,4364,4364,4364,4364,4364,4364,4364,4364,4364,4364,4364,4364,4364,4364,
4364,4364,4364,4364,4364,4364,4364,4364,4364,4364,4364,4364,4364,4364,4364,4364,
4364,4364,4364,4364,4364,4364,4364,4364,4364,4364,4364,4364,4364,4364,4364,4364,
4364,4364,4364,4364,4364,4364,4364,4364,4364,4364,4364,4364,4364,4364,4364,4364,
4364,4364,4364,4364,4364,4364,4364,4364,4364,4364,4364,4364,4364,4364,4364,4364,
4364,4364,4364,4364,4364,4364,4364,4364,4364,4364,4364,4364,4364,4364,4364,4364,
4364,4364,4364,4364,4364,4364,4364,4364,4364,4364,4364,4364,4364,4364,4364,4364
</chunk>
      <chunk x="208" y="32" width="16" height="16">
4364,4364,4364,3221234170,3221234314,3221234314,3221234166,3221229836,3221229836,3221229836,3221229836,3221229836,3221229836,3221229836,3221229836,3221234170,
8549,8549,8549,3221234069,3221234314,3221234314,3221234071,3221234217,3221234217,3221234217,3221234217,3221234217,3221234217,3221234217,3221234217,3221234069,
8842,8842,8842,3221234314,3221234314,3221234314,3221234314,3221234314,3221234314,3221234314,3221234314,3221234314,3221234314,3221234314,3221234314,3221234314,
8842,8842,8842,3221234314,3221234314,3221234314,3221234314,3221234314,3221234314,3221234314,3221234314,3221234314,3221234314,3221234314,3221234314,3221234314,
8745,8745,8745,8599,3221234314,3221234314,8597,3221234021,3221234021,3221234021,3221234021,3221234021,3221234021,3221234021,3221234021,3221234167,
4364,4364,4364,8694,8842,8842,8698,4364,4364,4364,4364,4364,4364,4364,4364,8694,
4364,4364,4364,8694,8842,8842,8698,4364,4364,4364,4364,4364,4364,4364,4364,8694,
4364,4364,4364,8694,8842,8842,8698,4364,4364,4364,4364,4364,4364,4364,4364,8694,
4364,4364,4364,8694,8842,8842,8698,4364,4364,4364,4364,4364,4364,4364,4364,8694,
4364,4364,4364,8694,8842,8842,8698,4364,4364,4364,4364,4364,4364,4364,4364,8694,
4364,4364,4364,8694,8842,8842,8698,4364,4364,4364,4364,4364,4364,4364,4364,8694,
4364,4364,4364,8694,8842,8842,8698,4364,4364,4364,4364,4364,4364,4364,4364,8694,
4364,4364,4364,8694,8842,8842,8698,4364,4364,4364,4364,4364,4364,4364,4364,8694,
4364,4364,4364,8694,8842,8842,8698,4364,4364,4364,4364,4364,4364,4364,4364,8694,
4364,4364,4364,8694,8842,8842,8695,8549,8549,8549,8549,8549,8549,8549,8549,8697,
4364,4364,4364,8694,8842,8842,8842,8842,8842,8842,8842,8842,8842,8842,8842,8842
</chunk>
      <chunk x="224" y="32" width="16" height="16">
3221234314,3221234314,3221234166,3221229836,3221229836,3221229836,3221229836,3221229836,3221229836,3221229836,3221229836,3221234170,3221234314,3221234314,3221234166,4364,
3221234314,3221234314,3221234071,3221234217,3221234217,3221234217,3221234217,3221234217,3221234217,3221234217,3221234217,3221234069,3221234314,3221234314,3221234071,8549,
3221234314,3221234314,3221234314,3221234314,3221234314,3221234314,3221234314,3221234314,3221234314,3221234314,3221234314,3221234314,3221234314,3221234314,3221234314,8842,
3221234314,3221234314,3221234314,3221234314,3221234314,3221234314,3221234314,3221234314,3221234314,3221234314,3221234314,3221234314,3221234314,3221234314,3221234314,8842,
3221234314,3221234314,3221234169,3221234021,3221234021,3221234021,3221234021,3221234021,3221234021,3221234021,3221234021,8599,3221234314,3221234314,8597,8745,
8842,8842,8698,4364,4364,4364,4364,4364,4364,4364,4364,8694,3221234314,3221234314,8698,4364,
8842,8842,8698,4364,4364,4364,4364,4364,4364,4364,4364,8694,8842,8842,8698,4364,
8842,8842,8698,4364,4364,4364,4364,4364,4364,4364,4364,8694,8842,8842,8698,4364,
8842,8842,8698,4364,4364,4364,4364,4364,4364,4364,4364,8694,8842,8842,8698,4364,
8842,8842,8698,4364,4364,4364,4364,4364,4364,4364,4364,8694,8842,8842,8698,4364,
8842,8842,8698,4364,4364,4364,4364,4364,4364,4364,4364,8694,8842,8842,8698,4364,
8842,8842,8698,4364,4364,4364,4364,4364,4364,4364,4364,8694,8842,8842,8698,4364,
8842,8842,8698,4364,4364,4364,4364,4364,4364,4364,4364,8694,8842,8842,8698,4364,
8842,8842,8698,4364,4364,4364,4364,4364,4364,4364,4364,8694,8842,8842,8698,4364,
8842,8842,8695,8549,8549,8549,8549,8549,8549,8549,8549,8697,8842,8842,8698,4364,
8842,8842,8842,8842,8842,8842,8842,8842,8842,8842,8842,8842,8842,8842,8698,4364
</chunk>
      <chunk x="240" y="32" width="16" height="16">
4364,4364,4364,4364,4364,4364,4364,4364,4364,4364,4364,4364,4364,4364,4364,4364,
8549,8549,8549,8549,8549,8549,8549,8549,8549,8549,8549,8549,8549,8549,8549,8549,
8842,8842,8842,8842,8842,8842,8842,8842,8842,8842,8842,8842,8842,8842,8842,8842,
8842,8842,8842,8842,8842,8842,8842,8842,8842,8842,8842,8842,8842,8842,8842,8842,
8745,8745,8745,8745,8745,8745,8745,8745,8745,8745,8745,8745,8745,8745,8745,8745,
4364,4364,4364,4364,4364,4364,4364,4364,4364,4364,4364,4364,4364,4364,4364,4364,
4364,4364,4364,4364,4364,4364,4364,4364,4364,4364,4364,4364,4364,4364,4364,4364,
4364,4364,4364,4364,4364,4364,4364,4364,4364,4364,4364,4364,4364,4364,4364,4364,
4364,4364,4364,4364,4364,4364,4364,4364,4364,4364,4364,4364,4364,4364,4364,4364,
4364,4364,4364,4364,4364,4364,4364,4364,4364,4364,4364,4364,4364,4364,4364,4364,
4364,4364,4364,4364,4364,4364,4364,4364,4364,4364,4364,4364,4364,4364,4364,4364,
4364,4364,4364,4364,4364,4364,4364,4364,4364,4364,4364,4364,4364,4364,4364,4364,
4364,4364,4364,4364,4364,4364,4364,4364,4364,4364,4364,4364,4364,4364,4364,4364,
4364,4364,4364,4364,4364,4364,4364,4364,4364,4364,4364,4364,4364,4364,4364,4364,
4364,4364,4364,4364,4364,4364,4364,4364,4364,4364,4364,4364,4364,4364,4364,4364,
4364,4364,4364,4364,4364,4364,4364,4364,4364,4364,4364,4364,4364,4364,4364,4364
</chunk>
      <chunk x="256" y="32" width="16" height="16">
4364,4364,4364,4364,4364,4364,4364,4364,4364,4364,4364,4364,4364,4364,4364,4364,
8549,8549,8549,8549,8549,8549,8549,8549,8549,8549,8549,8549,8549,8549,8549,8549,
8842,8842,8842,8842,8842,8842,8842,8842,8842,8842,8842,8842,8842,8842,8842,8842,
8842,8842,8842,8842,8842,8842,8842,8842,8842,8842,8842,8842,8842,8842,8842,8842,
8745,8745,8745,8745,8745,8745,8745,8745,8745,8745,8745,8745,8745,8745,8745,8745,
4364,4364,4364,4364,4364,4364,4364,4364,4364,4364,4364,4364,4364,4364,4364,4364,
4364,4364,4364,4364,4364,4364,4364,4364,4364,4364,4364,4364,4364,4364,4364,4364,
4364,4364,4364,4364,4364,4364,4364,4364,4364,4364,4364,4364,4364,4364,4364,4364,
4364,4364,4364,4364,4364,4364,4364,4364,4364,4364,4364,4364,4364,4364,4364,4364,
4364,4364,4364,4364,4364,4364,4364,4364,4364,4364,4364,4364,4364,4364,4364,4364,
4364,4364,4364,4364,4364,4364,4364,4364,4364,4364,4364,4364,4364,4364,4364,4364,
4364,4364,4364,4364,4364,4364,4364,4364,4364,4364,4364,4364,4364,4364,4364,4364,
4364,4364,4364,4364,4364,4364,4364,4364,4364,4364,4364,4364,4364,4364,4364,4364,
4364,4364,4364,4364,4364,4364,4364,4364,4364,4364,4364,4364,4364,4364,4364,4364,
4364,4364,4364,4364,4364,4364,4364,4364,4364,4364,4364,4364,4364,4364,4364,4364,
4364,4364,4364,4364,4364,4364,4364,4364,4364,4364,4364,4364,4364,4364,4364,4364
</chunk>
      <chunk x="272" y="32" width="16" height="16">
4364,4364,4364,4364,4364,4364,4364,4364,4364,4364,4364,4364,4364,4364,4364,4364,
8549,8549,8549,8549,8549,8549,8549,8551,4364,4364,8375,8376,8376,8376,8377,4364,
8842,8842,8842,8842,8842,8842,8842,8649,4364,4364,8424,8375,8376,8377,8426,4364,
8842,8842,8842,8842,8842,8842,8842,8649,4364,4364,8424,8473,8474,8475,8426,4364,
8745,8745,8745,8745,8745,8745,8745,8747,4364,4364,8473,8474,8474,8474,8475,4364,
4364,4364,4364,4364,4364,4364,4364,4364,4364,4364,4364,4364,4364,4364,4364,4364,
4364,4364,4364,4364,4364,4364,4364,4364,4364,4364,4364,4364,4364,4364,4364,4364,
4364,4364,4364,4364,4364,4364,4364,4364,4364,4364,4364,4364,4364,4364,4364,4364,
4364,4364,4364,4364,4364,4364,4364,4364,4364,4364,4364,4364,4364,4364,4364,4364,
4364,4364,4364,4364,4364,4364,4364,4364,4364,4364,4364,4364,4364,4364,4364,4364,
4364,4364,4364,4364,4364,4364,4364,4364,4364,4364,4364,4364,4364,4364,4364,4364,
4364,4364,4364,4364,4364,4364,4364,4364,4364,4364,4364,4364,4364,4364,4364,4364,
4364,4364,4364,4364,4364,4364,4364,4364,4364,4364,4364,4364,4364,4364,4364,4364,
4364,4364,4364,4364,4364,4364,4364,4364,4364,4364,4364,4364,4364,4364,4364,4364,
4364,4364,4364,4364,4364,4364,4364,4364,4364,4364,4364,4364,4364,4364,4364,4364,
4364,4364,4364,4364,4364,4364,4364,4364,4364,4364,4364,4364,4364,4364,4364,4364
</chunk>
      <chunk x="288" y="32" width="16" height="16">
4364,4171,6778,6779,6778,6779,6778,6779,6778,6779,6778,6779,6778,6779,6778,6779,
4364,4171,6794,6795,6794,6795,6794,6795,6794,6795,6794,6795,6794,6795,6794,6795,
4364,4171,6762,6763,6762,6763,6762,6763,6762,6763,6762,6763,6762,6763,6762,6763,
4364,4171,6778,6779,6778,6779,6778,6779,6778,6779,6778,6779,6778,6779,6778,6779,
4364,4171,6794,6795,6794,6795,6794,6795,6794,6795,6794,6795,6794,6795,6794,6795,
4364,4171,6762,6763,6762,6763,6762,6763,6762,6763,6762,6763,6762,6763,6762,6763,
4364,4171,6778,6779,6778,6779,6778,6779,6778,6779,6778,6779,6778,6779,6778,6779,
4364,4171,6794,6795,6794,6795,6794,6795,6794,6795,6794,6795,6794,6795,6794,6795,
4364,4171,6762,6763,6762,6763,6762,6763,6762,6763,6762,6763,6762,6763,6762,6763,
4364,4171,6778,6779,6778,6779,6778,6779,6778,6779,6778,6779,6778,6779,6778,6779,
4364,4171,6794,6795,6794,6795,6794,6795,6794,6795,6794,6795,6794,6795,6794,6795,
4364,4171,6762,6763,6762,6763,6762,6763,6762,6763,6762,6763,6762,6763,6762,6763,
4364,4171,6778,6779,6778,6779,6778,6779,6778,6779,6778,6779,6778,6779,6778,6779,
4364,4171,6794,6795,6794,6795,6794,6795,6794,6795,6794,6795,6794,6795,6794,6795,
4364,4171,6762,6763,6762,6763,6762,6763,6762,6763,6762,6763,6762,6763,6762,6763,
4364,4171,6778,6779,6778,6779,6778,6779,6778,6779,6778,6779,6778,6779,6778,6779
</chunk>
      <chunk x="304" y="32" width="16" height="16">
6778,6779,6778,6779,6778,6779,6778,6779,6778,6779,6778,6779,6778,6779,6778,6779,
6794,6795,6794,6795,6794,6795,6794,6795,6794,6795,6794,6795,6794,6795,6794,6795,
6762,6763,6762,6763,6762,6763,6762,6763,6762,6763,6762,6763,6762,6763,6762,6763,
6778,6779,6778,6779,6778,6779,6778,6779,6778,6779,6778,6779,6778,6779,6778,6779,
6794,6795,6794,6795,6794,6795,6794,6795,6794,6795,6794,6795,6794,6795,6794,6795,
6762,6763,6762,6763,6762,6763,6762,6763,6762,6763,6762,6763,6762,6763,6762,6763,
6778,6779,6778,6779,6778,6779,6778,6779,6778,6779,6778,6779,6778,6779,6778,6779,
6794,6795,6794,6795,6794,6795,6794,6795,6794,6795,6794,6795,6794,6795,6794,6795,
6762,6763,6762,6763,6762,6763,6762,6763,6762,6763,6762,6763,6762,6763,6762,6763,
6778,6779,6778,6779,6778,6779,6778,6779,6778,6779,6778,6779,6778,6779,6778,6779,
6794,6795,6794,6795,6794,6795,6794,6795,6794,6795,6794,6795,6794,6795,6794,6795,
6762,6763,6762,6763,6762,6763,6762,6763,6762,6763,6762,6763,6762,6763,6762,6763,
6778,6779,6778,6779,6778,6779,6778,6779,6778,6779,6778,6779,6778,6779,6778,6779,
6794,6795,6794,6795,6794,6795,6794,6795,6794,6795,6794,6795,6794,6795,6794,6795,
6762,6763,6762,6763,6762,6763,6762,6763,6762,6763,6762,6763,6762,6763,6762,6763,
6778,6779,6778,6779,6778,6779,6778,6779,6778,6779,6778,6779,6778,6779,6778,6779
</chunk>
      <chunk x="-16" y="48" width="16" height="16">
0,0,0,0,0,0,0,0,0,0,0,0,0,0,4909,4909,
0,0,0,0,0,0,0,0,0,0,0,0,0,0,4909,4909,
0,0,0,0,0,0,0,0,0,0,0,0,0,0,4909,4909,
0,0,0,0,0,0,0,0,0,0,0,0,0,0,4909,4909,
0,0,0,0,0,0,0,0,0,0,0,0,0,0,4909,4909,
0,0,0,0,0,0,0,0,0,0,0,0,0,0,0,0,
0,0,0,0,0,0,0,0,0,0,0,0,0,0,0,0,
0,0,0,0,0,0,0,0,0,0,0,0,0,0,0,0,
0,0,0,0,0,0,0,0,0,0,0,0,0,0,0,0,
0,0,0,0,0,0,0,0,0,0,0,0,0,0,0,0,
0,0,0,0,0,0,0,0,0,0,0,0,0,0,0,0,
0,0,0,0,0,0,0,0,0,0,0,0,0,0,0,0,
0,0,0,0,0,0,0,0,0,0,0,0,0,0,0,0,
0,0,0,0,0,0,0,0,0,0,0,0,0,0,0,0,
0,0,0,0,0,0,0,0,0,0,0,0,0,0,0,0,
0,0,0,0,0,0,0,0,0,0,0,0,0,0,0,0
</chunk>
      <chunk x="0" y="48" width="16" height="16">
6794,6795,6794,6795,6794,6795,6794,6795,6794,6795,6794,6795,6794,6795,6794,6795,
6762,6763,6762,6763,6762,6763,6762,6763,6762,6763,6762,6763,6762,6763,6762,6763,
6778,6779,6778,6779,6778,6779,6778,6779,6778,6779,6778,6779,6778,6779,6778,6779,
6794,6795,6794,6795,6794,6795,6794,6795,6794,6795,6794,6795,6794,6795,6794,6795,
6762,6763,6762,6763,6762,6763,6762,6763,6762,6763,6762,6763,6762,6763,6762,6763,
6778,6779,6778,6779,6778,6779,6778,6779,6778,6779,6778,6779,6778,6779,6778,6779,
6794,6795,6794,6795,6794,6795,6794,6795,6794,6795,6794,6795,6794,6795,6794,6795,
6762,6763,6762,6763,6762,6763,6762,6763,6762,6763,6762,6763,6762,6763,6762,6763,
6778,6779,6778,6779,6778,6779,6778,6779,6778,6779,6778,6779,6778,6779,6778,6779,
6794,6795,6794,6795,6794,6795,6794,6795,6794,6795,6794,6795,6794,6795,6794,6795,
6762,6763,6762,6763,6762,6763,6762,6763,6762,6763,6762,6763,6762,6763,6762,6763,
6778,6779,6778,6779,6778,6779,6778,6779,6778,6779,6778,6779,6778,6779,6778,6779,
6794,6795,6794,6795,6794,6795,6794,6795,6794,6795,6794,6795,6794,6795,6794,6795,
6762,6763,6762,6763,6762,6763,6762,6763,6762,6763,6762,6763,6762,6763,6762,6763,
6778,6779,6778,6779,6778,6779,6778,6779,6778,6779,6778,6779,6778,6779,6778,6779,
6794,6795,6794,6795,6794,6795,6794,6795,6794,6795,6794,6795,6794,6795,6794,6795
</chunk>
      <chunk x="16" y="48" width="16" height="16">
6794,6795,6794,6795,4167,4364,4364,4364,4364,4364,4364,4364,4364,4364,4364,4364,
6762,6763,6762,6763,4167,4364,4364,4364,4364,4364,4364,4364,4364,4364,4364,4364,
6778,6779,6778,6779,4167,4364,4364,4364,4364,4364,4364,4364,4364,4364,4364,4364,
6794,6795,6794,6795,4167,4364,4364,4364,4364,4364,4364,4364,4364,4364,4364,4364,
6762,6763,6762,6763,4167,4364,4364,4364,4364,4364,4364,4364,4364,4364,4364,4364,
6778,6779,6778,6779,4167,4364,4364,4364,4364,4364,4364,4364,4364,4364,4364,4364,
6794,6795,6794,6795,4167,4364,4364,4364,4364,4364,4364,4364,4364,4364,4364,4364,
6762,6763,6762,6763,4167,4364,4364,4364,4364,4364,4364,4364,4364,4364,4364,4364,
6778,6779,6778,6779,4167,4364,4364,4364,4364,4364,4364,4364,4364,4364,4364,4364,
6794,6795,6794,6795,4167,4364,4364,4364,4364,4364,4364,4364,4364,4364,4364,4364,
6762,6763,6762,6763,4167,4364,4364,4364,4364,4364,4364,4364,4364,4364,4364,4364,
6778,6779,6778,6779,4167,4364,4364,4364,4364,4364,4364,4364,4364,4364,4364,4364,
6794,6795,6794,6795,4167,4364,4364,4364,4364,4364,4364,4364,4364,4364,4364,4364,
6762,6763,6762,6763,4167,4364,4364,4364,4364,4364,4364,4364,4364,4364,4364,4364,
6778,6779,6778,6779,4167,4364,4364,4364,4364,4364,4364,4364,4364,4364,4364,4364,
6794,6795,6794,6795,4167,4364,4364,4364,4364,4364,4364,4364,4364,4364,4364,4364
</chunk>
      <chunk x="32" y="48" width="16" height="16">
4364,4364,4364,4364,4364,4364,4364,4364,4364,4364,4364,4364,4364,4364,4364,4364,
4364,4364,4364,4364,4364,4364,4364,4364,4364,4364,4364,4364,4364,4364,4364,4364,
4364,4364,4364,4364,4364,4364,4364,4364,4364,4364,4364,4364,4364,4364,4364,4364,
4364,4364,4364,4364,4364,4364,4364,4364,4364,4364,4364,4364,4364,4364,4364,4364,
4364,4364,4364,4364,4364,4364,4364,4364,4364,4364,4364,4364,4364,4364,4364,4364,
4364,4364,4364,4364,4364,4364,4364,4364,4364,4364,4364,4364,4364,4364,4364,4364,
4364,4364,4364,4364,4364,4364,4364,4364,4364,4364,4364,4364,4364,4364,4364,4364,
4364,4364,4364,4364,4364,4364,4364,4364,4364,4364,4364,4364,4364,4364,4364,4364,
4364,4364,4364,4364,4364,4364,4364,4364,4364,4364,4364,4364,4364,4364,4364,4364,
4364,4364,4364,4364,4364,4364,4364,4364,4364,4364,4364,4364,4364,4364,4364,4364,
4364,4364,4364,4364,4364,4364,4364,4364,4364,4364,4364,4364,4364,4364,4364,4364,
4364,4364,4364,4364,4364,4364,4364,4364,4364,4364,4364,4364,4364,4364,4364,4364,
4364,4364,4364,4364,4364,4364,4364,4364,4364,4364,4364,4364,4364,4364,4364,4364,
4364,4364,4364,4364,4364,4364,4364,4364,4364,4364,4364,4364,4364,4364,4364,4364,
4364,4364,4364,4364,4364,4364,4364,4364,4364,4364,4364,4364,4364,4364,4364,4364,
4364,4364,4364,4364,4364,4364,4364,4364,4364,4364,4364,4364,4364,4364,4364,4364
</chunk>
      <chunk x="48" y="48" width="16" height="16">
4364,4364,4364,4364,4364,4364,4364,4364,4364,4364,4364,4364,4364,4364,4364,4364,
4364,4364,4364,4364,4364,4364,4364,4364,4364,4364,4364,4364,4364,4364,4364,4364,
4364,4364,4364,4364,4364,4364,4364,4364,4364,4364,4364,4364,4364,4364,4364,4364,
4364,4364,4364,4364,4364,4364,4364,4364,4364,4364,4364,4364,4364,4364,4364,4364,
4364,4364,4364,4364,4364,4364,4364,4364,4364,4364,4364,4364,4364,4364,4364,4364,
4364,4364,4364,4364,4364,4364,4364,4364,4364,4364,4364,4364,4364,4364,4364,4364,
4364,4364,4364,4364,4364,4364,4364,4364,4364,4364,4364,4364,4364,4364,4364,4364,
4364,4364,4364,4364,4364,4364,4364,4364,4364,4364,4364,4364,4364,4364,4364,4364,
4364,4364,4364,4364,4364,4364,4364,4364,4364,4364,4364,4364,4364,4364,4364,4364,
4364,4364,4364,4364,4364,4364,4364,4364,4364,4364,4364,4364,4364,4364,4364,4364,
4364,4364,4364,4364,4364,4364,4364,4364,4364,4364,4364,4364,4364,4364,4364,4364,
4364,4364,4364,4364,4364,4364,4364,4364,4364,4364,4364,4364,4364,4364,4364,4364,
4364,4364,4364,4364,4364,4364,4364,4364,4364,4364,4364,4364,4364,4364,4364,4364,
4364,4364,4364,4364,4364,4364,4364,4364,4364,4364,4364,4364,4364,4364,4364,4364,
4364,4364,4364,4364,4364,4364,4364,4364,4364,4364,4364,4364,4364,4364,4364,4364,
4364,4364,4364,4364,4364,4364,4364,4364,4364,4364,4364,4364,4364,4364,4364,4364
</chunk>
      <chunk x="64" y="48" width="16" height="16">
4364,4364,4364,4364,4364,4364,4364,8694,8842,8842,8842,8842,8842,8842,8842,8842,
4364,4364,4364,4364,4364,4364,4364,8743,8744,8744,8744,8745,8745,8745,8745,8745,
4364,4364,4364,4364,4364,4364,4364,4364,4364,4364,4364,4364,4364,4364,4364,4364,
4364,4364,4364,4364,4364,4364,4364,4364,4364,4364,4364,4364,4364,4364,4364,4364,
4364,4364,4364,4364,4364,4364,4364,4364,4364,4364,4364,4364,4364,4364,4364,4364,
4364,4364,4364,4364,4364,4364,4364,4364,4364,4364,4364,4364,4364,4364,4364,4364,
4364,4364,4364,4364,4364,4364,4364,4364,4364,4364,4364,4364,4364,4364,4364,4364,
4364,4364,4364,4364,4364,4364,4364,4364,4364,4364,4364,4364,4364,4364,4364,4364,
4364,4364,4364,4364,4364,4364,4364,4364,4364,4364,4364,4364,4364,4364,4364,4364,
4364,4364,4364,4364,4364,4364,4364,4364,4364,4364,4364,4364,4364,4364,4364,4364,
4364,4364,4364,4364,4364,4364,4364,4364,4364,4364,4364,4364,4364,4364,4364,4364,
4364,4364,4364,4364,4364,4364,4364,4364,4364,4364,4364,4364,4364,4364,4364,4364,
4364,4364,4364,4364,4364,4364,4364,4364,4364,4364,4364,4364,4364,4364,4364,4364,
4364,4364,4364,4364,4364,4364,4364,4364,4364,4364,4364,4364,4364,4364,4364,4364,
4364,4364,4364,4364,4364,4364,4364,4364,4364,4364,4364,4364,4364,4364,4364,4364,
4364,4364,4364,4364,4364,4364,4364,4364,4364,4364,4364,4364,4364,4364,4364,4364
</chunk>
      <chunk x="80" y="48" width="16" height="16">
8842,8842,8842,8842,8842,8842,8842,8842,8842,8842,8842,8842,8842,8842,8842,8842,
8745,8745,8745,8745,8745,8745,8745,8745,8745,8745,8745,8745,8745,8745,8745,8745,
4364,4364,4364,4364,4364,4364,4364,4364,4364,4364,4364,4364,4364,4364,4364,4364,
4364,4364,4364,4364,4364,4364,4364,4364,4364,4364,4364,4364,4364,4364,4364,4364,
4364,4364,4364,4364,4364,4364,4364,4364,4364,4364,4364,4364,4364,4364,4364,4364,
4364,4364,4364,4364,4364,4364,4364,4364,4364,4364,4364,4364,4364,4364,4364,4364,
4364,4364,4364,4364,4364,4364,4364,4364,4364,4364,4364,4364,4364,4364,4364,4364,
4364,4364,4364,4364,4364,4364,4364,4364,4364,4364,4364,4364,4364,4364,4364,4364,
4364,4364,4364,4364,4364,4364,4364,4364,4364,4364,4364,4364,4364,4364,4364,4364,
4364,4364,4364,4364,4364,4364,4364,4364,4364,4364,4364,4364,4364,4364,4364,4364,
4364,4364,4364,4364,4364,4364,4364,4364,4364,4364,4364,4364,4364,4364,4364,4364,
4364,4364,4364,4364,4364,4364,4364,4364,4364,4364,4364,4364,4364,4364,4364,4364,
4364,4364,4364,4364,4364,4364,4364,4364,4364,4364,4364,4364,4364,4364,4364,4364,
4364,4364,4364,4364,4364,4364,4364,4364,4364,4364,4364,4364,4364,4364,4364,4364,
4364,4364,4364,4364,4364,4364,4364,4364,4364,4364,4364,4364,4364,4364,4364,4364,
4364,4364,4364,4364,4364,4364,4364,4364,4364,4364,4364,4364,4364,4364,4364,4364
</chunk>
      <chunk x="96" y="48" width="16" height="16">
8842,8842,8698,4364,4364,4364,4364,4364,4364,4364,4364,4364,4364,4364,4364,4364,
8745,8745,8747,4364,4364,4364,4364,4364,4364,4364,4364,4364,4364,4364,4364,4364,
4364,4364,4364,4364,4364,4364,4364,4364,4364,4364,4364,4364,4364,4364,4364,4364,
4364,4364,4364,4364,4364,4364,4364,4364,4364,4364,4364,4364,4364,4364,4364,4364,
4364,4364,4364,4364,4364,4364,4364,4364,4364,4364,4364,4364,4364,4364,4364,4364,
4364,4364,4364,4364,4364,4364,4364,4364,4364,4364,4364,4364,4364,4364,4364,4364,
4364,4364,4364,4364,4364,4364,4364,4364,4364,4364,4364,4364,4364,4364,4364,4364,
4364,4364,4364,4364,4364,4364,4364,4364,4364,4364,4364,4364,4364,4364,4364,4364,
4364,4364,4364,4364,4364,4364,4364,4364,4364,4364,4364,4364,4364,4364,4364,4364,
4364,4364,4364,4364,4364,4364,4364,4364,4364,4364,4364,4364,4364,4364,4364,4364,
4364,4364,4364,4364,4364,4364,4364,4364,4364,4364,4364,4364,4364,4364,4364,4364,
4364,4364,4364,4364,4364,4364,4364,4364,4364,4364,4364,4364,4364,4364,4364,4364,
4364,4364,4364,4364,4364,4364,4364,4364,4364,4364,4364,4364,4364,4364,4364,4364,
4364,4364,4364,4364,4364,4364,4364,4364,4364,4364,4364,4364,4364,4364,4364,4364,
4364,4364,4364,4364,4364,4364,4364,4364,4364,4364,4364,4364,4364,4364,4364,4364,
4364,4364,4364,4364,4364,4364,4364,4364,4364,4364,4364,4364,4364,4364,4364,4364
</chunk>
      <chunk x="112" y="48" width="16" height="16">
4364,4364,4364,4364,4364,4364,4364,4364,4364,4364,4364,4364,4364,4364,4364,4364,
4364,4364,4364,4364,4364,4364,4364,4364,4364,4364,4364,4364,4364,4364,4364,4364,
4364,4364,4364,4364,4364,4364,4364,4364,4364,4364,4364,4364,4364,8804,8805,8805,
4364,4364,4364,4364,4364,4364,4364,4364,4364,4364,4364,4364,4364,8853,8375,8376,
4364,4364,4364,4364,4364,4364,4364,4364,4364,4364,4364,4364,4364,8853,8424,8609,
4364,4364,4364,4364,4364,4364,4364,4364,4364,4364,4364,4364,4364,8853,8424,8661,
4364,4364,4364,4364,4364,4364,4364,4364,4364,4364,4364,4364,4364,8853,8424,8661,
4364,4364,4364,4364,4364,4364,4364,4364,4364,4364,4364,4364,4364,8853,8424,8661,
4364,4364,4364,4364,4364,4364,4364,4364,4364,4364,4364,4364,4364,8853,8424,8661,
4364,4364,4364,4364,4364,4364,4364,4364,4364,4364,4364,4364,4364,8853,8424,8707,
4364,4364,4364,4364,4364,4364,4364,4364,4364,4364,4364,4364,4364,8853,8473,8474,
4364,4364,4364,4364,4364,4364,4364,4364,4364,4364,4364,4364,4364,8902,8903,8903,
4364,4364,4364,4364,4364,4364,4364,4364,4364,4364,4364,4364,4364,4364,4364,4364,
4364,4364,4364,4364,4364,4364,4364,4364,4364,4364,4364,4364,4364,4364,4364,4364,
4364,4364,4364,4364,4364,4364,4364,4364,4364,4364,4364,4364,4364,4364,4364,4364,
4364,4364,4364,4364,4364,4364,4364,4364,4364,4364,4364,4364,4364,4364,4364,4364
</chunk>
      <chunk x="128" y="48" width="16" height="16">
4364,4364,4364,4364,4364,4364,4364,4364,4364,4364,4364,4364,4364,4364,4364,4364,
4364,4364,4364,4364,4364,4364,4364,4364,4364,4364,4364,4364,4364,4364,4364,4364,
8805,8805,8805,8805,8805,8805,8806,4364,4364,4364,4364,4364,4364,4364,4364,4364,
8376,8376,8376,8376,8376,8377,8855,4364,4364,4364,4364,4364,4364,4364,4364,4364,
8757,8757,8757,8757,8611,8426,8855,4364,4364,4364,4364,4364,4364,4364,4364,4364,
8130,8132,8132,8134,8657,8426,8855,4364,4364,4364,4364,4364,4364,4364,4364,4364,
8228,8180,8182,8232,8657,8426,8855,4364,4364,4364,4364,4364,4364,4364,4364,4364,
8228,8278,8280,8232,8657,8426,8855,4364,4364,4364,4364,4364,4364,4364,4364,4364,
8326,8328,8328,8330,8657,8426,8855,4364,4364,4364,4364,4364,4364,4364,4364,4364,
8561,8561,8561,8561,8709,8426,8855,4364,4364,4364,4364,4364,4364,4364,4364,4364,
8474,8474,8474,8474,8474,8475,8855,4364,4364,4364,4364,4364,4364,4364,4364,4364,
8903,8903,8903,8903,8903,8903,8904,4364,4364,4364,4364,4364,4364,4364,4364,4364,
4364,4364,4364,4364,4364,4364,4364,4364,4364,4364,4364,4364,4364,4364,4364,4364,
4364,4364,4364,4364,4364,4364,4364,4364,4364,4364,4364,4364,4364,4364,4364,4364,
4364,4364,4364,4364,4364,4364,4364,4364,4364,4364,4364,4364,4364,4364,4364,4364,
4364,4364,4364,4364,4364,4364,4364,4364,4364,4364,4364,4364,4364,4364,4364,4364
</chunk>
      <chunk x="144" y="48" width="16" height="16">
4364,4364,4364,4364,4364,4364,4364,4364,4364,8694,8842,8842,8698,4364,4364,4364,
4364,4364,4364,4364,4364,4364,4364,4364,4364,8694,8842,8842,8698,4364,4364,4364,
4364,4364,4364,4364,4364,4364,4364,4364,4364,8694,8842,8842,8698,4364,4364,4364,
4364,4364,4364,4364,4364,4364,4364,4364,4364,8694,8842,8842,8698,4364,4364,4364,
4364,4364,4364,4364,4364,4364,4364,4364,4364,8694,8842,8842,8698,4364,4364,4364,
4364,4364,4364,4364,4364,4364,4364,4364,4364,8694,8842,8842,8698,4364,4364,4364,
4364,4364,4364,4364,4364,4364,4364,4364,4364,8694,8842,8842,8698,4364,4364,4364,
4364,4364,4364,4364,4364,4364,4364,4364,4364,8694,8842,8842,8698,4364,4364,4364,
4364,4364,4364,4364,4364,4364,4364,4364,4364,8694,8842,8842,8698,4364,4364,4364,
4364,4364,4364,4364,4364,4364,4364,4364,4364,8694,8842,8842,8698,4364,4364,4364,
4364,4364,4364,4364,4364,4364,4364,4364,4364,8694,8842,8842,8698,4364,4364,4364,
4364,4364,4364,4364,4364,4364,4364,4364,4364,8694,8842,8842,8698,4364,4364,4364,
4364,4364,4364,4364,4364,4364,4364,4364,4364,8694,8842,8842,8698,4364,4364,4364,
4364,4364,4364,4364,4364,4364,4364,4364,4364,8694,8842,8842,8698,4364,4364,4364,
4364,4364,4364,4364,4364,4364,4364,4364,4364,8694,8842,8842,8698,4364,4364,4364,
4364,4364,4364,4364,4364,4364,4364,4364,4364,8694,8842,8842,8698,4364,4364,4364
</chunk>
      <chunk x="160" y="48" width="16" height="16">
4364,4364,4364,4364,4364,4364,4364,4364,4364,4364,4364,4364,4364,4364,4364,4364,
4364,4364,4364,4364,4364,4364,4364,4364,4364,4364,4364,4364,4364,4364,4364,4364,
4364,4364,4364,4364,4364,4364,4364,4364,4364,4364,4364,4364,4364,4364,4364,8804,
4364,4364,4364,4364,4364,4364,4364,4364,4364,4364,4364,4364,4364,4364,4364,8853,
4364,4364,4364,4364,4364,4364,4364,4364,4364,4364,4364,4364,4364,4364,4364,8853,
4364,4364,4364,4364,4364,4364,4364,4364,4364,4364,4364,4364,4364,4364,4364,8853,
4364,4364,4364,4364,4364,4364,4364,4364,4364,4364,4364,4364,4364,4364,4364,8853,
4364,4364,4364,4364,4364,4364,4364,4364,4364,4364,4364,4364,4364,4364,4364,8853,
4364,4364,4364,4364,4364,4364,4364,4364,4364,4364,4364,4364,4364,4364,4364,8853,
4364,4364,4364,4364,4364,4364,4364,4364,4364,4364,4364,4364,4364,4364,4364,8853,
4364,4364,4364,4364,4364,4364,4364,4364,4364,4364,4364,4364,4364,4364,4364,8853,
4364,4364,4364,4364,4364,4364,4364,4364,4364,4364,4364,4364,4364,4364,4364,8902,
4364,4364,4364,4364,4364,4364,4364,4364,4364,4364,4364,4364,4364,4364,4364,4364,
4364,4364,4364,4364,4364,4364,4364,4364,4364,4364,4364,4364,4364,4364,4364,4364,
4364,4364,4364,4364,4364,4364,4364,4364,4364,4364,4364,4364,4364,4364,4364,4364,
4364,4364,4364,4364,4364,4364,4364,4364,4364,4364,4364,4364,4364,4364,4364,4364
</chunk>
      <chunk x="176" y="48" width="16" height="16">
4364,4364,4364,4364,4364,4364,4364,4364,4364,4364,4364,4364,4364,4364,4364,4364,
4364,4364,4364,4364,4364,4364,4364,4364,4364,4364,4364,4364,4364,4364,4364,4364,
8805,8805,8805,8805,8805,8805,8805,8805,8806,4364,4364,4364,4364,4364,4364,4364,
8375,8376,8376,8376,8376,8376,8376,8377,8855,4364,4364,4364,4364,4364,4364,4364,
8424,8609,8757,8757,8757,8757,8611,8426,8855,4364,4364,4364,4364,4364,4364,4364,
8424,8661,8130,8132,8132,8134,8657,8426,8855,4364,4364,4364,4364,4364,4364,4364,
8424,8661,8228,8180,8182,8232,8657,8426,8855,4364,4364,4364,4364,4364,4364,4364,
8424,8661,8228,8278,8280,8232,8657,8426,8855,4364,4364,4364,4364,4364,4364,4364,
8424,8661,8326,8328,8328,8330,8657,8426,8855,4364,4364,4364,4364,4364,4364,4364,
8424,8707,8561,8561,8561,8561,8709,8426,8855,4364,4364,4364,4364,4364,4364,4364,
8473,8474,8474,8474,8474,8474,8474,8475,8855,4364,4364,4364,4364,4364,4364,4364,
8903,8903,8903,8903,8903,8903,8903,8903,8904,4364,4364,4364,4364,4364,4364,4364,
4364,4364,4364,4364,4364,4364,4364,4364,4364,4364,4364,4364,4364,4364,4364,4364,
4364,4364,4364,4364,4364,4364,4364,4364,4364,4364,4364,4364,4364,4364,4364,4364,
4364,4364,4364,4364,4364,4364,4364,4364,4364,4364,4364,4364,4364,4364,4364,4364,
4364,4364,4364,4364,4364,4364,4364,4364,4364,4364,4364,4364,4364,4364,4364,4364
</chunk>
      <chunk x="192" y="48" width="16" height="16">
4364,4364,4364,4364,4364,4364,4364,4364,4364,4364,4364,4364,4364,4364,4364,4364,
4364,4364,4364,4364,4364,4364,4364,4364,4364,4364,4364,4364,4364,4364,4364,4364,
4364,4364,4364,4364,4364,4364,4364,4364,4364,4364,4364,4364,4364,4364,4364,4364,
4364,4364,4364,4364,4364,4364,4364,4364,4364,4364,4364,4364,4364,4364,4364,4364,
4364,4364,4364,4364,4364,4364,4364,4364,4364,4364,4364,4364,4364,4364,4364,4364,
4364,4364,4364,4364,4364,4364,4364,4364,4364,4364,4364,4364,4364,4364,4364,4364,
4364,4364,4364,4364,4364,4364,4364,4364,4364,4364,4364,4364,4364,4364,4364,4364,
4364,4364,4364,4364,4364,4364,4364,4364,4364,4364,4364,4364,4364,4364,4364,4364,
4364,4364,4364,4364,4364,4364,4364,4364,4364,4364,4364,4364,4364,4364,4364,4364,
4364,4364,4364,4364,4364,4364,4364,4364,4364,4364,4364,4364,4364,4364,4364,4364,
4364,4364,4364,4364,4364,4364,4364,4364,4364,4364,4364,4364,4364,4364,4364,4364,
4364,4364,4364,4364,4364,4364,4364,4364,4364,4364,4364,4364,4364,4364,4364,4364,
4364,4364,4364,4364,4364,4364,4364,4364,4364,4364,4364,4364,4364,4364,4364,4364,
4364,4364,4364,4364,4364,4364,4364,4364,4364,4364,4364,4364,4364,4364,4364,4364,
4364,4364,4364,4364,4364,4364,4364,4364,4364,4364,4364,4364,4364,4364,4364,4364,
4364,4364,4364,4364,4364,4364,4364,4364,4364,4364,4364,4364,4364,4364,4364,4364
</chunk>
      <chunk x="208" y="48" width="16" height="16">
4364,4364,4364,8694,8842,8842,8842,8842,8842,8842,8842,8842,8842,8842,8842,8842,
4364,4364,4364,8743,8744,8744,8744,8745,8745,8745,8745,8745,8745,8745,8745,8745,
4364,4364,4364,4364,4364,4364,4364,4364,4364,4364,4364,4364,4364,4364,4364,4364,
4364,4364,4364,4364,4364,4364,4364,4364,4364,4364,4364,4364,4364,4364,4364,4364,
4364,4364,4364,4364,4364,4364,4364,4364,4364,4364,4364,4364,4364,4364,4364,4364,
4364,4364,4364,4364,4364,4364,4364,4364,4364,4364,4364,4364,4364,4364,4364,4364,
4364,4364,4364,4364,4364,4364,4364,4364,4364,4364,4364,4364,4364,4364,4364,4364,
4364,4364,4364,4364,4364,4364,4364,4364,4364,4364,4364,4364,4364,4364,4364,4364,
4364,4364,4364,4364,4364,4364,4364,4364,4364,4364,4364,4364,4364,4364,4364,4364,
4364,4364,4364,4364,4364,4364,4364,4364,4364,4364,4364,4364,4364,4364,4364,4364,
4364,4364,4364,4364,4364,4364,4364,4364,4364,4364,4364,4364,4364,4364,4364,4364,
4364,4364,4364,4364,4364,4364,4364,4364,4364,4364,4364,4364,4364,4364,4364,4364,
4364,4364,4364,4364,4364,4364,4364,4364,4364,4364,4364,4364,4364,4364,4364,4364,
4364,4364,4364,4364,4364,4364,4364,4364,4364,4364,4364,4364,4364,4364,4364,4364,
4364,4364,4364,4364,4364,4364,4364,4364,4364,4364,4364,4364,4364,4364,4364,4364,
4364,4364,4364,4364,4364,4364,4364,4364,4364,4364,4364,4364,4364,4364,4364,4364
</chunk>
      <chunk x="224" y="48" width="16" height="16">
8842,8842,8842,8842,8842,8842,8842,8842,8842,8842,8842,8842,8842,8842,8698,4364,
8745,8745,8745,8745,8745,8745,8745,8745,8745,8745,8745,8745,8745,8745,8747,4364,
4364,4364,4364,4364,4364,4364,4364,4364,4364,4364,4364,4364,4364,4364,4364,4364,
4364,4364,4364,4364,4364,4364,4364,4364,4364,4364,4364,4364,4364,4364,4364,4364,
4364,4364,4364,4364,4364,4364,4364,4364,4364,4364,4364,4364,4364,4364,4364,4364,
4364,4364,4364,4364,4364,4364,4364,4364,4364,4364,4364,4364,4364,4364,4364,4364,
4364,4364,4364,4364,4364,4364,4364,4364,4364,4364,4364,4364,4364,4364,4364,4364,
4364,4364,4364,4364,4364,4364,4364,4364,4364,4364,4364,4364,4364,4364,4364,4364,
4364,4364,4364,4364,4364,4364,4364,4364,4364,4364,4364,4364,4364,4364,4364,4364,
4364,4364,4364,4364,4364,4364,4364,4364,4364,4364,4364,4364,4364,4364,4364,4364,
4364,4364,4364,4364,4364,4364,4364,4364,4364,4364,4364,4364,4364,4364,4364,4364,
4364,4364,4364,4364,4364,4364,4364,4364,4364,4364,4364,4364,4364,4364,4364,4364,
4364,4364,4364,4364,4364,4364,4364,4364,4364,4364,4364,4364,4364,4364,4364,4364,
4364,4364,4364,4364,4364,4364,4364,4364,4364,4364,4364,4364,4364,4364,4364,4364,
4364,4364,4364,4364,4364,4364,4364,4364,4364,4364,4364,4364,4364,4364,4364,4364,
4364,4364,4364,4364,4364,4364,4364,4364,4364,4364,4364,4364,4364,4364,4364,4364
</chunk>
      <chunk x="240" y="48" width="16" height="16">
4364,4364,4364,4364,4364,4364,4364,4364,4364,4364,4364,4364,4364,4364,4364,4364,
4364,4364,4364,4364,4364,4364,4364,4364,4364,4364,4364,4364,4364,4364,4364,4364,
4364,4364,4364,4364,4364,4364,4364,4364,4364,4364,4364,4364,4364,4364,4364,4364,
4364,4364,4364,4364,4364,4364,4364,4364,4364,4364,4364,4364,4364,4364,4364,4364,
4364,4364,4364,4364,4364,4364,4364,4364,4364,4364,4364,4364,4364,4364,4364,4364,
4364,4364,4364,4364,4364,4364,4364,4364,4364,4364,4364,4364,4364,4364,4364,4364,
4364,4364,4364,4364,4364,4364,4364,4364,4364,4364,4364,4364,4364,4364,4364,4364,
4364,4364,4364,4364,4364,4364,4364,4364,4364,4364,4364,4364,4364,4364,4364,4364,
4364,4364,4364,4364,4364,4364,4364,4364,4364,4364,4364,4364,4364,4364,4364,4364,
4364,4364,4364,4364,4364,4364,4364,4364,4364,4364,4364,4364,4364,4364,4364,4364,
4364,4364,4364,4364,4364,4364,4364,4364,4364,4364,4364,4364,4364,4364,4364,4364,
4364,4364,4364,4364,4364,4364,4364,4364,4364,4364,4364,4364,4364,4364,4364,4364,
4364,4364,4364,4364,4364,4364,4364,4364,4364,4364,4364,4364,4364,4364,4364,4364,
4364,4364,4364,4364,4364,4364,4364,4364,4364,4364,4364,4364,4364,4364,4364,4364,
4364,4364,4364,4364,4364,4364,4364,4364,4364,4364,4364,4364,4364,4364,4364,4364,
4364,4364,4364,4364,4364,4364,4364,4364,4364,4364,4364,4364,4364,4364,4364,4364
</chunk>
      <chunk x="256" y="48" width="16" height="16">
4364,4364,4364,4364,4364,4364,4364,4364,4364,4364,4364,4364,4364,4364,4364,4364,
4364,4364,4364,4364,4364,4364,4364,4364,4364,4364,4364,4364,4364,4364,4364,4364,
4364,4364,4364,4364,4364,4364,4364,4364,4364,4364,4364,4364,4364,4364,4364,4364,
4364,4364,4364,4364,4364,4364,4364,4364,4364,4364,4364,4364,4364,4364,4364,4364,
4364,4364,4364,4364,4364,4364,4364,4364,4364,4364,4364,4364,4364,4364,4364,4364,
4364,4364,4364,4364,4364,4364,4364,4364,4364,4364,4364,4364,4364,4364,4364,4364,
4364,4364,4364,4364,4364,4364,4364,4364,4364,4364,4364,4364,4364,4364,4364,4364,
4364,4364,4364,4364,4364,4364,4364,4364,4364,4364,4364,4364,4364,4364,4364,4364,
4364,4364,4364,4364,4364,4364,4364,4364,4364,4364,4364,4364,4364,4364,4364,4364,
4364,4364,4364,4364,4364,4364,4364,4364,4364,4364,4364,4364,4364,4364,4364,4364,
4364,4364,4364,4364,4364,4364,4364,4364,4364,4364,4364,4364,4364,4364,4364,4364,
4364,4364,4364,4364,4364,4364,4364,4364,4364,4364,4364,4364,4364,4364,4364,4364,
4364,4364,4364,4364,4364,4364,4364,4364,4364,4364,4364,4364,4364,4364,4364,4364,
4364,4364,4364,4364,4364,4364,4364,4364,4364,4364,4364,4364,4364,4364,4364,4364,
4364,4364,4364,4364,4364,4364,4364,4364,4364,4364,4364,4364,4364,4364,4364,4364,
4364,4364,4364,4364,4364,4364,4364,4364,4364,4364,4364,4364,4364,4364,4364,4364
</chunk>
      <chunk x="272" y="48" width="16" height="16">
4364,4364,4364,4364,4364,4364,4364,4364,4364,4364,4364,4364,4364,4364,4364,4364,
4364,4364,4364,4364,4364,4364,4364,4364,4364,4364,4364,4364,4364,4364,4364,4364,
4364,4364,4364,4364,4364,4364,4364,4364,4364,4364,4364,4364,4364,4364,4364,4364,
4364,4364,4364,4364,4364,4364,4364,4364,4364,4364,4364,4364,4364,4364,4364,4364,
4364,4364,4364,4364,4364,4364,4364,4364,4364,4364,4364,4364,4364,4364,4364,4364,
4364,4364,4364,4364,4364,4364,4364,4364,4364,4364,4364,4364,4364,4364,4364,4364,
4364,4364,4364,4364,4364,4364,4364,4364,4364,4364,4364,4364,4364,4364,4364,4364,
4364,4364,4364,4364,4364,4364,4364,4364,4364,4364,4364,4364,4364,4364,4364,4364,
4364,4364,4364,4364,4364,4364,4364,4364,4364,4364,4364,4364,4364,4364,4364,4364,
4364,4364,4364,4364,4364,4364,4364,4364,4364,4364,4364,4364,4364,4364,4364,4364,
4364,4364,4364,4364,4364,4364,4364,4364,4364,4364,4364,4364,4364,4364,4364,4364,
4364,4364,4364,4364,4364,4364,4364,4364,4364,4364,4364,4364,4364,4364,4364,4364,
4364,4364,4364,4364,4364,4364,4364,4364,4364,4364,4364,4364,4364,4364,4364,4364,
4364,4364,4364,4364,4364,4364,4364,4364,4364,4364,4364,4364,4364,4364,4364,4364,
4364,4364,4364,4364,4364,4364,4364,4364,4364,4364,4364,4364,4364,4364,4364,4364,
4364,4364,4364,4364,4364,4364,4364,4364,4364,4364,4364,4364,4364,4364,4364,4364
</chunk>
      <chunk x="288" y="48" width="16" height="16">
4364,4171,6794,6795,6794,6795,6794,6795,6794,6795,6794,6795,6794,6795,6794,6795,
4364,4171,6762,6763,6762,6763,6762,6763,6762,6763,6762,6763,6762,6763,6762,6763,
4364,4171,6778,6779,6778,6779,6778,6779,6778,6779,6778,6779,6778,6779,6778,6779,
4364,4171,6794,6795,6794,6795,6794,6795,6794,6795,6794,6795,6794,6795,6794,6795,
4364,4171,6762,6763,6762,6763,6762,6763,6762,6763,6762,6763,6762,6763,6762,6763,
4364,4171,6778,6779,6778,6779,6778,6779,6778,6779,6778,6779,6778,6779,6778,6779,
4364,4171,6794,6795,6794,6795,6794,6795,6794,6795,6794,6795,6794,6795,6794,6795,
4364,4171,6762,6763,6762,6763,6762,6763,6762,6763,6762,6763,6762,6763,6762,6763,
4364,4171,6778,6779,6778,6779,6778,6779,6778,6779,6778,6779,6778,6779,6778,6779,
4364,4171,6794,6795,6794,6795,6794,6795,6794,6795,6794,6795,6794,6795,6794,6795,
4364,4171,6762,6763,6762,6763,6762,6763,6762,6763,6762,6763,6762,6763,6762,6763,
4364,4171,6778,6779,6778,6779,6778,6779,6778,6779,6778,6779,6778,6779,6778,6779,
4364,4171,6794,6795,6794,6795,6794,6795,6794,6795,6794,6795,6794,6795,6794,6795,
4364,4171,6762,6763,6762,6763,6762,6763,6762,6763,6762,6763,6762,6763,6762,6763,
4364,4171,6778,6779,6778,6779,6778,6779,6778,6779,6778,6779,6778,6779,6778,6779,
4364,4171,6794,6795,6794,6795,6794,6795,6794,6795,6794,6795,6794,6795,6794,6795
</chunk>
      <chunk x="304" y="48" width="16" height="16">
6794,6795,6794,6795,6794,6795,6794,6795,6794,6795,6794,6795,6794,6795,6794,6795,
6762,6763,6762,6763,6762,6763,6762,6763,6762,6763,6762,6763,6762,6763,6762,6763,
6778,6779,6778,6779,6778,6779,6778,6779,6778,6779,6778,6779,6778,6779,6778,6779,
6794,6795,6794,6795,6794,6795,6794,6795,6794,6795,6794,6795,6794,6795,6794,6795,
6762,6763,6762,6763,6762,6763,6762,6763,6762,6763,6762,6763,6762,6763,6762,6763,
6778,6779,6778,6779,6778,6779,6778,6779,6778,6779,6778,6779,6778,6779,6778,6779,
6794,6795,6794,6795,6794,6795,6794,6795,6794,6795,6794,6795,6794,6795,6794,6795,
6762,6763,6762,6763,6762,6763,6762,6763,6762,6763,6762,6763,6762,6763,6762,6763,
6778,6779,6778,6779,6778,6779,6778,6779,6778,6779,6778,6779,6778,6779,6778,6779,
6794,6795,6794,6795,6794,6795,6794,6795,6794,6795,6794,6795,6794,6795,6794,6795,
6762,6763,6762,6763,6762,6763,6762,6763,6762,6763,6762,6763,6762,6763,6762,6763,
6778,6779,6778,6779,6778,6779,6778,6779,6778,6779,6778,6779,6778,6779,6778,6779,
6794,6795,6794,6795,6794,6795,6794,6795,6794,6795,6794,6795,6794,6795,6794,6795,
6762,6763,6762,6763,6762,6763,6762,6763,6762,6763,6762,6763,6762,6763,6762,6763,
6778,6779,6778,6779,6778,6779,6778,6779,6778,6779,6778,6779,6778,6779,6778,6779,
6794,6795,6794,6795,6794,6795,6794,6795,6794,6795,6794,6795,6794,6795,6794,6795
</chunk>
      <chunk x="0" y="64" width="16" height="16">
6762,6763,6762,6763,6762,6763,6762,6763,6762,6763,6762,6763,6762,6763,6762,6763,
6778,6779,6778,6779,6778,6779,6778,6779,6778,6779,6778,6779,6778,6779,6778,6779,
6794,6795,6794,6795,6794,6795,6794,6795,6794,6795,6794,6795,6794,6795,6794,6795,
6762,6763,6762,6763,6762,6763,6762,6763,6762,6763,6762,6763,6762,6763,6762,6763,
6778,6779,6778,6779,6778,6779,6778,6779,6778,6779,6778,6779,6778,6779,6778,6779,
6794,6795,6794,6795,6794,6795,6794,6795,6794,6795,6794,6795,6794,6795,6794,6795,
6762,6763,6762,6763,6762,6763,6762,6763,6762,6763,6762,6763,6762,6763,6762,6763,
6778,6779,6778,6779,6778,6779,6778,6779,6778,6779,6778,6779,6778,6779,6778,6779,
6794,6795,6794,6795,6794,6795,6794,6795,6794,6795,6794,6795,6794,6795,6794,6795,
6762,6763,6762,6763,6762,6763,6762,6763,6762,6763,6762,6763,6762,6763,6762,6763,
6778,6779,6778,6779,6778,6779,6778,6779,6778,6779,6778,6779,6778,6779,6778,6779,
6794,6795,6794,6795,6794,6795,6794,6795,6794,6795,6794,6795,6794,6795,6794,6795,
6762,6763,6762,6763,6762,6763,6762,6763,6762,6763,6762,6763,6762,6763,6762,6763,
6778,6779,6778,6779,6778,6779,6778,6779,6778,6779,6778,6779,6778,6779,6778,6779,
6794,6795,6794,6795,6794,6795,6794,6795,6794,6795,6794,6795,6794,6795,6794,6795,
6762,6763,6762,6763,6762,6763,6762,6763,6762,6763,6762,6763,6762,6763,6762,6763
</chunk>
      <chunk x="16" y="64" width="16" height="16">
6762,6763,6762,6763,4167,4364,4364,4364,4364,4364,4364,4364,4364,4364,4364,4364,
6778,6779,6778,6779,4167,4364,4364,4364,4364,4364,4364,4364,4364,4364,4364,4364,
6794,6795,6794,6795,4167,4364,4364,4364,4364,4364,4364,4364,4364,4364,4364,4364,
6762,6763,6762,6763,4167,4364,4364,4364,4364,4364,4364,4364,4364,4364,4364,4364,
6778,6779,6778,6779,4167,4364,4364,4364,4364,4364,4364,4364,4364,4364,4364,4364,
6794,6795,6794,6795,4167,4364,4364,4364,4364,4364,4364,4364,4364,4364,4364,4364,
6762,6763,6762,6763,4167,4364,4364,4364,4364,4364,4364,4364,4364,4364,4364,4364,
6778,6779,6778,6779,4167,4364,4364,4364,4364,4364,4364,4364,4364,4364,4364,4364,
6794,6795,6794,6795,4167,4364,4364,4364,4364,4364,4364,4364,4364,4364,4364,4364,
6762,6763,6762,6763,4167,4364,4364,4364,4364,4364,4364,4364,4364,4364,4364,4364,
6778,6779,6778,6779,4265,4267,4267,4267,4267,4267,4267,4267,4267,4267,4267,4267,
6794,6795,6794,6795,1228,1228,1228,1228,1228,1228,1228,1228,1228,1228,1228,1228,
6762,6763,6762,6763,6762,6763,6762,6763,6762,6763,6762,6763,6762,6763,6762,6763,
6778,6779,6778,6779,6778,6779,6778,6779,6778,6779,6778,6779,6778,6779,6778,6779,
6794,6795,6794,6795,6794,6795,6794,6795,6794,6795,6794,6795,6794,6795,6794,6795,
6762,6763,6762,6763,6762,6763,6762,6763,6762,6763,6762,6763,6762,6763,6762,6763
</chunk>
      <chunk x="32" y="64" width="16" height="16">
4364,4364,4364,4364,4364,4364,4364,4364,4364,4364,4364,4364,4364,4364,4364,4364,
4364,4364,4364,4364,4364,4364,4364,4364,4364,4364,4364,4364,4364,4364,4364,4364,
4364,4364,4364,4364,4364,4364,4364,4364,4364,4364,4364,4364,4364,4364,4364,4364,
4364,4364,4364,4364,4364,4364,4364,4364,4364,4364,4364,4364,4364,4364,4364,4364,
4364,4364,4364,4364,4364,4364,4364,4364,4364,4364,4364,4364,4364,4364,4364,4364,
4364,4364,4364,4364,4364,4364,4364,4364,4364,4364,4364,4364,4364,4364,4364,4364,
4364,4364,4364,4364,4364,4364,4364,4364,4364,4364,4364,4364,4364,4364,4364,4364,
4364,4364,4364,4364,4364,4364,4364,4364,4364,4364,4364,4364,4364,4364,4364,4364,
4364,4364,4364,4364,4364,4364,4364,4364,4364,4364,4364,4364,4364,4364,4364,4364,
4364,4364,4364,4364,4364,4364,4364,4364,4364,4364,4364,4364,4364,4364,4364,4364,
4267,4267,4267,4267,4267,4267,4267,4267,4267,4267,4267,4267,4267,4267,4267,4267,
1228,1228,1228,1228,1228,1228,1228,1228,1228,1228,1228,1228,1228,1228,1228,1228,
6762,6763,6762,6763,6762,6763,6762,6763,6762,6763,6762,6763,6762,6763,6762,6763,
6778,6779,6778,6779,6778,6779,6778,6779,6778,6779,6778,6779,6778,6779,6778,6779,
6794,6795,6794,6795,6794,6795,6794,6795,6794,6795,6794,6795,6794,6795,6794,6795,
6762,6763,6762,6763,6762,6763,6762,6763,6762,6763,6762,6763,6762,6763,6762,6763
</chunk>
      <chunk x="48" y="64" width="16" height="16">
4364,4364,4364,4364,4364,4364,4364,4364,4364,4364,4364,4364,4364,4364,4364,4364,
4364,4364,4364,4364,4364,4364,4364,4364,4364,4364,4364,4364,4364,4364,4364,4364,
4364,4364,4364,4364,4364,4364,4364,4364,4364,4364,4364,4364,4364,4364,4364,4364,
4364,4364,4364,4364,4364,4364,4364,4364,4364,4364,4364,4364,4364,4364,4364,4364,
4364,4364,4364,4364,4364,4364,4364,4364,4364,4364,4364,4364,4364,4364,4364,4364,
4364,4364,4364,4364,4364,4364,4364,4364,4364,4364,4364,4364,4364,4364,4364,4364,
4364,4364,4364,4364,4364,4364,4364,4364,4364,4364,4364,4364,4364,4364,4364,4364,
4364,4364,4364,4364,4364,4364,4364,4364,4364,4364,4364,4364,4364,4364,4364,4364,
4364,4364,4364,4364,4364,4364,4364,4364,4364,4364,4364,4364,4364,4364,4364,4364,
4364,4364,4364,4364,4364,4364,4364,4364,4364,4364,4364,4364,4364,4364,4364,4364,
4267,4267,4267,4267,4267,4267,4267,4267,4267,4267,4267,4267,4267,4267,4267,4267,
1228,1228,1228,1228,1228,1228,1228,1228,1228,1228,1228,1228,1228,1228,1228,1228,
6762,6763,11599,11599,11599,11599,11599,11599,11599,11599,11599,11599,11599,11599,11599,11599,
6778,6779,11599,11599,11599,11599,11599,11599,11599,11599,11599,11599,11599,11599,11599,11599,
6794,6795,11599,11599,11599,11599,11599,11599,11599,11599,11599,11599,11599,11599,11599,11599,
6762,6763,11599,11599,11599,11599,11599,11599,11599,11599,11599,11599,11599,11599,11599,11599
</chunk>
      <chunk x="64" y="64" width="16" height="16">
4364,4364,4364,4364,4364,4364,4364,4364,4364,4364,4364,4364,4364,4364,4364,4364,
4364,4364,4364,4364,4364,4364,4364,4364,4364,4364,4364,4364,4364,4364,4364,4364,
4364,4364,4364,4364,4364,4364,4364,4364,4364,4364,4364,4364,4364,4364,4364,4364,
4364,4364,4364,4364,4364,4364,4364,4364,4364,4364,4364,4364,4364,4364,4364,4364,
4364,4364,4364,4364,4364,4364,4364,4364,4364,4364,4364,4364,4364,4364,4364,4364,
4364,4364,4364,4364,4364,4364,4364,4364,4364,4364,4364,4364,4364,4364,4364,4364,
4364,4364,4364,4364,4364,4364,4364,4364,4364,4364,4364,4364,4364,4364,4364,4364,
4364,4364,4364,4364,4364,4364,4364,4364,4364,4364,4364,4364,4364,4364,4364,4364,
4364,4364,4364,4364,4364,4364,4364,4364,4364,4364,4364,4364,4364,4364,4364,4364,
4364,4364,4364,4364,4364,4364,4364,4364,4364,4364,4364,4364,4364,4364,4364,4364,
4267,4267,4267,4267,4267,4267,4267,4267,4267,4267,4267,4267,4267,4267,4267,4267,
1228,1228,1228,1228,1228,1228,1228,1228,1228,1228,1228,1228,1228,1228,1228,1228,
11599,11599,11599,11599,11599,11599,11599,11599,11599,11599,11599,11599,11599,11599,11599,11599,
11599,11599,11599,11599,11599,11599,11599,11599,11599,11599,11599,11599,11599,11599,11599,11599,
11599,11599,11599,11599,11599,11599,11599,11599,11599,11599,11599,11599,11599,11599,11599,11599,
11599,11599,11599,11599,11599,11599,11599,11599,11599,11599,11599,11599,11599,11599,11599,11599
</chunk>
      <chunk x="80" y="64" width="16" height="16">
4364,4364,4364,4364,4364,4364,4364,4364,4364,4364,4364,4364,4364,4364,4364,4364,
4364,4364,4364,4364,4364,4364,4364,4364,4364,4364,4364,4364,4364,4364,4364,4364,
4364,4364,4364,4364,4364,4364,4364,4364,4364,4364,4364,4364,4364,4364,4364,4364,
4364,4364,4364,4364,4364,4364,4364,4364,4364,4364,4364,4364,4364,4364,4364,4364,
4364,4364,4364,4364,4364,4364,4364,4364,4364,4364,4364,4364,4364,4364,4364,4364,
4364,4364,4364,4364,4364,4364,4364,4364,4364,4364,4364,4364,4364,4364,4364,4364,
4364,4364,4364,4364,4364,4364,4364,4364,4364,4364,4364,4364,4364,4364,4364,4364,
4364,4364,4364,4364,4364,4364,4364,4364,4364,4364,4364,4364,4364,4364,4364,4364,
4364,4364,4364,4364,4364,4364,4364,4364,4364,4364,4364,4364,4364,4364,4364,4364,
4364,4364,4364,4364,4364,4364,4364,4364,4364,4364,4364,4364,4364,4364,4364,4364,
4267,4267,4267,4121,4364,4364,4119,4267,4267,4267,4267,4267,4267,4267,4267,4267,
1228,1228,1228,4265,4267,4267,4269,1228,1228,1228,1228,1228,1228,1228,1228,1228,
11599,11599,11599,11599,11599,11599,11599,11599,11599,11599,11599,11599,11599,11599,11599,11599,
11599,11599,11599,11599,11599,11599,11599,11599,11599,11599,11599,11599,11599,11599,11599,11599,
11599,11599,11599,11599,11599,11599,11599,11599,11599,11599,11599,11599,11599,11599,11599,11599,
11599,11599,11599,11599,11599,11599,11599,11599,11599,11599,11599,11599,11599,11599,11599,11599
</chunk>
      <chunk x="96" y="64" width="16" height="16">
4364,4364,4364,4364,4364,4364,4364,4364,4364,4364,4364,4364,4364,4364,4364,4364,
4364,4364,4364,4364,4364,4364,4364,4364,4364,4364,4364,4364,4364,4364,4364,4364,
4364,4364,4364,4364,4364,4364,4364,4364,4364,4364,4364,4364,4364,4364,4364,4364,
4364,4364,4364,4364,4364,4364,4364,4364,4364,4364,4364,4364,4364,4364,4364,4364,
4364,4364,4364,4364,4364,4364,4364,4364,4364,4364,4364,4364,4364,4364,4364,4364,
4364,4364,4364,4364,4364,4364,4364,4364,4364,4364,4364,4364,4364,4364,4364,4364,
4364,4364,4364,4364,4364,4364,4364,4364,4364,4364,4364,4364,4364,4364,4364,4364,
4364,4364,4364,4364,4364,4364,4364,4364,4364,4364,4364,4364,4364,4364,4364,4364,
4364,4364,4364,4364,4364,4364,4364,4364,4364,4364,4364,4364,4364,4364,4364,4364,
4364,4364,4364,4364,4364,4364,4364,4364,4364,4364,4364,4364,4364,4364,4364,4364,
4267,4267,4267,4267,4267,4267,4267,4267,4267,4267,4267,4267,4267,4267,4267,4267,
1228,1228,1228,1228,1228,1228,1228,1228,1228,1228,1228,1228,1228,1228,1228,1228,
11599,11599,11599,11599,11599,11599,11599,11599,11599,11599,11599,11599,11599,11599,11599,11599,
11599,11599,11599,11599,11599,11599,11599,11599,11599,11599,11599,11599,11599,11599,11599,11599,
11599,11599,11599,11599,11599,11599,11599,11599,11599,11599,11599,11599,11599,11599,11599,11599,
11599,11599,11599,11599,11599,11599,11599,11599,11599,11599,11599,11599,11599,11599,11599,11599
</chunk>
      <chunk x="112" y="64" width="16" height="16">
4364,4364,4364,4364,4364,4364,4364,4364,4364,4364,4364,4364,4364,4364,4364,4364,
4364,4364,4364,4364,4364,4364,4364,4364,4364,4364,4364,4364,4364,4364,4364,4364,
4364,4364,4364,4364,4364,4364,4364,4364,4364,4364,4364,4364,4364,4364,4364,4364,
4364,4364,4364,4364,4364,4364,4364,4364,4364,4364,4364,4364,4364,4364,4364,4364,
4364,4364,4364,4364,4364,4364,4364,4364,4364,4364,4364,4364,4364,4364,4364,4364,
4364,4364,4364,4364,4364,4364,4364,4364,4364,4364,4364,4364,4364,4364,4364,4364,
4364,4364,4364,4364,4364,4364,4364,4364,4364,4364,4364,4364,4364,4364,4364,4364,
4364,4364,4364,4364,4364,4364,4364,4364,4364,4364,4364,4364,4364,4364,4364,4364,
4364,4364,4364,4364,4364,4364,4364,4364,4364,4364,4364,4364,4364,4364,4364,4364,
4364,4364,4364,4364,4364,4364,4364,4364,4364,4364,4364,4364,4364,4364,4364,4364,
4267,4267,4267,4267,4267,4267,4267,4267,4121,4364,4364,4364,4364,4364,4364,4364,
1228,1228,1228,1228,1228,1228,1228,1228,4167,4364,4364,4364,4364,4364,4364,4364,
11599,11599,11599,11599,11599,11599,11599,6715,4167,4364,4364,4364,4364,4364,4364,4364,
11599,11599,11599,11599,11599,11599,11599,6731,4167,4364,4364,4364,4364,4364,4364,4364,
11599,11599,11599,11599,11599,11599,11599,6747,4167,4364,4364,4364,4364,4364,4364,4364,
11599,11599,11599,11599,11599,11599,11599,6715,4167,4364,4364,4364,4364,4364,4364,4364
</chunk>
      <chunk x="128" y="64" width="16" height="16">
4364,4364,4364,4364,4364,4364,4364,4364,4364,4364,4364,4364,4364,4364,4364,4364,
4364,4364,4364,4364,4364,4364,4364,4364,4364,4364,4364,4364,4364,4364,4364,4364,
4364,4364,4364,4364,4364,4364,4364,4364,4364,4364,4364,4364,4364,4364,4364,4364,
4364,4364,4364,4364,4364,4364,4364,4364,4364,4364,4364,4364,4364,4364,4364,4364,
4364,4364,4364,4364,4364,4364,4364,4364,4364,4364,4364,4364,4364,4364,4364,4364,
4364,4364,4364,4364,4364,4364,4364,4364,4364,4364,4364,4364,4364,4364,4364,4364,
4364,4364,4364,4364,4364,4364,4364,4364,4364,4364,4364,4364,4364,4364,4364,4364,
4364,4364,4364,4364,4364,4364,4364,4364,4364,4364,4364,4364,4364,4364,4364,4364,
4364,4364,4364,4364,4364,4364,4364,4364,4364,4364,4364,4364,4364,4364,4364,4364,
4364,4364,4364,4364,4364,4364,4364,4364,4364,4364,4364,4364,4364,4364,4364,4364,
4364,4364,4364,4364,4364,4364,4364,4364,4364,4364,4364,4364,4364,4364,4364,4364,
4364,4364,4364,4364,4364,4364,4364,4364,4364,4364,4364,4364,4364,4364,4364,4364,
4364,4364,4364,4364,4364,4364,4364,4364,4364,4364,4364,4364,4364,4364,4364,4364,
4364,4364,4364,4364,4364,4364,4364,4364,4364,4364,4364,4364,4364,4364,4364,4364,
4364,4364,4364,4364,4364,4364,4364,4364,4364,4364,4364,4364,4364,4364,4364,4364,
4364,4364,4364,4364,4364,4364,4364,4364,4364,4364,4364,4364,4364,4364,4364,4364
</chunk>
      <chunk x="144" y="64" width="16" height="16">
4364,4364,4364,4364,4364,4364,4364,4364,4364,8694,8842,8842,8698,4364,4364,4364,
4364,4364,4364,4364,4364,4364,4364,4364,4364,8694,8842,8842,8698,4364,4364,4364,
4364,4364,4364,4364,4364,4364,4364,4364,4364,8694,8842,8842,8698,4364,4364,4364,
4364,4364,4364,4364,4364,4364,4364,4364,4364,8694,8842,8842,8698,4364,4364,4364,
4364,4364,4364,4364,4364,4364,4364,4364,4364,8694,8842,8842,8698,4364,4364,4364,
4364,4364,4364,4364,4364,4364,4364,4364,4364,8694,8842,8842,8698,4364,4364,4364,
4364,4364,4364,4364,4364,4364,4364,4364,4364,8694,8842,8842,8698,4364,4364,4364,
4364,4364,4364,4364,4364,4364,4364,4364,4364,8694,8842,8842,8698,4364,4364,4364,
4364,4364,4364,4364,4364,4364,4364,4364,4364,8694,8842,8842,8698,4364,4364,4364,
4364,4364,4364,4364,4364,4364,4364,4364,4364,8694,8842,8842,8698,4364,4364,4364,
4364,4364,4364,4364,4364,4364,4364,4364,4364,8694,8842,8842,8698,4364,4364,4364,
4364,4364,4364,4364,4364,4364,4364,4364,4364,8694,8842,8842,8698,4364,4364,4364,
4364,4364,4364,4364,4364,4364,4364,4364,4364,8694,8842,8842,8698,4364,4364,4364,
4364,4364,4364,4364,4364,4364,4364,4364,4364,8694,8842,8842,8698,4364,4364,4364,
4364,4364,4364,4364,4364,4364,4364,4364,4364,8694,8842,8842,8698,4364,4364,4364,
4364,4364,4364,4364,4364,4364,4364,4364,4364,8694,8842,8842,8698,4364,4364,4364
</chunk>
      <chunk x="160" y="64" width="16" height="16">
4364,4364,4364,4364,4364,4364,4364,4364,4364,4364,4364,4364,4364,4364,4364,4364,
4364,4364,4364,4364,4364,4364,4364,4364,4364,4364,4364,4364,4364,4364,4364,4364,
4364,4364,4364,4364,4364,4364,4364,4364,4364,4364,4364,4364,4364,4364,4364,4364,
4364,4364,4364,4364,4364,4364,4364,4364,4364,4364,4364,4364,4364,4364,4364,4364,
4364,4364,4364,4364,4364,4364,4364,4364,4364,4364,4364,4364,4364,4364,4364,4364,
4364,4364,4364,4364,4364,4364,4364,4364,4364,4364,4364,4364,4364,4364,4364,4364,
4364,4364,4364,4364,4364,4364,4364,4364,4364,4364,4364,4364,4364,4364,4364,4364,
4364,4364,4364,4364,4364,4364,4364,4364,4364,4364,4364,4364,4364,4364,4364,4364,
4364,4364,4364,4364,4364,4364,4364,4364,4364,4364,4364,4364,4364,4364,4364,4364,
4364,4364,4364,4364,4364,4364,4364,4364,4364,4364,4364,4364,4364,4364,4364,4364,
4364,4364,4364,4364,4364,4364,4364,4364,4364,4364,4364,4364,4364,4364,4364,4364,
4364,4364,4364,4364,4364,4364,4364,4364,4364,4364,4364,4364,4364,4364,4364,4364,
4364,4364,4364,4364,4364,4364,4364,4364,4364,4364,4364,4364,4364,4364,4364,4364,
4364,4364,4364,4364,4364,4364,4364,4364,4364,4364,4364,4364,4364,4364,4364,4364,
4364,4364,4364,4364,4364,4364,4364,4364,4364,4364,4364,4364,4364,4364,4364,4364,
4364,4364,4364,4364,4364,4364,4364,4364,4364,4364,4364,4364,4364,4364,4364,4364
</chunk>
      <chunk x="176" y="64" width="16" height="16">
4364,4364,4364,4364,4364,4364,4364,4364,4364,4364,4364,4364,4364,4364,4364,4364,
4364,4364,4364,4364,4364,4364,4364,4364,4364,4364,4364,4364,4364,4364,4364,4364,
4364,4364,4364,4364,4364,4364,4364,4364,4364,4364,4364,4364,4364,4364,4364,4364,
4364,4364,4364,4364,4364,4364,4364,4364,4364,4364,4364,4364,4364,4364,4364,4364,
4364,4364,4364,4364,4364,4364,4364,4364,4364,4364,4364,4364,4364,4364,4364,4364,
4364,4364,4364,4364,4364,4364,4364,4364,4364,4364,4364,4364,4364,4364,4364,4364,
4364,4364,4364,4364,4364,4364,4364,4364,4364,4364,4364,4364,4364,4364,4364,4364,
4364,4364,4364,4364,4364,4364,4364,4364,4364,4364,4364,4364,4364,4364,4364,4364,
4364,4364,4364,4364,4364,4364,4364,4364,4364,4364,4364,4364,4364,4364,4364,4364,
4364,4364,4364,4364,4364,4364,4364,4364,4364,4364,4364,4364,4364,4364,4364,4364,
4364,4364,4364,4364,4364,4364,4364,4364,4364,4364,4364,4364,4364,4119,4267,4267,
4364,4364,4364,4364,4364,4364,4364,4364,4364,4364,4364,4364,4364,4171,1228,1228,
4364,4364,4364,4364,4364,4364,4364,4364,4364,4364,4364,4364,4364,4171,6714,11632,
4364,4364,4364,4364,4364,4364,4364,4364,4364,4364,4364,4364,4364,4171,6730,11632,
4364,4364,4364,4364,4364,4364,4364,4364,4364,4364,4364,4364,4364,4171,6746,11632,
4364,4364,4364,4364,4364,4364,4364,4364,4364,4364,4364,4364,4364,4171,6714,11632
</chunk>
      <chunk x="192" y="64" width="16" height="16">
4364,4364,4364,4364,4364,4364,4364,4364,4364,4364,4364,4364,4364,4364,4364,4364,
4364,4364,4364,4364,4364,4364,4364,4364,4364,4364,4364,4364,4364,4364,4364,4364,
4364,4364,4364,4364,4364,4364,4364,4364,4364,4364,4364,4364,4364,4364,4364,4364,
4364,4364,4364,4364,4364,4364,4364,4364,4364,4364,4364,4364,4364,4364,4364,4364,
4364,4364,4364,4364,4364,4364,4364,4364,4364,4364,4364,4364,4364,4364,4364,4364,
4364,4364,4364,4364,4364,4364,4364,4364,4364,4364,4364,4364,4364,4364,4364,4364,
4364,4364,4364,4364,4364,4364,4364,4364,4364,4364,4364,4364,4364,4364,4364,4364,
4364,4364,4364,4364,4364,4364,4364,4364,4364,4364,4364,4364,4364,4364,4364,4364,
4364,4364,4364,4364,4364,4364,4364,4364,4364,4364,4364,4364,4364,4364,4364,4364,
4364,4364,4364,4364,4364,4364,4364,4364,4364,4364,4364,4364,4364,4364,4364,4364,
4267,4267,4267,4267,4267,4267,4267,4267,4267,4267,4267,4267,4267,4267,4267,4267,
1228,1228,1228,1228,1228,1228,1228,1228,1228,1228,1228,1228,1228,1228,1228,1228,
11632,11632,11632,11632,11632,11632,11632,11632,11632,11632,11632,11632,11632,11632,11632,11632,
11632,11632,11632,11632,11632,11632,11632,11632,11632,11632,11632,11632,11632,11632,11632,11632,
11632,11632,11632,11632,11632,11632,11632,11632,11632,11632,11632,11632,11632,11632,11632,11632,
11632,11632,11632,11632,11632,11632,11632,11632,11632,11632,11632,11632,11632,11632,11632,11632
</chunk>
      <chunk x="208" y="64" width="16" height="16">
4364,4364,4364,4364,4364,4364,4364,4364,4364,4364,4364,4364,4364,4364,4364,4364,
4364,4364,4364,4364,4364,4364,4364,4364,4364,4364,4364,4364,4364,4364,4364,4364,
4364,4364,4364,4364,4364,4364,4364,4364,4364,4364,4364,4364,4364,4364,4364,4364,
4364,4364,4364,4364,4364,4364,4364,4364,4364,4364,4364,4364,4364,4364,4364,4364,
4364,4364,4364,4364,4364,4364,4364,4364,4364,4364,4364,4364,4364,4364,4364,4364,
4364,4364,4364,4364,4364,4364,4364,4364,4364,4364,4364,4364,4364,4364,4364,4364,
4364,4364,4364,4364,4364,4364,4364,4364,4364,4364,4364,4364,4364,4364,4364,4364,
4364,4364,4364,4364,4364,4364,4364,4364,4364,4364,4364,4364,4364,4364,4364,4364,
4364,4364,4364,4364,4364,4364,4364,4364,4364,4364,4364,4364,4364,4364,4364,4364,
4364,4364,4364,4364,4364,4364,4364,4364,4364,4364,4364,4364,4364,4364,4364,4364,
4267,4267,4267,4267,4267,4267,4267,4267,4267,4267,4267,4267,4267,4267,4267,4121,
1228,1228,1228,1228,1228,1228,1228,1228,1228,1228,1228,1228,1228,1228,1228,4265,
11632,11632,11632,11632,11632,11632,11632,11632,11632,11632,11632,11632,11632,11632,11632,11632,
11632,11632,11632,11632,11632,11632,11632,11632,11632,11632,11632,11632,11632,11632,11632,11632,
11632,11632,11632,11632,11632,11632,11632,11632,11632,11632,11632,11632,11632,11632,11632,11632,
11632,11632,11632,11632,11632,11632,11632,11632,11632,11632,11632,11632,11632,11632,11632,11632
</chunk>
      <chunk x="224" y="64" width="16" height="16">
4364,4364,4364,4364,4364,4364,4364,4364,4364,4364,4364,4364,4364,4364,4364,4364,
4364,4364,4364,4364,4364,4364,4364,4364,4364,4364,4364,4364,4364,4364,4364,4364,
4364,4364,4364,4364,4364,4364,4364,4364,4364,4364,4364,4364,4364,4364,4364,4364,
4364,4364,4364,4364,4364,4364,4364,4364,4364,4364,4364,4364,4364,4364,4364,4364,
4364,4364,4364,4364,4364,4364,4364,4364,4364,4364,4364,4364,4364,4364,4364,4364,
4364,4364,4364,4364,4364,4364,4364,4364,4364,4364,4364,4364,4364,4364,4364,4364,
4364,4364,4364,4364,4364,4364,4364,4364,4364,4364,4364,4364,4364,4364,4364,4364,
4364,4364,4364,4364,4364,4364,4364,4364,4364,4364,4364,4364,4364,4364,4364,4364,
4364,4364,4364,4364,4364,4364,4364,4364,4364,4364,4364,4364,4364,4364,4364,4364,
4364,4364,4364,4364,4364,4364,4364,4364,4364,4364,4364,4364,4364,4364,4364,4364,
4364,4364,4119,4267,4267,4267,4267,4267,4267,4267,4267,4267,4267,4267,4267,4267,
4267,4267,4269,1228,1228,1228,1228,1228,1228,1228,1228,1228,1228,1228,1228,1228,
11632,11632,11632,11632,11632,11632,11632,11632,11632,11632,11632,11632,11632,11632,11632,11632,
11632,11632,11632,11632,11632,11632,11632,11632,11632,11632,11632,11632,11632,11632,11632,11632,
11632,11632,11632,11632,11632,11632,11632,11632,11632,11632,11632,11632,11632,11632,11632,11632,
11632,11632,11632,11632,11632,11632,11632,11632,11632,11632,11632,11632,11632,11632,11632,11632
</chunk>
      <chunk x="240" y="64" width="16" height="16">
4364,4364,4364,4364,4364,4364,4364,4364,4364,4364,4364,4364,4364,4364,4364,4364,
4364,4364,4364,4364,4364,4364,4364,4364,4364,4364,4364,4364,4364,4364,4364,4364,
4364,4364,4364,4364,4364,4364,4364,4364,4364,4364,4364,4364,4364,4364,4364,4364,
4364,4364,4364,4364,4364,4364,4364,4364,4364,4364,4364,4364,4364,4364,4364,4364,
4364,4364,4364,4364,4364,4364,4364,4364,4364,4364,4364,4364,4364,4364,4364,4364,
4364,4364,4364,4364,4364,4364,4364,4364,4364,4364,4364,4364,4364,4364,4364,4364,
4364,4364,4364,4364,4364,4364,4364,4364,4364,4364,4364,4364,4364,4364,4364,4364,
4364,4364,4364,4364,4364,4364,4364,4364,4364,4364,4364,4364,4364,4364,4364,4364,
4364,4364,4364,4364,4364,4364,4364,4364,4364,4364,4364,4364,4364,4364,4364,4364,
4364,4364,4364,4364,4364,4364,4364,4364,4364,4364,4364,4364,4364,4364,4364,4364,
4267,4267,4267,4267,4267,4267,4267,4267,4267,4267,4267,4267,4267,4267,4267,4267,
1228,1228,1228,1228,1228,1228,1228,1228,1228,1228,1228,1228,1228,1228,1228,1228,
11632,11632,11632,11632,11632,11632,11632,11632,11632,11632,11632,11632,11632,11632,11632,11632,
11632,11632,11632,11632,11632,11632,11632,11632,11632,11632,11632,11632,11632,11632,11632,11632,
11632,11632,11632,11632,11632,11632,11632,11632,11632,11632,11632,11632,11632,11632,11632,11632,
11632,11632,11632,11632,11632,11632,11632,11632,11632,11632,11632,11632,11632,11632,11632,11632
</chunk>
      <chunk x="256" y="64" width="16" height="16">
4364,4364,4364,4364,4364,4364,4364,4364,4364,4364,4364,4364,4364,4364,4364,4364,
4364,4364,4364,4364,4364,4364,4364,4364,4364,4364,4364,4364,4364,4364,4364,4364,
4364,4364,4364,4364,4364,4364,4364,4364,4364,4364,4364,4364,4364,4364,4364,4364,
4364,4364,4364,4364,4364,4364,4364,4364,4364,4364,4364,4364,4364,4364,4364,4364,
4364,4364,4364,4364,4364,4364,4364,4364,4364,4364,4364,4364,4364,4364,4364,4364,
4364,4364,4364,4364,4364,4364,4364,4364,4364,4364,4364,4364,4364,4364,4364,4364,
4364,4364,4364,4364,4364,4364,4364,4364,4364,4364,4364,4364,4364,4364,4364,4364,
4364,4364,4364,4364,4364,4364,4364,4364,4364,4364,4364,4364,4364,4364,4364,4364,
4364,4364,4364,4364,4364,4364,4364,4364,4364,4364,4364,4364,4364,4364,4364,4364,
4364,4364,4364,4364,4364,4364,4364,4364,4364,4364,4364,4364,4364,4364,4364,4364,
4267,4267,4267,4267,4267,4267,4267,4267,4267,4267,4267,4267,4267,4267,4267,4267,
1228,1228,1228,1228,1228,1228,1228,1228,1228,1228,1228,1228,1228,1228,1228,1228,
11632,11632,11632,11632,6762,6763,6762,6763,6762,6763,6762,6763,6762,6763,6762,6763,
11632,11632,11632,11632,6778,6779,6778,6779,6778,6779,6778,6779,6778,6779,6778,6779,
11632,11632,11632,11632,6794,6795,6794,6795,6794,6795,6794,6795,6794,6795,6794,6795,
11632,11632,11632,11632,6762,6763,6762,6763,6762,6763,6762,6763,6762,6763,6762,6763
</chunk>
      <chunk x="272" y="64" width="16" height="16">
4364,4364,4364,4364,4364,4364,4364,4364,4364,4364,4364,4364,4364,4364,4364,4364,
4364,4364,4364,4364,4364,4364,4364,4364,4364,4364,4364,4364,4364,4364,4364,4364,
4364,4364,4364,4364,4364,4364,4364,4364,4364,4364,4364,4364,4364,4364,4364,4364,
4364,4364,4364,4364,4364,4364,4364,4364,4364,4364,4364,4364,4364,4364,4364,4364,
4364,4364,4364,4364,4364,4364,4364,4364,4364,4364,4364,4364,4364,4364,4364,4364,
4364,4364,4364,4364,4364,4364,4364,4364,4364,4364,4364,4364,4364,4364,4364,4364,
4364,4364,4364,4364,4364,4364,4364,4364,4364,4364,4364,4364,4364,4364,4364,4364,
4364,4364,4364,4364,4364,4364,4364,4364,4364,4364,4364,4364,4364,4364,4364,4364,
4364,4364,4364,4364,4364,4364,4364,4364,4364,4364,4364,4364,4364,4364,4364,4364,
4364,4364,4364,4364,4364,4364,4364,4364,4364,4364,4364,4364,4364,4364,4364,4364,
4267,4267,4267,4267,4267,4267,4267,4267,4267,4267,4267,4267,4267,4267,4267,4267,
1228,1228,1228,1228,1228,1228,1228,1228,1228,1228,1228,1228,1228,1228,1228,1228,
6762,6763,6762,6763,6762,6763,6762,6763,6762,6763,6762,6763,6762,6763,6762,6763,
6778,6779,6778,6779,6778,6779,6778,6779,6778,6779,6778,6779,6778,6779,6778,6779,
6794,6795,6794,6795,6794,6795,6794,6795,6794,6795,6794,6795,6794,6795,6794,6795,
6762,6763,6762,6763,6762,6763,6762,6763,6762,6763,6762,6763,6762,6763,6762,6763
</chunk>
      <chunk x="288" y="64" width="16" height="16">
4364,4171,6762,6763,6762,6763,6762,6763,6762,6763,6762,6763,6762,6763,6762,6763,
4364,4171,6778,6779,6778,6779,6778,6779,6778,6779,6778,6779,6778,6779,6778,6779,
4364,4171,6794,6795,6794,6795,6794,6795,6794,6795,6794,6795,6794,6795,6794,6795,
4364,4171,6762,6763,6762,6763,6762,6763,6762,6763,6762,6763,6762,6763,6762,6763,
4364,4171,6778,6779,6778,6779,6778,6779,6778,6779,6778,6779,6778,6779,6778,6779,
4364,4171,6794,6795,6794,6795,6794,6795,6794,6795,6794,6795,6794,6795,6794,6795,
4364,4171,6762,6763,6762,6763,6762,6763,6762,6763,6762,6763,6762,6763,6762,6763,
4364,4171,6778,6779,6778,6779,6778,6779,6778,6779,6778,6779,6778,6779,6778,6779,
4364,4171,6794,6795,6794,6795,6794,6795,6794,6795,6794,6795,6794,6795,6794,6795,
4364,4171,6762,6763,6762,6763,6762,6763,6762,6763,6762,6763,6762,6763,6762,6763,
4267,4269,6778,6779,6778,6779,6778,6779,6778,6779,6778,6779,6778,6779,6778,6779,
1228,1228,6794,6795,6794,6795,6794,6795,6794,6795,6794,6795,6794,6795,6794,6795,
6762,6763,6762,6763,6762,6763,6762,6763,6762,6763,6762,6763,6762,6763,6762,6763,
6778,6779,6778,6779,6778,6779,6778,6779,6778,6779,6778,6779,6778,6779,6778,6779,
6794,6795,6794,6795,6794,6795,6794,6795,6794,6795,6794,6795,6794,6795,6794,6795,
6762,6763,6762,6763,6762,6763,6762,6763,6762,6763,6762,6763,6762,6763,6762,6763
</chunk>
      <chunk x="304" y="64" width="16" height="16">
6762,6763,6762,6763,6762,6763,6762,6763,6762,6763,6762,6763,6762,6763,6762,6763,
6778,6779,6778,6779,6778,6779,6778,6779,6778,6779,6778,6779,6778,6779,6778,6779,
6794,6795,6794,6795,6794,6795,6794,6795,6794,6795,6794,6795,6794,6795,6794,6795,
6762,6763,6762,6763,6762,6763,6762,6763,6762,6763,6762,6763,6762,6763,6762,6763,
6778,6779,6778,6779,6778,6779,6778,6779,6778,6779,6778,6779,6778,6779,6778,6779,
6794,6795,6794,6795,6794,6795,6794,6795,6794,6795,6794,6795,6794,6795,6794,6795,
6762,6763,6762,6763,6762,6763,6762,6763,6762,6763,6762,6763,6762,6763,6762,6763,
6778,6779,6778,6779,6778,6779,6778,6779,6778,6779,6778,6779,6778,6779,6778,6779,
6794,6795,6794,6795,6794,6795,6794,6795,6794,6795,6794,6795,6794,6795,6794,6795,
6762,6763,6762,6763,6762,6763,6762,6763,6762,6763,6762,6763,6762,6763,6762,6763,
6778,6779,6778,6779,6778,6779,6778,6779,6778,6779,6778,6779,6778,6779,6778,6779,
6794,6795,6794,6795,6794,6795,6794,6795,6794,6795,6794,6795,6794,6795,6794,6795,
6762,6763,6762,6763,6762,6763,6762,6763,6762,6763,6762,6763,6762,6763,6762,6763,
6778,6779,6778,6779,6778,6779,6778,6779,6778,6779,6778,6779,6778,6779,6778,6779,
6794,6795,6794,6795,6794,6795,6794,6795,6794,6795,6794,6795,6794,6795,6794,6795,
6762,6763,6762,6763,6762,6763,6762,6763,6762,6763,6762,6763,6762,6763,6762,6763
</chunk>
      <chunk x="0" y="80" width="16" height="16">
6778,6779,6778,6779,6778,6779,6778,6779,6778,6779,6778,6779,6778,6779,6778,6779,
6794,6795,6794,6795,6794,6795,6794,6795,6794,6795,6794,6795,6794,6795,6794,6795,
6762,6763,6762,6763,6762,6763,6762,6763,6762,6763,6762,6763,6762,6763,6762,6763,
6778,6779,6778,6779,6778,6779,6778,6779,6778,6779,6778,6779,6778,6779,6778,6779,
6794,6795,6794,6795,6794,6795,6794,6795,6794,6795,6794,6795,6794,6795,6794,6795,
6762,6763,6762,6763,6762,6763,6762,6763,6762,6763,6762,6763,6762,6763,6762,6763,
6778,6779,6778,6779,6778,6779,6778,6779,6778,6779,6778,6779,6778,6779,6778,6779,
6794,6795,6794,6795,6794,6795,6794,6795,6794,6795,6794,6795,6794,6795,6794,6795,
6762,6763,6762,6763,6762,6763,6762,6763,6762,6763,6762,6763,6762,6763,6762,6763,
6778,6779,6778,6779,6778,6779,6778,6779,6778,6779,6778,6779,6778,6779,6778,6779,
6794,6795,6794,6795,6794,6795,6794,6795,6794,6795,6794,6795,6794,6795,6794,6795,
6762,6763,6762,6763,6762,6763,6762,6763,6762,6763,6762,6763,6762,6763,6762,6763,
6778,6779,6778,6779,6778,6779,6778,6779,6778,6779,6778,6779,6778,6779,6778,6779,
6794,6795,6794,6795,6794,6795,6794,6795,6794,6795,6794,6795,6794,6795,6794,6795,
6762,6763,6762,6763,6762,6763,6762,6763,6762,6763,6762,6763,6762,6763,6762,6763,
6778,6779,6778,6779,6778,6779,6778,6779,6778,6779,6778,6779,6778,6779,6778,6779
</chunk>
      <chunk x="16" y="80" width="16" height="16">
6778,6779,6778,6779,6778,6779,6778,6779,6778,6779,6778,6779,6778,6779,6778,6779,
6794,6795,6794,6795,6794,6795,6794,6795,6794,6795,6794,6795,6794,6795,6794,6795,
6762,6763,6762,6763,6762,6763,6762,6763,6762,6763,6762,6763,6762,6763,6762,6763,
6778,6779,6778,6779,6778,6779,6778,6779,6778,6779,6778,6779,6778,6779,6778,6779,
6794,6795,6794,6795,6794,6795,6794,6795,6794,6795,6794,6795,6794,6795,6794,6795,
6762,6763,6762,6763,6762,6763,6762,6763,6762,6763,6762,6763,6762,6763,6762,6763,
6778,6779,6778,6779,6778,6779,6778,6779,6778,6779,6778,6779,6778,6779,6778,6779,
6794,6795,6794,6795,6794,6795,6794,6795,6794,6795,6794,6795,6794,6795,6794,6795,
6762,6763,6762,6763,6762,6763,6762,6763,6762,6763,6762,6763,6762,6763,6762,6763,
6778,6779,6778,6779,6778,6779,6778,6779,6778,6779,6778,6779,6778,6779,6778,6779,
6794,6795,6794,6795,6794,6795,6794,6795,6794,6795,6794,6795,6794,6795,6794,6795,
6762,6763,6762,6763,6762,6763,6762,6763,6762,6763,6762,6763,6762,6763,6762,6763,
6778,6779,6778,6779,6778,6779,6778,6779,6778,6779,6778,6779,6778,6779,6778,6779,
6794,6795,6794,6795,6794,6795,6794,6795,6794,6795,6794,6795,6794,6795,6794,6795,
6762,6763,6762,6763,6762,6763,6762,6763,6762,6763,6762,6763,6762,6763,6762,6763,
6778,6779,6778,6779,6778,6779,6778,6779,6778,6779,6778,6779,6778,6779,6778,6779
</chunk>
      <chunk x="32" y="80" width="16" height="16">
6778,6779,6778,6779,6778,6779,6778,6779,6778,6779,6778,6779,6778,6779,6778,6779,
6794,6795,6794,6795,6794,6795,6794,6795,6794,6795,6794,6795,6794,6795,6794,6795,
6762,6763,6762,6763,6762,6763,6762,6763,6762,6763,6762,6763,6762,6763,6762,6763,
6778,6779,6778,6779,6778,6779,6778,6779,6778,6779,6778,6779,6778,6779,6778,6779,
6794,6795,6794,6795,6794,6795,6794,6795,6794,6795,6794,6795,6794,6795,6794,6795,
6762,6763,6762,6763,6762,6763,6762,6763,6762,6763,6762,6763,6762,6763,6762,6763,
6778,6779,6778,6779,6778,6779,6778,6779,6778,6779,6778,6779,6778,6779,6778,6779,
6794,6795,6794,6795,6794,6795,6794,6795,6794,6795,6794,6795,6794,6795,6794,6795,
6762,6763,6762,6763,6762,6763,6762,6763,6762,6763,6762,6763,6762,6763,6762,6763,
6778,6779,6778,6779,6778,6779,6778,6779,6778,6779,6778,6779,6778,6779,6778,6779,
6794,6795,6794,6795,6794,6795,6794,6795,6794,6795,6794,6795,6794,6795,6794,6795,
6762,6763,6762,6763,6762,6763,6762,6763,6762,6763,6762,6763,6762,6763,6762,6763,
6778,6779,6778,6779,6778,6779,6778,6779,6778,6779,6778,6779,6778,6779,6778,6779,
6794,6795,6794,6795,6794,6795,6794,6795,6794,6795,6794,6795,6794,6795,6794,6795,
6762,6763,6762,6763,6762,6763,6762,6763,6762,6763,6762,6763,6762,6763,6762,6763,
6778,6779,6778,6779,6778,6779,6778,6779,6778,6779,6778,6779,6778,6779,6778,6779
</chunk>
      <chunk x="48" y="80" width="16" height="16">
6778,6779,11599,11599,11599,11599,11599,11599,11599,11599,11599,11599,11599,11599,11599,11599,
6794,6795,11599,11599,11599,11599,11599,11599,11599,11599,11599,11599,11599,11599,11599,11599,
6762,6763,11599,11599,11599,11599,11599,11599,11599,11599,11599,11599,11599,11599,11599,11599,
6778,6779,11599,11599,11599,11599,11599,11599,11599,11599,11599,11599,11599,11599,11599,11599,
6794,6795,11599,11599,11599,11599,11599,11599,11599,11599,11599,11599,11599,11599,11599,11599,
6762,6763,11599,11599,11599,11599,11599,11599,11599,11599,11599,11599,11599,11599,11599,11599,
6778,6779,11599,11599,11599,11599,11599,11599,11599,11599,11599,11599,11599,11599,11599,11599,
6794,6795,11599,11599,11599,11599,11599,11599,11599,11599,11599,11599,11599,11599,11599,11599,
6762,6763,11599,11599,11599,11599,11599,11599,11599,11599,11599,11599,11599,11599,11599,11599,
6778,6779,11599,11599,11599,11599,11599,11599,11599,11599,11599,11599,11599,11599,11599,11599,
6794,6795,11599,11599,11599,11599,11599,11599,11599,11599,11599,11599,11599,11599,11599,11599,
6762,6763,11599,11599,11599,11599,11599,11599,11599,11599,11599,11599,11599,11599,11599,11599,
6778,6779,11599,11599,11599,11599,11599,11599,11599,11599,11599,11599,11599,11599,11599,11599,
6794,6795,11599,11599,11599,11599,11599,11599,11599,11599,11599,11599,11599,11599,11599,11599,
6762,6763,11599,11599,11599,11599,11599,11599,11599,11599,11599,11599,11599,11599,11599,11599,
6778,6779,11599,11599,11599,11599,11599,11599,11599,11599,11599,11599,11599,11599,11599,11599
</chunk>
      <chunk x="64" y="80" width="16" height="16">
11599,11599,11599,11599,11599,11599,11599,11599,11599,11599,11599,11599,11599,11599,11599,11599,
11599,11599,11599,11599,11599,11599,11599,11599,11599,11599,11599,11599,11599,11599,11599,11599,
11599,11599,11599,11599,11599,11599,11599,11599,11599,11599,11599,11599,11599,11599,11599,11599,
11599,11599,11599,11599,11599,11599,11599,11599,11599,11599,11599,11599,11599,11599,11599,11599,
11599,11599,11599,11599,11599,11599,11599,11599,11599,11599,11599,11599,11599,11599,11599,11599,
11599,11599,11599,11599,11599,11599,11599,11599,11599,11599,11599,11599,11599,11599,11599,11599,
11599,11599,11599,11599,11599,11599,11599,11599,11599,11599,11599,11599,11599,11599,11599,11599,
11599,11599,11599,11599,11599,11599,11599,11599,11599,11599,11599,11599,11599,11599,11599,11599,
11599,11599,11599,11599,11599,11599,11599,11599,11599,11599,11599,11599,11599,11599,11599,11599,
11599,11599,11599,11599,11599,11599,11599,11599,11599,11599,11599,11599,11599,11599,11599,11599,
11599,11599,11599,11599,11599,11599,11599,11599,11599,11599,11599,11599,11599,11599,11599,11599,
11599,11599,11599,11599,11599,11599,11599,11599,11599,11599,11599,11599,11599,11599,11599,11599,
11599,11599,11599,11599,11599,11599,11599,11599,11599,11599,11599,11599,11599,11599,11599,11599,
11599,11599,11599,11599,11599,11599,11599,11599,11599,11599,11599,11599,11599,11599,11599,11599,
11599,11599,11599,11599,11599,11599,11599,11599,11599,11599,11599,11599,11599,11599,11599,11599,
11599,11599,11599,11599,11599,11599,11599,11599,11599,11599,11599,11599,11599,11599,11599,11599
</chunk>
      <chunk x="80" y="80" width="16" height="16">
11599,11599,11599,11599,11599,11599,11599,11599,11599,11599,11599,11599,11599,11599,11599,11599,
11599,11599,11599,11599,11599,11599,11599,11599,11599,11599,11599,11599,11599,11599,11599,11599,
11599,11599,11599,11599,11599,11599,11599,11599,11599,11599,11599,11599,11599,11599,11599,11599,
11599,11599,11599,11599,11599,11599,11599,11599,11599,11599,11599,11599,11599,11599,11599,11599,
11599,11599,11599,11599,11599,11599,11599,11599,11599,11599,11599,11599,11599,11599,11599,11599,
11599,11599,11599,11599,11599,11599,11599,11599,11599,11599,11599,11599,11599,11599,11599,11599,
11599,11599,11599,11599,11599,11599,11599,11599,11599,11599,11599,11599,11599,11599,11599,11599,
11599,11599,11599,11599,11599,11599,11599,11599,11599,11599,11599,11599,11599,11599,11599,11599,
11599,11599,11599,11599,11599,11599,11599,11599,11599,11599,11599,11599,11599,11599,11599,11599,
11599,11599,11599,11599,11599,11599,11599,11599,11599,11599,11599,11599,11599,11599,11599,11599,
11599,11599,11599,11599,11599,11599,11599,11599,11599,11599,11599,11599,11599,11599,11599,11599,
11599,11599,11599,11599,11599,11599,11599,11599,11599,11599,11599,11599,11599,11599,11599,11599,
11599,11599,11599,11599,11599,11599,11599,11599,11599,11599,11599,11599,11599,11599,11599,11599,
11599,11599,11599,11599,11599,11599,11599,11599,11599,11599,11599,11599,11599,11599,11599,11599,
11599,11599,11599,11599,11599,11599,11599,11599,11599,11599,11599,11599,11599,11599,11599,11599,
11599,11599,11599,11599,11599,11599,11599,11599,11599,11599,11599,11599,11599,11599,11599,11599
</chunk>
      <chunk x="96" y="80" width="16" height="16">
11599,11599,11599,11599,11599,11599,11599,11599,11599,11599,11599,11599,11599,11599,11599,11599,
11599,11599,11599,11599,11599,11599,11599,11599,11599,11599,11599,11599,11599,11599,11599,11599,
11599,11599,11599,11599,11599,11599,11599,11599,11599,11599,11599,11599,11599,11599,11599,11599,
11599,11599,11599,11599,11599,11599,11599,11599,11599,11599,11599,11599,11599,11599,11599,11599,
11599,11599,11599,11599,11599,11599,11599,11599,11599,11599,11599,11599,11599,11599,11599,11599,
11599,11599,11599,11599,11599,11599,11599,11599,11599,11599,11599,11599,11599,11599,11599,11599,
11599,11599,11599,11599,11599,11599,11599,11599,11599,11599,11599,11599,11599,11599,11599,11599,
11599,11599,11599,11599,11599,11599,11599,11599,11599,11599,11599,11599,11599,11599,11599,11599,
11599,11599,11599,11599,11599,11599,11599,11599,11599,11599,11599,11599,11599,11599,11599,11599,
11599,11599,11599,11599,11599,11599,11599,11599,11599,11599,11599,11599,11599,11599,11599,11599,
11599,11599,11599,11599,11599,11599,11599,11599,11599,11599,11599,11599,11599,11599,11599,11599,
11599,11599,11599,11599,11599,11599,11599,11599,11599,11599,11599,11599,11599,11599,11599,11599,
11599,11599,11599,11599,11599,11599,11599,11599,11599,11599,11599,11599,11599,11599,11599,11599,
11599,11599,11599,11599,11599,11599,11599,11599,11599,11599,11599,11599,11599,11599,11599,11599,
11599,11599,11599,11599,11599,11599,11599,11599,11599,11599,11599,11599,11599,11599,11599,11599,
11599,11599,11599,11599,11599,11599,11599,11599,11599,11599,11599,11599,11599,11599,11599,11599
</chunk>
      <chunk x="112" y="80" width="16" height="16">
11599,11599,11599,11599,11599,11599,11599,6731,4167,4364,4364,4364,4364,4364,4364,4364,
11599,11599,11599,11599,11599,11599,11599,6747,4167,4364,4364,4364,4364,4364,4364,4364,
11599,11599,11599,11599,11599,11599,11599,6715,4167,4364,4364,4364,4364,4364,4364,4364,
11599,11599,11599,11599,11599,11599,11599,6731,4167,4364,4364,4364,4364,4364,4364,4364,
11599,11599,11599,11599,11599,11599,11599,6747,4167,4364,4364,4364,4364,4364,4364,4364,
11599,11599,11599,11599,11599,11599,11599,6715,4167,4364,4364,4364,4364,4364,4364,4364,
11599,11599,11599,11599,11599,11599,11599,6731,4167,4364,4364,4364,4364,4364,4364,4364,
11599,11599,11599,11599,11599,11599,11599,6747,4167,4364,4364,4364,4364,4364,4364,4364,
11599,11599,11599,11599,11599,11599,11599,6715,4167,4364,4364,4364,4364,4364,4364,4364,
11599,11599,11599,11599,11599,11599,11599,6731,4167,4364,4364,4364,4364,4364,4364,4364,
11599,11599,11599,11599,11599,11599,11599,6747,4167,4364,4364,4364,4364,4364,4364,4364,
11599,11599,11599,11599,11599,11599,11599,6715,4167,4364,4364,4364,4364,4364,4364,4364,
11599,11599,11599,11599,11599,11599,11599,6731,4167,4364,4364,4364,4364,4364,4364,4364,
11599,11599,11599,11599,11599,11599,11599,6747,4167,4364,4364,4364,4364,4364,4364,4364,
11599,11599,11599,11599,11599,11599,11599,6715,4167,4364,4364,4364,4364,4364,4364,4364,
11599,11599,11599,11599,11599,11599,11599,6731,4167,4364,4364,4364,4364,4364,4364,4364
</chunk>
      <chunk x="128" y="80" width="16" height="16">
4364,4364,4364,4364,4364,4364,4364,4364,4364,4364,4364,4364,4364,4364,4364,4364,
4364,4364,4364,4364,4364,4364,4364,4364,4364,4364,4364,4364,4364,4364,4364,4364,
4364,4364,4364,4364,4364,4364,4364,4364,4364,4364,4364,4364,4364,4364,4364,4364,
4364,4364,4364,4364,4364,4364,4364,4364,4364,4364,4364,4364,4364,4364,4364,4364,
4364,4364,4364,4364,4364,4364,4364,4364,4364,4364,4364,4364,4364,4364,4364,4364,
4364,4364,4364,4364,4364,4364,4364,4364,4364,4364,4364,4364,4364,4364,4364,4364,
4364,4364,4364,4364,4364,4364,4364,4364,4364,4364,4364,4364,4364,4364,4364,4364,
4364,4364,4364,4364,4364,4364,4364,4364,4364,4364,4364,4364,4364,4364,4364,4364,
4364,4364,4364,4364,4364,4364,4364,4364,4364,4364,4364,4364,4364,4364,4364,4364,
4364,4364,4364,4364,4364,4364,4364,4364,4364,4364,4364,4364,4364,4364,4364,4364,
4364,4364,4364,4364,4364,4364,4364,4364,4364,4364,4364,4364,4364,4364,4364,4364,
4364,4364,4364,4364,4364,4364,4364,4364,4364,4364,4364,4364,4364,4364,4364,4364,
4364,4364,4364,4364,4364,4364,4364,4364,4364,4364,4364,4364,4364,4364,4364,4364,
4364,4364,4364,4364,4364,4364,4364,4364,4364,4364,4364,4364,4364,4364,4364,4364,
4364,4364,4364,4364,4364,4364,4364,4364,4364,4364,4364,4364,4364,4364,4364,4364,
4364,4364,4364,4364,4364,4364,4364,4364,4364,4364,4364,4364,4364,4364,4364,4364
</chunk>
      <chunk x="144" y="80" width="16" height="16">
4364,4364,4364,4364,4364,4364,4364,4364,4364,8694,8842,8842,8698,4364,4364,4364,
4364,4364,4364,4364,4364,4364,4364,4364,4364,8694,8842,8842,8698,4364,4364,4364,
4364,4364,4364,4364,4364,4364,4364,4364,4364,8694,8842,8842,8698,4364,4364,4364,
4364,4364,4364,4364,4364,4364,4364,4364,4364,8694,8842,8842,8698,4364,4364,4364,
4364,4364,4364,4364,4364,4364,4364,4364,4364,8694,8842,8842,8698,4364,4364,4364,
4364,4364,4364,4364,4364,4364,4364,4364,4364,8694,8842,8842,8698,4364,4364,4364,
4364,4364,4364,4364,4364,4364,4364,4364,4364,8694,8842,8842,8698,4364,4364,4364,
4364,4364,4364,4364,4364,4364,4364,4364,4364,8694,8842,8842,8698,4364,4364,4364,
4364,4364,4364,4364,4364,4364,4364,4364,4364,8694,8842,8842,8698,4364,4364,4364,
4364,4364,4364,4364,4364,4364,4364,4364,4364,8694,8842,8842,8698,4364,4364,4364,
4364,4364,4364,4364,4364,4364,4364,4364,4364,8694,8842,8842,8698,4364,4364,4364,
4364,4364,4364,4364,4364,4364,4364,4364,4364,8694,8842,8842,8698,4364,4364,4364,
4364,4364,4364,4364,4364,4364,4364,4364,4364,8694,8842,8842,8698,4364,4364,4364,
4364,4364,4364,4364,4364,4364,4364,4364,4364,8694,8842,8842,8698,4364,4364,4364,
4364,4364,4364,4364,4364,4364,4364,4364,4364,8694,8842,8842,8698,4364,4364,4364,
4364,4364,4364,4364,4364,4364,4364,4364,4364,8694,8842,8842,8698,4364,4364,4364
</chunk>
      <chunk x="160" y="80" width="16" height="16">
4364,4364,4364,4364,4364,4364,4364,4364,4364,4364,4364,4364,4364,4364,4364,4364,
4364,4364,4364,4364,4364,4364,4364,4364,4364,4364,4364,4364,4364,4364,4364,4364,
4364,4364,4364,4364,4364,4364,4364,4364,4364,4364,4364,4364,4364,4364,4364,4364,
4364,4364,4364,4364,4364,4364,4364,4364,4364,4364,4364,4364,4364,4364,4364,4364,
4364,4364,4364,4364,4364,4364,4364,4364,4364,4364,4364,4364,4364,4364,4364,4364,
4364,4364,4364,4364,4364,4364,4364,4364,4364,4364,4364,4364,4364,4364,4364,4364,
4364,4364,4364,4364,4364,4364,4364,4364,4364,4364,4364,4364,4364,4364,4364,4364,
4364,4364,4364,4364,4364,4364,4364,4364,4364,4364,4364,4364,4364,4364,4364,4364,
4364,4364,4364,4364,4364,4364,4364,4364,4364,4364,4364,4364,4364,4364,4364,4364,
4364,4364,4364,4364,4364,4364,4364,4364,4364,4364,4364,4364,4364,4364,4364,4364,
4364,4364,4364,4364,4364,4364,4364,4364,4364,4364,4364,4364,4364,4364,4364,4364,
4364,4364,4364,4364,4364,4364,4364,4364,4364,4364,4364,4364,4364,4364,4364,4364,
4364,4364,4364,4364,4364,4364,4364,4364,4364,4364,4364,4364,4364,4364,4364,4364,
4364,4364,4364,4364,4364,4364,4364,4364,4364,4364,4364,4364,4364,4364,4364,4364,
4364,4364,4364,4364,4364,4364,4364,4364,4364,4364,4364,4364,4364,4364,4364,4364,
4364,4364,4364,4364,4364,4364,4364,4364,4364,4364,4364,4364,4364,4364,4364,4364
</chunk>
      <chunk x="176" y="80" width="16" height="16">
4364,4364,4364,4364,4364,4364,4364,4364,4364,4364,4364,4364,4364,4171,6730,11632,
4364,4364,4364,4364,4364,4364,4364,4364,4364,4364,4364,4364,4364,4171,6746,11632,
4364,4364,4364,4364,4364,4364,4364,4364,4364,4364,4364,4364,4364,4171,6714,11632,
4364,4364,4364,4364,4364,4364,4364,4364,4364,4364,4364,4364,4364,4171,6730,11632,
4364,4364,4364,4364,4364,4364,4364,4364,4364,4364,4364,4364,4364,4171,6746,11632,
4364,4364,4364,4364,4364,4364,4364,4364,4364,4364,4364,4364,4364,4171,6714,11632,
4364,4364,4364,4364,4364,4364,4364,4364,4364,4364,4364,4364,4364,4171,6730,11632,
4364,4364,4364,4364,4364,4364,4364,4364,4364,4364,4364,4364,4364,4171,6746,11632,
4364,4364,4364,4364,4364,4364,4364,4364,4364,4364,4364,4364,4364,4171,6714,11632,
4364,4364,4364,4364,4364,4364,4364,4364,4364,4364,4364,4364,4364,4171,6730,11632,
4364,4364,4364,4364,4364,4364,4364,4364,4364,4364,4364,4364,4364,4171,6746,11632,
4364,4364,4364,4364,4364,4364,4364,4364,4364,4364,4364,4364,4364,4171,6714,11632,
4364,4364,4364,4364,4364,4364,4364,4364,4364,4364,4364,4364,4364,4171,6730,11632,
4364,4364,4364,4364,4364,4364,4364,4364,4364,4364,4364,4364,4364,4171,6746,11632,
4364,4364,4364,4364,4364,4364,4364,4364,4364,4364,4364,4364,4364,4171,6714,11632,
4364,4364,4364,4364,4364,4364,4364,4364,4364,4364,4364,4364,4364,4171,6730,11632
</chunk>
      <chunk x="192" y="80" width="16" height="16">
11632,11632,11632,11632,11632,11632,11632,11632,11632,11632,11632,11632,11632,11632,11632,11632,
11632,11632,11632,11632,11632,11632,11632,11632,11632,11632,11632,11632,11632,11632,11632,11632,
11632,11632,11632,11632,11632,11632,11632,11632,11632,11632,11632,11632,11632,11632,11632,11632,
11632,11632,11632,11632,11632,11632,11632,11632,11632,11632,11632,11632,11632,11632,11632,11632,
11632,11632,11632,11632,11632,11632,11632,11632,11632,11632,11632,11632,11632,11632,11632,11632,
11632,11632,11632,11632,11632,11632,11632,11632,11632,11632,11632,11632,11632,11632,11632,11632,
11632,11632,11632,11632,11632,11632,11632,11632,11632,11632,11632,11632,11632,11632,11632,11632,
11632,11632,11632,11632,11632,11632,11632,11632,11632,11632,11632,11632,11632,11632,11632,11632,
11632,11632,11632,11632,11632,11632,11632,11632,11632,11632,11632,11632,11632,11632,11632,11632,
11632,11632,11632,11632,11632,11632,11632,11632,11632,11632,11632,11632,11632,11632,11632,11632,
11632,11632,11632,11632,11632,11632,11632,11632,11632,11632,11632,11632,11632,11632,11632,11632,
11632,11632,11632,11632,11632,11632,11632,11632,11632,11632,11632,11632,11632,11632,11632,11632,
11632,11632,11632,11632,11632,11632,11632,11632,11632,11632,11632,11632,11632,11632,11632,11632,
11632,11632,11632,11632,11632,11632,11632,11632,11632,11632,11632,11632,11632,11632,11632,11632,
11632,11632,11632,11632,11632,11632,11632,11632,11632,11632,11632,11632,11632,11632,11632,11632,
11632,11632,11632,11632,11632,11632,11632,11632,11632,11632,11632,11632,11632,11632,11632,11632
</chunk>
      <chunk x="208" y="80" width="16" height="16">
11632,11632,11632,11632,11632,11632,11632,11632,11632,11632,11632,11632,11632,11632,11632,11632,
11632,11632,11632,11632,11632,11632,11632,11632,11632,11632,11632,11632,11632,11632,11632,11632,
11632,11632,11632,11632,11632,11632,11632,11632,11632,11632,11632,11632,11632,11632,11632,11632,
11632,11632,11632,11632,11632,11632,11632,11632,11632,11632,11632,11632,11632,11632,11632,11632,
11632,11632,11632,11632,11632,11632,11632,11632,11632,11632,11632,11632,11632,11632,11632,11632,
11632,11632,11632,11632,11632,11632,11632,11632,11632,11632,11632,11632,11632,11632,11632,11632,
11632,11632,11632,11632,11632,11632,11632,11632,11632,11632,11632,11632,11632,11632,11632,11632,
11632,11632,11632,11632,11632,11632,11632,11632,11632,11632,11632,11632,11632,11632,11632,11632,
11632,11632,11632,11632,11632,11632,11632,11632,11632,11632,11632,11632,11632,11632,11632,11632,
11632,11632,11632,11632,11632,11632,11632,11632,11632,11632,11632,11632,11632,11632,11632,11632,
11632,11632,11632,11632,11632,11632,11632,11632,11632,11632,11632,11632,11632,11632,11632,11632,
11632,11632,11632,11632,11632,11632,11632,11632,11632,11632,11632,11632,11632,11632,11632,11632,
11632,11632,11632,11632,11632,11632,11632,11632,11632,11632,11632,11632,11632,11632,11632,11632,
11632,11632,11632,11632,11632,11632,11632,11632,11632,11632,11632,11632,11632,11632,11632,11632,
11632,11632,11632,11632,11632,11632,11632,11632,11632,11632,11632,11632,11632,11632,11632,11632,
11632,11632,11632,11632,11632,11632,11632,11632,11632,11632,11632,11632,11632,11632,11632,11632
</chunk>
      <chunk x="224" y="80" width="16" height="16">
11632,11632,11632,11632,11632,11632,11632,11632,11632,11632,11632,11632,11632,11632,11632,11632,
11632,11632,11632,11632,11632,11632,11632,11632,11632,11632,11632,11632,11632,11632,11632,11632,
11632,11632,11632,11632,11632,11632,11632,11632,11632,11632,11632,11632,11632,11632,11632,11632,
11632,11632,11632,11632,11632,11632,11632,11632,11632,11632,11632,11632,11632,11632,11632,11632,
11632,11632,11632,11632,11632,11632,11632,11632,11632,11632,11632,11632,11632,11632,11632,11632,
11632,11632,11632,11632,11632,11632,11632,11632,11632,11632,11632,11632,11632,11632,11632,11632,
11632,11632,11632,11632,11632,11632,11632,11632,11632,11632,11632,11632,11632,11632,11632,11632,
11632,11632,11632,11632,11632,11632,11632,11632,11632,11632,11632,11632,11632,11632,11632,11632,
11632,11632,11632,11632,11632,11632,11632,11632,11632,11632,11632,11632,11632,11632,11632,11632,
11632,11632,11632,11632,11632,11632,11632,11632,11632,11632,11632,11632,11632,11632,11632,11632,
11632,11632,11632,11632,11632,11632,11632,11632,11632,11632,11632,11632,11632,11632,11632,11632,
11632,11632,11632,11632,11632,11632,11632,11632,11632,11632,11632,11632,11632,11632,11632,11632,
11632,11632,11632,11632,11632,11632,11632,11632,11632,11632,11632,11632,11632,11632,11632,11632,
11632,11632,11632,11632,11632,11632,11632,11632,11632,11632,11632,11632,11632,11632,11632,11632,
11632,11632,11632,11632,11632,11632,11632,11632,11632,11632,11632,11632,11632,11632,11632,11632,
11632,11632,11632,11632,11632,11632,11632,11632,11632,11632,11632,11632,11632,11632,11632,11632
</chunk>
      <chunk x="240" y="80" width="16" height="16">
11632,11632,11632,11632,11632,11632,11632,11632,11632,11632,11632,11632,11632,11632,11632,11632,
11632,11632,11632,11632,11632,11632,11632,11632,11632,11632,11632,11632,11632,11632,11632,11632,
11632,11632,11632,11632,11632,11632,11632,11632,11632,11632,11632,11632,11632,11632,11632,11632,
11632,11632,11632,11632,11632,11632,11632,11632,11632,11632,11632,11632,11632,11632,11632,11632,
11632,11632,11632,11632,11632,11632,11632,11632,11632,11632,11632,11632,11632,11632,11632,11632,
11632,11632,11632,11632,11632,11632,11632,11632,11632,11632,11632,11632,11632,11632,11632,11632,
11632,11632,11632,11632,11632,11632,11632,11632,11632,11632,11632,11632,11632,11632,11632,11632,
11632,11632,11632,11632,11632,11632,11632,11632,11632,11632,11632,11632,11632,11632,11632,11632,
11632,11632,11632,11632,11632,11632,11632,11632,11632,11632,11632,11632,11632,11632,11632,11632,
11632,11632,11632,11632,11632,11632,11632,11632,11632,11632,11632,11632,11632,11632,11632,11632,
11632,11632,11632,11632,11632,11632,11632,11632,11632,11632,11632,11632,11632,11632,11632,11632,
11632,11632,11632,11632,11632,11632,11632,11632,11632,11632,11632,11632,11632,11632,11632,11632,
11632,11632,11632,11632,11632,11632,11632,11632,11632,11632,11632,11632,11632,11632,11632,11632,
11632,11632,11632,11632,11632,11632,11632,11632,11632,11632,11632,11632,11632,11632,11632,11632,
11632,11632,11632,11632,11632,11632,11632,11632,11632,11632,11632,11632,11632,11632,11632,11632,
11632,11632,11632,11632,11632,11632,11632,11632,11632,11632,11632,11632,11632,11632,11632,11632
</chunk>
      <chunk x="256" y="80" width="16" height="16">
11632,11632,11632,11632,6778,6779,6778,6779,6778,6779,6778,6779,6778,6779,6778,6779,
11632,11632,11632,11632,6794,6795,6794,6795,6794,6795,6794,6795,6794,6795,6794,6795,
11632,11632,11632,11632,6762,6763,6762,6763,6762,6763,6762,6763,6762,6763,6762,6763,
11632,11632,11632,11632,6778,6779,6778,6779,6778,6779,6778,6779,6778,6779,6778,6779,
11632,11632,11632,11632,6794,6795,6794,6795,6794,6795,6794,6795,6794,6795,6794,6795,
11632,11632,11632,11632,6762,6763,6762,6763,6762,6763,6762,6763,6762,6763,6762,6763,
11632,11632,11632,11632,6778,6779,6778,6779,6778,6779,6778,6779,6778,6779,6778,6779,
11632,11632,11632,11632,6794,6795,6794,6795,6794,6795,6794,6795,6794,6795,6794,6795,
11632,11632,11632,11632,6762,6763,6762,6763,6762,6763,6762,6763,6762,6763,6762,6763,
11632,11632,11632,11632,6778,6779,6778,6779,6778,6779,6778,6779,6778,6779,6778,6779,
11632,11632,11632,11632,6794,6795,6794,6795,6794,6795,6794,6795,6794,6795,6794,6795,
11632,11632,11632,11632,6762,6763,6762,6763,6762,6763,6762,6763,6762,6763,6762,6763,
11632,11632,11632,11632,6778,6779,6778,6779,6778,6779,6778,6779,6778,6779,6778,6779,
11632,11632,11632,11632,6794,6795,6794,6795,6794,6795,6794,6795,6794,6795,6794,6795,
11632,11632,11632,11632,6762,6763,6762,6763,6762,6763,6762,6763,6762,6763,6762,6763,
11632,11632,11632,11632,6778,6779,6778,6779,6778,6779,6778,6779,6778,6779,6778,6779
</chunk>
      <chunk x="272" y="80" width="16" height="16">
6778,6779,6778,6779,6778,6779,6778,6779,6778,6779,6778,6779,6778,6779,6778,6779,
6794,6795,6794,6795,6794,6795,6794,6795,6794,6795,6794,6795,6794,6795,6794,6795,
6762,6763,6762,6763,6762,6763,6762,6763,6762,6763,6762,6763,6762,6763,6762,6763,
6778,6779,6778,6779,6778,6779,6778,6779,6778,6779,6778,6779,6778,6779,6778,6779,
6794,6795,6794,6795,6794,6795,6794,6795,6794,6795,6794,6795,6794,6795,6794,6795,
6762,6763,6762,6763,6762,6763,6762,6763,6762,6763,6762,6763,6762,6763,6762,6763,
6778,6779,6778,6779,6778,6779,6778,6779,6778,6779,6778,6779,6778,6779,6778,6779,
6794,6795,6794,6795,6794,6795,6794,6795,6794,6795,6794,6795,6794,6795,6794,6795,
6762,6763,6762,6763,6762,6763,6762,6763,6762,6763,6762,6763,6762,6763,6762,6763,
6778,6779,6778,6779,6778,6779,6778,6779,6778,6779,6778,6779,6778,6779,6778,6779,
6794,6795,6794,6795,6794,6795,6794,6795,0,0,0,0,0,0,0,0,
6762,6763,6762,6763,6762,6763,6762,6763,0,0,0,0,0,0,0,0,
6778,6779,6778,6779,6778,6779,6778,6779,0,0,0,0,0,0,0,0,
6794,6795,6794,6795,6794,6795,6794,6795,0,0,0,0,0,0,0,0,
6762,6763,6762,6763,6762,6763,6762,6763,0,0,0,0,0,0,0,0,
6778,6779,6778,6779,6778,6779,6778,6779,0,0,0,0,0,0,0,0
</chunk>
      <chunk x="288" y="80" width="16" height="16">
6778,6779,6778,6779,6778,6779,6778,6779,6778,6779,6778,6779,6778,6779,6778,6779,
6794,6795,6794,6795,6794,6795,6794,6795,6794,6795,6794,6795,6794,6795,6794,6795,
6762,6763,6762,6763,6762,6763,6762,6763,6762,6763,6762,6763,6762,6763,6762,6763,
6778,6779,6778,6779,6778,6779,6778,6779,6778,6779,6778,6779,6778,6779,6778,6779,
6794,6795,6794,6795,6794,6795,6794,6795,6794,6795,6794,6795,6794,6795,6794,6795,
6762,6763,6762,6763,6762,6763,6762,6763,6762,6763,6762,6763,6762,6763,6762,6763,
6778,6779,6778,6779,6778,6779,6778,6779,6778,6779,6778,6779,6778,6779,6778,6779,
6794,6795,6794,6795,6794,6795,6794,6795,6794,6795,6794,6795,6794,6795,6794,6795,
6762,6763,6762,6763,6762,6763,6762,6763,6762,6763,6762,6763,6762,6763,6762,6763,
6778,6779,6778,6779,6778,6779,6778,6779,6778,6779,6778,6779,6778,6779,6778,6779,
0,0,0,0,0,0,0,0,0,0,0,0,0,0,0,0,
0,0,0,0,0,0,0,0,0,0,0,0,0,0,0,0,
0,0,0,0,0,0,0,0,0,0,0,0,0,0,0,0,
0,0,0,0,0,0,0,0,0,0,0,0,0,0,0,0,
0,0,0,0,0,0,0,0,0,0,0,0,0,0,0,0,
0,0,0,0,0,0,0,0,0,0,0,0,0,0,0,0
</chunk>
      <chunk x="304" y="80" width="16" height="16">
6778,6779,6778,6779,6778,6779,6778,6779,6778,6779,6778,6779,6778,6779,6778,6779,
6794,6795,6794,6795,6794,6795,6794,6795,6794,6795,6794,6795,6794,6795,6794,6795,
6762,6763,6762,6763,6762,6763,6762,6763,6762,6763,6762,6763,6762,6763,6762,6763,
6778,6779,6778,6779,6778,6779,6778,6779,6778,6779,6778,6779,6778,6779,6778,6779,
6794,6795,6794,6795,6794,6795,6794,6795,6794,6795,6794,6795,6794,6795,6794,6795,
6762,6763,6762,6763,6762,6763,6762,6763,6762,6763,6762,6763,6762,6763,6762,6763,
6778,6779,6778,6779,6778,6779,6778,6779,6778,6779,6778,6779,6778,6779,6778,6779,
6794,6795,6794,6795,6794,6795,6794,6795,6794,6795,6794,6795,6794,6795,6794,6795,
6762,6763,6762,6763,6762,6763,6762,6763,6762,6763,6762,6763,6762,6763,6762,6763,
6778,6779,6778,6779,6778,6779,6778,6779,6778,6779,6778,6779,6778,6779,6778,6779,
0,0,0,0,0,0,0,0,0,0,0,0,0,0,0,0,
0,0,0,0,0,0,0,0,0,0,0,0,0,0,0,0,
0,0,0,0,0,0,0,0,0,0,0,0,0,0,0,0,
0,0,0,0,0,0,0,0,0,0,0,0,0,0,0,0,
0,0,0,0,0,0,0,0,0,0,0,0,0,0,0,0,
0,0,0,0,0,0,0,0,0,0,0,0,0,0,0,0
</chunk>
      <chunk x="0" y="96" width="16" height="16">
6794,6795,6794,6795,6794,6795,6794,6795,6794,6795,6794,6795,6794,6795,6794,6795,
6762,6763,6762,6763,6762,6763,6762,6763,6762,6763,6762,6763,6762,6763,6762,6763,
6778,6779,6778,6779,6778,6779,6778,6779,6778,6779,6778,6779,6778,6779,6778,6779,
6794,6795,6794,6795,6794,6795,6794,6795,6794,6795,6794,6795,6794,6795,6794,6795,
0,0,0,0,0,0,0,0,0,0,0,0,0,0,0,0,
0,0,0,0,0,0,0,0,0,0,0,0,0,0,0,0,
0,0,0,0,0,0,0,0,0,0,0,0,0,0,0,0,
0,0,0,0,0,0,0,0,0,0,0,0,0,0,0,0,
0,0,0,0,0,0,0,0,0,0,0,0,0,0,0,0,
0,0,0,0,0,0,0,0,0,0,0,0,0,0,0,0,
0,0,0,0,0,0,0,0,0,0,0,0,0,0,0,0,
0,0,0,0,0,0,0,0,0,0,0,0,0,0,0,0,
0,0,0,0,0,0,0,0,0,0,0,0,0,0,0,0,
0,0,0,0,0,0,0,0,0,0,0,0,0,0,0,0,
0,0,0,0,0,0,0,0,0,0,0,0,0,0,0,0,
0,0,0,0,0,0,0,0,0,0,0,0,0,0,0,0
</chunk>
      <chunk x="16" y="96" width="16" height="16">
6794,6795,6794,6795,6794,6795,6794,6795,6794,6795,6794,6795,6794,6795,6794,6795,
6762,6763,6762,6763,6762,6763,6762,6763,6762,6763,6762,6763,6762,6763,6762,6763,
6778,6779,6778,6779,6778,6779,6778,6779,6778,6779,6778,6779,6778,6779,6778,6779,
6794,6795,6794,6795,6794,6795,6794,6795,6794,6795,6794,6795,6794,6795,6794,6795,
0,0,0,0,0,0,0,0,0,0,0,0,0,0,6762,6763,
0,0,0,0,0,0,0,0,0,0,0,0,0,0,6778,6779,
0,0,0,0,0,0,0,0,0,0,0,0,0,0,6794,6795,
0,0,0,0,0,0,0,0,0,0,0,0,0,0,6762,6763,
0,0,0,0,0,0,0,0,0,0,0,0,0,0,6778,6779,
0,0,0,0,0,0,0,0,0,0,0,0,0,0,6794,6795,
0,0,0,0,0,0,0,0,0,0,0,0,0,0,6762,6763,
0,0,0,0,0,0,0,0,0,0,0,0,0,0,6778,6779,
0,0,0,0,0,0,0,0,0,0,0,0,0,0,6794,6795,
0,0,0,0,0,0,0,0,0,0,0,0,0,0,6762,6763,
0,0,0,0,0,0,0,0,0,0,0,0,0,0,6778,6779,
0,0,0,0,0,0,0,0,0,0,0,0,0,0,6794,6795
</chunk>
      <chunk x="32" y="96" width="16" height="16">
6794,6795,6794,6795,6794,6795,6794,6795,6794,6795,6794,6795,6794,6795,6794,6795,
6762,6763,6762,6763,6762,6763,6762,6763,6762,6763,6762,6763,6762,6763,6762,6763,
6778,6779,6778,6779,6778,6779,6778,6779,6778,6779,6778,6779,6778,6779,6778,6779,
6794,6795,6794,6795,6794,6795,6794,6795,6794,6795,6794,6795,6794,6795,6794,6795,
6762,6763,6762,6763,6762,6763,6762,6763,6762,6763,6762,6763,6762,6763,6762,6763,
6778,6779,6778,6779,6778,6779,6778,6779,6778,6779,6778,6779,6778,6779,6778,6779,
6794,6795,6794,6795,6794,6795,6794,6795,6794,6795,6794,6795,6794,6795,6794,6795,
6762,6763,6762,6763,6762,6763,6762,6763,6762,6763,6762,6763,6762,6763,6762,6763,
6778,6779,6778,6779,6778,6779,6778,6779,6778,6779,6778,6779,6778,6779,6778,6779,
6794,6795,6794,6795,6794,6795,6794,6795,6794,6795,6794,6795,6794,6795,6794,6795,
6762,6763,6762,6763,6762,6763,6762,6763,6762,6763,6762,6763,6762,6763,6762,6763,
6778,6779,6778,6779,6778,6779,6778,6779,6778,6779,6778,6779,6778,6779,6778,6779,
6794,6795,6794,6795,6794,6795,6794,6795,6794,6795,6794,6795,6794,6795,6794,6795,
6762,6763,6762,6763,6762,6763,6762,6763,6762,6763,6762,6763,6762,6763,6762,6763,
6778,6779,6778,6779,6778,6779,6778,6779,6778,6779,6778,6779,6778,6779,6778,6779,
6794,6795,6794,6795,6794,6795,6794,6795,6794,6795,6794,6795,6794,6795,6794,6795
</chunk>
      <chunk x="48" y="96" width="16" height="16">
6794,6795,11599,11599,11599,11599,11599,11599,11599,11599,11599,11599,11599,11599,11599,11599,
6762,6763,11599,11599,11599,11599,11599,11599,11599,11599,11599,11599,11599,11599,11599,11599,
6778,6779,11599,11599,11599,11599,11599,11599,11599,11599,11599,11599,11599,11599,11599,11599,
6794,6795,11599,11599,11599,11599,11599,11599,11599,11599,11599,11599,11599,11599,11599,11599,
6762,6763,11599,11599,11599,11599,11599,11599,11599,11599,11599,11599,11599,11599,11599,11599,
6778,6779,11599,11599,11599,11599,11599,11599,11599,11599,11599,11599,11599,11599,11599,11599,
6794,6795,11599,11599,11599,11599,11599,11599,11599,11599,11599,11599,11599,11599,11599,11599,
6762,6763,11599,11599,11599,11599,11599,11599,11599,11599,11599,11599,11599,11599,11599,11599,
6778,6779,11599,11599,11599,11599,11599,11599,11599,11599,11599,11599,11599,11599,11599,11599,
6794,6795,11599,11599,11599,11599,11599,11599,11599,11599,11599,11599,11599,11599,11599,11599,
6762,6763,11599,11599,11599,11599,11599,11599,11599,11599,11599,11599,11599,11599,11599,11599,
6778,6779,11599,11599,11599,11599,11599,11599,11599,11599,11599,11599,11599,11599,11599,11599,
6794,6795,11599,11599,11599,11599,11599,11599,11599,11599,11599,11599,11599,11599,11599,11599,
6762,6763,11599,11599,11599,11599,11599,11599,11599,11599,11599,11599,11599,11599,11599,11599,
6778,6779,11599,11599,11599,11599,11599,11599,11599,11599,11599,11599,11599,11599,11599,11599,
6794,6795,11599,11599,11599,11599,11599,11599,11599,11599,11599,11599,11599,11599,11599,11599
</chunk>
      <chunk x="64" y="96" width="16" height="16">
11599,11599,11599,11599,11599,11599,11599,11599,11599,11599,11599,11599,11599,11599,11599,11599,
11599,11599,11599,11599,11599,11599,11599,11599,11599,11599,11599,11599,11599,11599,11599,11599,
11599,11599,11599,11599,11599,11599,11599,11599,11599,11599,11599,11599,11599,11599,11599,11599,
11599,11599,11599,11599,11599,11599,11599,11599,11599,11599,11599,11599,11599,11599,11599,11599,
11599,11599,11599,11599,11599,11599,11599,11599,11599,11599,11599,11599,11599,11599,11599,11599,
11599,11599,11599,11599,11599,11599,11599,11599,11599,11599,11599,11599,11599,11599,11599,11599,
11599,11599,11599,11599,11599,11599,11599,11599,11599,11599,11599,11599,11599,11599,11599,11599,
11599,11599,11599,11599,11599,11599,11599,11599,11599,11599,11599,11599,11599,11599,11599,11599,
11599,11599,11599,11599,11599,11599,11599,11599,11599,11599,11599,11599,11599,11599,11599,11599,
11599,11599,11599,11599,11599,11599,11599,11599,11599,11599,11599,11599,11599,11599,11599,11599,
11599,11599,11599,11599,11599,11599,11599,11599,11599,11599,11599,11599,11599,11599,11599,11599,
11599,11599,11599,11599,11599,11599,11599,11599,11599,11599,11599,11599,11599,11599,11599,11599,
11599,11599,11599,11599,11599,11599,11599,11599,11599,11599,11599,11599,11599,11599,11599,11599,
11599,11599,11599,11599,11599,11599,11599,11599,11599,11599,11599,11599,11599,11599,11599,11599,
11599,11599,11599,11599,11599,11599,11599,11599,11599,11599,11599,11599,11599,11599,11599,11599,
11599,11599,11599,11599,11599,11599,11599,11599,11599,11599,11599,11599,11599,11599,11599,11599
</chunk>
      <chunk x="80" y="96" width="16" height="16">
11599,11599,11599,11599,11599,11599,11599,11599,11599,11599,11599,11599,11599,11599,11599,11599,
11599,11599,11599,11599,11599,11599,11599,11599,11599,11599,11599,11599,11599,11599,11599,11599,
11599,11599,11599,11599,11599,11599,11599,11599,11599,11599,11599,11599,11599,11599,11599,11599,
11599,11599,11599,11599,11599,11599,11599,11599,11599,11599,11599,11599,11599,11599,11599,11599,
11599,11599,11599,11599,11599,11599,11599,11599,11599,11599,11599,11599,11599,11599,11599,11599,
11599,11599,11599,11599,11599,11599,11599,11599,11599,11599,11599,11599,11599,11599,11599,11599,
11599,11599,11599,11599,11599,11599,11599,11599,11599,11599,11599,11599,11599,11599,11599,11599,
11599,11599,11599,11599,11599,11599,11599,11599,11599,11599,11599,11599,11599,11599,11599,11599,
11599,11599,11599,11599,11599,11599,11599,11599,11599,11599,11599,11599,11599,11599,11599,11599,
11599,11599,11599,11599,11599,11599,11599,11599,11599,11599,11599,11599,11599,11599,11599,11599,
11599,11599,11599,11599,11599,11599,11599,11599,11599,11599,11599,11599,11599,11599,11599,11599,
11599,11599,11599,11599,11599,11599,11599,11599,11599,11599,11599,11599,11599,11599,11599,11599,
11599,11599,11599,11599,11599,11599,11599,11599,11599,11599,11599,11599,11599,11599,11599,11599,
11599,11599,11599,11599,11599,11599,11599,11599,11599,11599,11599,11599,11599,11599,11599,11599,
11599,11599,11599,11599,11599,11599,11599,11599,11599,11599,11599,11599,11599,11599,11599,11599,
11599,11599,11599,11599,11599,11599,11599,11599,11599,11599,11599,11599,11599,11599,11599,11599
</chunk>
      <chunk x="96" y="96" width="16" height="16">
11599,11599,11599,11599,11599,11599,11599,11599,11599,11599,11599,11599,11599,11599,11599,11599,
11599,11599,11599,11599,11599,11599,11599,11599,11599,11599,11599,11599,11599,11599,11599,11599,
11599,11599,11599,11599,11599,11599,11599,11599,11599,11599,11599,11599,11599,11599,11599,11599,
11599,11599,11599,11599,11599,11599,11599,11599,11599,11599,11599,11599,11599,11599,11599,11599,
11599,11599,11599,11599,11599,11599,11599,11599,11599,11599,11599,11599,11599,11599,11599,11599,
11599,11599,11599,11599,11599,11599,11599,11599,11599,11599,11599,11599,11599,11599,11599,11599,
11599,11599,11599,11599,11599,11599,11599,11599,11599,11599,11599,11599,11599,11599,11599,11599,
11599,11599,11599,11599,11599,11599,11599,11599,11599,11599,11599,11599,11599,11599,11599,11599,
11599,11599,11599,11599,11599,11599,11599,11599,11599,11599,11599,11599,11599,11599,11599,11599,
11599,11599,11599,11599,11599,11599,11599,11599,11599,11599,11599,11599,11599,11599,11599,11599,
11599,11599,11599,11599,11599,11599,11599,11599,11599,11599,11599,11599,11599,11599,11599,11599,
11599,11599,11599,11599,11599,11599,11599,11599,11599,11599,11599,11599,11599,11599,11599,11599,
11599,11599,11599,11599,11599,11599,11599,11599,11599,11599,11599,11599,11599,11599,11599,11599,
11599,11599,11599,11599,11599,11599,11599,11599,11599,11599,11599,11599,11599,11599,11599,11599,
11599,11599,11599,11599,11599,11599,11599,11599,11599,11599,11599,11599,11599,11599,11599,11599,
11599,11599,11599,11599,11599,11599,11599,11599,11599,11599,11599,11599,11599,11599,11599,11599
</chunk>
      <chunk x="112" y="96" width="16" height="16">
11599,11599,11599,11599,11599,11599,11599,6747,4167,4364,4364,4364,4364,4364,4364,4364,
11599,11599,11599,11599,11599,11599,11599,6715,4167,4364,4364,4364,4364,4364,4364,4364,
11599,11599,11599,11599,11599,11599,11599,6731,4167,4364,4364,4364,4364,4364,4364,4364,
11599,11599,11599,11599,11599,11599,11599,6747,4167,4364,4364,4364,4364,4364,4364,4364,
11599,11599,11599,11599,11599,11599,11599,6715,4167,4364,4364,4364,4364,4364,4364,4364,
11599,11599,11599,11599,11599,11599,11599,6731,4167,4364,4364,4364,4364,4364,4364,4364,
11599,11599,11599,11599,11599,11599,11599,6747,4167,4364,4364,4364,4364,4364,4364,4364,
11599,11599,11599,11599,11599,11599,11599,4069,4219,4364,4364,4364,4364,4364,4364,4364,
11599,11599,11599,11599,11599,11599,11599,4167,4364,4364,4364,4364,4364,4364,4364,4364,
11599,11599,11599,11599,11599,11599,11599,4167,4364,4364,4364,4364,4364,4364,4364,4364,
11599,11599,11599,11599,11599,11599,11599,4167,4364,4364,4364,4364,4364,4364,4364,4364,
11599,11599,11599,11599,11599,11599,11599,6731,4167,4364,4364,4364,4364,4364,4364,4364,
11599,11599,11599,11599,11599,11599,11599,6747,4167,4364,4364,4364,4364,4364,4364,4364,
11599,11599,11599,11599,11599,11599,11599,6715,4167,4364,4364,4364,4364,4364,4364,4364,
11599,11599,11599,11599,11599,11599,11599,6731,4167,4364,4364,4364,4364,4364,4364,4364,
11599,11599,11599,11599,11599,11599,11599,6747,4167,4364,4364,4364,4364,4364,4364,4364
</chunk>
      <chunk x="128" y="96" width="16" height="16">
4364,4364,4364,4364,4364,4364,4364,4364,4364,4364,4364,4364,4364,4364,4364,4364,
4364,4364,4364,4364,4364,4364,4364,4364,4364,4364,4364,4364,4364,4364,4364,4364,
4364,4364,4364,4364,4364,4364,4364,4364,4364,4364,4364,4364,4364,4364,4364,4364,
4364,4364,4364,4364,4364,4364,4364,4364,4364,4364,4364,4364,4364,4364,4364,4364,
4364,4364,4364,4364,4364,4364,4364,4364,4364,4364,4364,4364,4364,4364,4364,4364,
4364,4364,4364,4364,4364,4364,4364,4364,4364,4364,4364,4364,4364,4364,4364,4364,
4364,4364,4364,4364,4364,4364,4364,4364,4364,4364,4364,4364,4364,4364,4364,4364,
4364,4364,4364,4364,4364,4364,4364,4364,4364,4364,4364,4364,4364,4364,4364,4364,
4364,4364,4364,4364,4364,4364,4364,4364,4364,4364,4364,4364,4364,4364,4364,4364,
4364,4364,4364,4364,4364,4364,4364,4364,4364,4364,4364,4364,4364,4364,4364,4364,
4364,4364,4364,4364,4364,4364,4364,4364,4364,4364,4364,4364,4364,4364,4364,4364,
4364,4364,4364,4364,4364,4364,4364,4364,4364,4364,4364,4364,4364,4364,4364,4364,
4364,4364,4364,4364,4364,4364,4364,4364,4364,4364,4364,4364,4364,4364,4364,4364,
4364,4364,4364,4364,4364,4364,4364,4364,4364,4364,4364,4364,4364,4364,4364,4364,
4364,4364,4364,4364,4364,4364,4364,4364,4364,4364,4364,4364,4364,4364,4364,4364,
4364,4364,4364,4364,4364,4364,4364,4364,4364,4364,4364,4364,4364,4364,4364,4364
</chunk>
      <chunk x="144" y="96" width="16" height="16">
4364,4364,4364,4364,4364,4364,4364,4364,4364,8694,8842,8842,8698,4364,4364,4364,
4364,4364,4364,4364,4364,4364,4364,4364,4364,8694,8842,8842,8698,4364,4364,4364,
4364,4364,4364,4364,4364,4364,4364,4364,4364,8694,8842,8842,8698,4364,4364,4364,
4364,4364,4364,4364,4364,4364,4364,4364,4364,8694,8842,8842,8698,4364,4364,4364,
4364,4364,4364,4364,4364,4364,4364,4364,4364,8694,8842,8842,8698,4364,4364,4364,
4364,4364,4364,4364,4364,4364,4364,4364,4364,8694,8842,8842,8698,4364,4364,4364,
4364,4364,4364,4364,4364,4364,4364,4364,4364,8694,8842,8842,8698,4364,4364,4364,
4364,4364,4364,4364,4364,4364,4364,4364,4364,8697,8842,8842,8695,4364,4364,4364,
4364,4364,4364,4364,4364,4364,4364,4364,4364,8842,8842,8842,8842,4364,4364,4364,
4364,4364,4364,4364,4364,4364,4364,4364,4364,8842,8842,8842,8842,4364,4364,4364,
4364,4364,4364,4364,4364,4364,4364,4364,4364,8599,8842,8842,8597,4364,4364,4364,
4364,4364,4364,4364,4364,4364,4364,4364,4364,8694,8842,8842,8698,4364,4364,4364,
4364,4364,4364,4364,4364,4364,4364,4364,4364,8694,8842,8842,8698,4364,4364,4364,
4364,4364,4364,4364,4364,4364,4364,4364,4364,8694,8842,8842,8698,4364,4364,4364,
4364,4364,4364,4364,4364,4364,4364,4364,4364,8694,8842,8842,8698,4364,4364,4364,
4364,4364,4364,4364,4364,4364,4364,4364,4364,8694,8842,8842,8698,4364,4364,4364
</chunk>
      <chunk x="160" y="96" width="16" height="16">
4364,4364,4364,4364,4364,4364,4364,4364,4364,4364,4364,4364,4364,4364,4364,4364,
4364,4364,4364,4364,4364,4364,4364,4364,4364,4364,4364,4364,4364,4364,4364,4364,
4364,4364,4364,4364,4364,4364,4364,4364,4364,4364,4364,4364,4364,4364,4364,4364,
4364,4364,4364,4364,4364,4364,4364,4364,4364,4364,4364,4364,4364,4364,4364,4364,
4364,4364,4364,4364,4364,4364,4364,4364,4364,4364,4364,4364,4364,4364,4364,4364,
4364,4364,4364,4364,4364,4364,4364,4364,4364,4364,4364,4364,4364,4364,4364,4364,
4364,4364,4364,4364,4364,4364,4364,4364,4364,4364,4364,4364,4364,4364,4364,4364,
4364,4364,4364,4364,4364,4364,4364,4364,4364,4364,4364,4364,4364,4364,4364,4364,
4364,4364,4364,4364,4364,4364,4364,4364,4364,4364,4364,4364,4364,4364,4364,4364,
4364,4364,4364,4364,4364,4364,4364,4364,4364,4364,4364,4364,4364,4364,4364,4364,
4364,4364,4364,4364,4364,4364,4364,4364,4364,4364,4364,4364,4364,4364,4364,4364,
4364,4364,4364,4364,4364,4364,4364,4364,4364,4364,4364,4364,4364,4364,4364,4364,
4364,4364,4364,4364,4364,4364,4364,4364,4364,4364,4364,4364,4364,4364,4364,4364,
4364,4364,4364,4364,4364,4364,4364,4364,4364,4364,4364,4364,4364,4364,4364,4364,
4364,4364,4364,4364,4364,4364,4364,4364,4364,4364,4364,4364,4364,4364,4364,4364,
4364,4364,4364,4364,4364,4364,4364,4364,4364,4364,4364,4364,4364,4364,4364,4364
</chunk>
      <chunk x="176" y="96" width="16" height="16">
4364,4364,4364,4364,4364,4364,4364,4364,4364,4364,4364,4364,4364,4171,6746,11632,
4364,4364,4364,4364,4364,4364,4364,4364,4364,4364,4364,4364,4364,4171,6714,11632,
4364,4364,4364,4364,4364,4364,4364,4364,4364,4364,4364,4364,4364,4171,6730,11632,
4364,4364,4364,4364,4364,4364,4364,4364,4364,4364,4364,4364,4364,4171,6746,11632,
4364,4364,4364,4364,4364,4364,4364,4364,4364,4364,4364,4364,4364,4171,6714,11632,
4364,4364,4364,4364,4364,4364,4364,4364,4364,4364,4364,4364,4364,4171,6730,11632,
4364,4364,4364,4364,4364,4364,4364,4364,4364,4364,4364,4364,4364,4171,6746,11632,
4364,4364,4364,4364,4364,4364,4364,4364,4364,4364,4364,4364,4364,4217,4073,11632,
4364,4364,4364,4364,4364,4364,4364,4364,4364,4364,4364,4364,4364,4364,4171,11632,
4364,4364,4364,4364,4364,4364,4364,4364,4364,4364,4364,4364,4364,4364,4171,11632,
4364,4364,4364,4364,4364,4364,4364,4364,4364,4364,4364,4364,4364,4364,4171,11632,
4364,4364,4364,4364,4364,4364,4364,4364,4364,4364,4364,4364,4364,4171,6730,11632,
4364,4364,4364,4364,4364,4364,4364,4364,4364,4364,4364,4364,4364,4171,6746,11632,
4364,4364,4364,4364,4364,4364,4364,4364,4364,4364,4364,4364,4364,4171,6714,11632,
4364,4364,4364,4364,4364,4364,4364,4364,4364,4364,4364,4364,4364,4171,6730,11632,
4364,4364,4364,4364,4364,4364,4364,4364,4364,4364,4364,4364,4364,4171,6746,11632
</chunk>
      <chunk x="192" y="96" width="16" height="16">
11632,11632,11632,11632,11632,11632,11632,11632,11632,11632,11632,11632,11632,11632,11632,11632,
11632,11632,11632,11632,11632,11632,11632,11632,11632,11632,11632,11632,11632,11632,11632,11632,
11632,11632,11632,11632,11632,11632,11632,11632,11632,11632,11632,11632,11632,11632,11632,11632,
11632,11632,11632,11632,11632,11632,11632,11632,11632,11632,11632,11632,11632,11632,11632,11632,
11632,11632,11632,11632,11632,11632,11632,11632,11632,11632,11632,11632,11632,11632,11632,11632,
11632,11632,11632,11632,11632,11632,11632,11632,11632,11632,11632,11632,11632,11632,11632,11632,
11632,11632,11632,11632,11632,11632,11632,11632,11632,11632,11632,11632,11632,11632,11632,11632,
11632,11632,11632,11632,11632,11632,11632,11632,11632,11632,11632,11632,11632,11632,11632,11632,
11632,11632,11632,11632,11632,11632,11632,11632,11632,11632,11632,11632,11632,11632,11632,11632,
11632,11632,11632,11632,11632,11632,11632,11632,11632,11632,11632,11632,11632,11632,11632,11632,
11632,11632,11632,11632,11632,11632,11632,11632,11632,11632,11632,11632,11632,11632,11632,11632,
11632,11632,11632,11632,11632,11632,11632,11632,11632,11632,11632,11632,11632,11632,11632,11632,
11632,11632,11632,11632,11632,11632,11632,11632,11632,11632,11632,11632,11632,11632,11632,11632,
11632,11632,11632,11632,11632,11632,11632,11632,11632,11632,11632,11632,11632,11632,11632,11632,
11632,11632,11632,11632,11632,11632,11632,11632,11632,11632,11632,11632,11632,11632,11632,11632,
11632,11632,11632,11632,11632,11632,11632,11632,11632,11632,11632,11632,11632,11632,11632,11632
</chunk>
      <chunk x="208" y="96" width="16" height="16">
11632,11632,11632,11632,11632,11632,11632,11632,11632,11632,11632,11632,11632,11632,11632,11632,
11632,11632,11632,11632,11632,11632,11632,11632,11632,11632,11632,11632,11632,11632,11632,11632,
11632,11632,11632,11632,11632,11632,11632,11632,11632,11632,11632,11632,11632,11632,11632,11632,
11632,11632,11632,11632,11632,11632,11632,11632,11632,11632,11632,11632,11632,11632,11632,11632,
11632,11632,11632,11632,11632,11632,11632,11632,11632,11632,11632,11632,11632,11632,11632,11632,
11632,11632,11632,11632,11632,11632,11632,11632,11632,11632,11632,11632,11632,11632,11632,11632,
11632,11632,11632,11632,11632,11632,11632,11632,11632,11632,11632,11632,11632,11632,11632,11632,
11632,11632,11632,11632,11632,11632,11632,11632,11632,11632,11632,11632,11632,11632,11632,11632,
11632,11632,11632,11632,11632,11632,11632,11632,11632,11632,11632,11632,11632,11632,11632,11632,
11632,11632,11632,11632,11632,11632,11632,11632,11632,11632,11632,11632,11632,11632,11632,11632,
11632,11632,11632,11632,11632,11632,11632,11632,11632,11632,11632,11632,11632,11632,11632,11632,
11632,11632,11632,11632,11632,11632,11632,11632,11632,11632,11632,11632,11632,11632,11632,11632,
11632,11632,11632,11632,11632,11632,11632,11632,11632,11632,11632,11632,11632,11632,11632,11632,
11632,11632,11632,11632,11632,11632,11632,11632,11632,11632,11632,11632,11632,11632,11632,11632,
11632,11632,11632,11632,11632,11632,11632,11632,11632,11632,11632,11632,11632,11632,11632,11632,
11632,11632,11632,11632,11632,11632,11632,11632,11632,11632,11632,11632,11632,11632,11632,11632
</chunk>
      <chunk x="224" y="96" width="16" height="16">
11632,11632,11632,11632,11632,11632,11632,11632,11632,11632,11632,11632,11632,11632,11632,11632,
11632,11632,11632,11632,11632,11632,11632,11632,11632,11632,11632,11632,11632,11632,11632,11632,
11632,11632,11632,11632,11632,11632,11632,11632,11632,11632,11632,11632,11632,11632,11632,11632,
11632,11632,11632,11632,11632,11632,11632,11632,11632,11632,11632,11632,11632,11632,11632,11632,
11632,11632,11632,11632,11632,11632,11632,11632,11632,11632,11632,11632,11632,11632,11632,11632,
11632,11632,11632,11632,11632,11632,11632,11632,11632,11632,11632,11632,11632,11632,11632,11632,
11632,11632,11632,11632,11632,11632,11632,11632,11632,11632,11632,11632,11632,11632,11632,11632,
11632,11632,11632,11632,11632,11632,11632,11632,11632,11632,11632,11632,11632,11632,11632,11632,
11632,11632,11632,11632,11632,11632,11632,11632,11632,11632,11632,11632,11632,11632,11632,11632,
11632,11632,11632,11632,11632,11632,11632,11632,11632,11632,11632,11632,11632,11632,11632,11632,
11632,11632,11632,11632,11632,11632,11632,11632,11632,11632,11632,11632,11632,11632,11632,11632,
11632,11632,11632,11632,11632,11632,11632,11632,11632,11632,11632,11632,11632,11632,11632,11632,
11632,11632,11632,11632,11632,11632,11632,11632,11632,11632,11632,11632,11632,11632,11632,11632,
11632,11632,11632,11632,11632,11632,11632,11632,11632,11632,11632,11632,11632,11632,11632,11632,
11632,11632,11632,11632,11632,11632,11632,11632,11632,11632,11632,11632,11632,11632,11632,11632,
11632,11632,11632,11632,11632,11632,11632,11632,11632,11632,11632,11632,11632,11632,11632,11632
</chunk>
      <chunk x="240" y="96" width="16" height="16">
11632,11632,11632,11632,11632,11632,11632,11632,11632,11632,11632,11632,11632,11632,11632,11632,
11632,11632,11632,11632,11632,11632,11632,11632,11632,11632,11632,11632,11632,11632,11632,11632,
11632,11632,11632,11632,11632,11632,11632,11632,11632,11632,11632,11632,11632,11632,11632,11632,
11632,11632,11632,11632,11632,11632,11632,11632,11632,11632,11632,11632,11632,11632,11632,11632,
11632,11632,11632,11632,11632,11632,11632,11632,11632,11632,11632,11632,11632,11632,11632,11632,
11632,11632,11632,11632,11632,11632,11632,11632,11632,11632,11632,11632,11632,11632,11632,11632,
11632,11632,11632,11632,11632,11632,11632,11632,11632,11632,11632,11632,11632,11632,11632,11632,
11632,11632,11632,11632,11632,11632,11632,11632,11632,11632,11632,11632,11632,11632,11632,11632,
11632,11632,11632,11632,11632,11632,11632,11632,11632,11632,11632,11632,11632,11632,11632,11632,
11632,11632,11632,11632,11632,11632,11632,11632,11632,11632,11632,11632,11632,11632,11632,11632,
11632,11632,11632,11632,11632,11632,11632,11632,11632,11632,11632,11632,11632,11632,11632,11632,
11632,11632,11632,11632,11632,11632,11632,11632,11632,11632,11632,11632,11632,11632,11632,11632,
11632,11632,11632,11632,11632,11632,11632,11632,11632,11632,11632,11632,11632,11632,11632,11632,
11632,11632,11632,11632,11632,11632,11632,11632,11632,11632,11632,11632,11632,11632,11632,11632,
11632,11632,11632,11632,11632,11632,11632,11632,11632,11632,11632,11632,11632,11632,11632,11632,
11632,11632,11632,11632,11632,11632,11632,11632,11632,11632,11632,11632,11632,11632,11632,11632
</chunk>
      <chunk x="256" y="96" width="16" height="16">
11632,11632,11632,11632,6794,6795,6794,6795,6794,6795,6794,6795,6794,6795,6794,6795,
11632,11632,11632,11632,6762,6763,6762,6763,6762,6763,6762,6763,6762,6763,6762,6763,
11632,11632,11632,11632,6778,6779,6778,6779,6778,6779,6778,6779,6778,6779,6778,6779,
11632,11632,11632,11632,6794,6795,6794,6795,6794,6795,6794,6795,6794,6795,6794,6795,
11632,11632,11632,11632,6762,6763,6762,6763,6762,6763,6762,6763,6762,6763,6762,6763,
11632,11632,11632,11632,6778,6779,6778,6779,6778,6779,6778,6779,6778,6779,6778,6779,
11632,11632,11632,11632,6794,6795,6794,6795,6794,6795,6794,6795,6794,6795,6794,6795,
11632,11632,11632,11632,6762,6763,6762,6763,6762,6763,6762,6763,6762,6763,6762,6763,
11632,11632,11632,11632,6778,6779,6778,6779,6778,6779,6778,6779,6778,6779,6778,6779,
11632,11632,11632,11632,6794,6795,6794,6795,6794,6795,6794,6795,6794,6795,6794,6795,
11632,11632,11632,11632,6762,6763,6762,6763,6762,6763,6762,6763,6762,6763,6762,6763,
11632,11632,11632,11632,6778,6779,6778,6779,6778,6779,6778,6779,6778,6779,6778,6779,
11632,11632,11632,11632,6794,6795,6794,6795,6794,6795,6794,6795,6794,6795,6794,6795,
11632,11632,11632,11632,6762,6763,6762,6763,6762,6763,6762,6763,6762,6763,6762,6763,
11632,11632,11632,11632,6778,6779,6778,6779,6778,6779,6778,6779,6778,6779,6778,6779,
11632,11632,11632,11632,6794,6795,6794,6795,6794,6795,6794,6795,6794,6795,6794,6795
</chunk>
      <chunk x="272" y="96" width="16" height="16">
6794,6795,6794,6795,6794,6795,6794,6795,0,0,0,0,0,0,0,0,
6762,6763,6762,6763,6762,6763,6762,6763,0,0,0,0,0,0,0,0,
6778,6779,6778,6779,6778,6779,6778,6779,0,0,0,0,0,0,0,0,
6794,6795,6794,6795,6794,6795,6794,6795,0,0,0,0,0,0,0,0,
6762,6763,6762,6763,6762,6763,6762,6763,0,0,0,0,0,0,0,0,
6778,6779,6778,6779,6778,6779,6778,6779,0,0,0,0,0,0,0,0,
6794,6795,6794,6795,6794,6795,6794,6795,0,0,0,0,0,0,0,0,
6762,6763,6762,6763,6762,6763,6762,6763,0,0,0,0,0,0,0,0,
6778,6779,6778,6779,6778,6779,6778,6779,0,0,0,0,0,0,0,0,
6794,6795,6794,6795,6794,6795,6794,6795,0,0,0,0,0,0,0,0,
6762,6763,6762,6763,6762,6763,6762,6763,0,0,0,0,0,0,0,0,
6778,6779,6778,6779,6778,6779,6778,6779,0,0,0,0,0,0,0,0,
6794,6795,6794,6795,6794,6795,6794,6795,0,0,0,0,0,0,0,0,
6762,6763,6762,6763,6762,6763,6762,6763,0,0,0,0,0,0,0,0,
6778,6779,6778,6779,6778,6779,6778,6779,0,0,0,0,0,0,0,0,
6794,6795,6794,6795,6794,6795,6794,6795,0,0,0,0,0,0,0,0
</chunk>
      <chunk x="16" y="112" width="16" height="16">
0,0,0,0,0,0,0,0,0,0,0,0,0,0,6762,6763,
0,0,0,0,0,0,0,0,0,0,0,0,0,0,6778,6779,
0,0,0,0,0,0,0,0,0,0,0,0,0,0,6794,6795,
0,0,0,0,0,0,0,0,0,0,0,0,0,0,6762,6763,
0,0,0,0,0,0,0,0,0,0,0,0,0,0,6778,6779,
0,0,0,0,0,0,0,0,0,0,0,0,0,0,6794,6795,
0,0,0,0,0,0,0,0,0,0,0,0,0,0,6762,6763,
0,0,0,0,0,0,0,0,0,0,0,0,0,0,6778,6779,
0,0,0,0,0,0,0,0,0,0,0,0,0,0,6794,6795,
0,0,0,0,0,0,0,0,0,0,0,0,0,0,6762,6763,
0,0,0,0,0,0,0,0,0,0,0,0,0,0,6778,6779,
0,0,0,0,0,0,0,0,0,0,0,0,0,0,6794,6795,
0,0,0,0,0,0,0,0,0,0,0,0,0,0,6762,6763,
0,0,0,0,0,0,0,0,0,0,0,0,0,0,6778,6779,
0,0,0,0,0,0,0,0,0,0,0,0,0,0,6794,6795,
0,0,0,0,0,0,0,0,0,0,0,0,0,0,6762,6763
</chunk>
      <chunk x="32" y="112" width="16" height="16">
6762,6763,6762,6763,6762,6763,6762,6763,6762,6763,6762,6763,6762,6763,6762,6763,
6778,6779,6778,6779,6778,6779,6778,6779,6778,6779,6778,6779,6778,6779,6778,6779,
6794,6795,6794,6795,6794,6795,6794,6795,6794,6795,6794,6795,6794,6795,6794,6795,
6762,6763,6762,6763,6762,6763,6762,6763,6762,6763,6762,6763,6762,6763,6762,6763,
6778,6779,6778,6779,6778,6779,6778,6779,6778,6779,6778,6779,6778,6779,6778,6779,
6794,6795,6794,6795,6794,6795,6794,6795,6794,6795,6794,6795,6794,6795,6794,6795,
6762,6763,6762,6763,6762,6763,6762,6763,6762,6763,6762,6763,6762,6763,6762,6763,
6778,6779,6778,6779,6778,6779,6778,6779,6778,6779,6778,6779,6778,6779,6778,6779,
6794,6795,6794,6795,6794,6795,6794,6795,6794,6795,6794,6795,6794,6795,6794,6795,
6762,6763,6762,6763,6762,6763,6762,6763,6762,6763,6762,6763,6762,6763,6762,6763,
6778,6779,6778,6779,6778,6779,6778,6779,6778,6779,6778,6779,6778,6779,6778,6779,
6794,6795,6794,6795,6794,6795,6794,6795,6794,6795,6794,6795,6794,6795,6794,6795,
6762,6763,6762,6763,6762,6763,6762,6763,6762,6763,6762,6763,6762,6763,6762,6763,
6778,6779,6778,6779,6778,6779,6778,6779,6778,6779,6778,6779,6778,6779,6778,6779,
6794,6795,6794,6795,6794,6795,6794,6795,6794,6795,6794,6795,6794,6795,6794,6795,
6762,6763,6762,6763,6762,6763,6762,6763,6762,6763,6762,6763,6762,6763,6762,6763
</chunk>
      <chunk x="48" y="112" width="16" height="16">
6762,6763,11599,11599,11599,11599,11599,11599,11599,11599,11599,11599,11599,11599,11599,11599,
6778,6779,11599,11599,11599,11599,11599,11599,11599,11599,11599,11599,11599,11599,11599,11599,
6794,6795,11599,11599,11599,11599,11599,11599,11599,11599,11599,11599,11599,11599,11599,11599,
6762,6763,11599,11599,11599,11599,11599,11599,11599,11599,11599,11599,11599,11599,11599,11599,
6778,6779,11599,11599,11599,11599,11599,11599,11599,11599,11599,11599,11599,11599,11599,11599,
6794,6795,11599,11599,11599,11599,11599,11599,11599,11599,11599,11599,11599,11599,11599,11599,
6762,6763,11599,11599,11599,11599,11599,11599,11599,11599,11599,11599,11599,11599,11599,11599,
6778,6779,11599,11599,11599,11599,11599,11599,11599,11599,11599,11599,11599,11599,11599,11599,
6794,6795,11599,11599,11599,11599,11599,11599,11599,11599,11599,11599,11599,11599,11599,11599,
6762,6763,11599,11599,11599,11599,11599,11599,11599,11599,11599,11599,11599,11599,11599,11599,
6778,6779,11599,11599,11599,11599,11599,11599,11599,11599,11599,11599,11599,11599,11599,11599,
6794,6795,11599,11599,11599,11599,11599,11599,11599,11599,11599,11599,11599,11599,11599,11599,
6762,6763,11599,11599,11599,11599,11599,11599,11599,11599,11599,11599,11599,11599,11599,11599,
6778,6779,11599,11599,11599,11599,11599,11599,11599,11599,11599,11599,11599,11599,11599,11599,
6794,6795,11599,11599,11599,11599,11599,11599,11599,11599,11599,11599,11599,11599,11599,11599,
6762,6763,11599,11599,11599,11599,11599,11599,11599,11599,11599,11599,11599,11599,11599,11599
</chunk>
      <chunk x="64" y="112" width="16" height="16">
11599,11599,11599,11599,11599,11599,11599,11599,11599,11599,11599,11599,11599,11599,11599,11599,
11599,11599,11599,11599,11599,11599,11599,11599,11599,11599,11599,11599,11599,11599,11599,11599,
11599,11599,11599,11599,11599,11599,11599,11599,11599,11599,11599,11599,11599,11599,11599,11599,
11599,11599,11599,11599,11599,11599,11599,11599,11599,11599,11599,11599,11599,11599,11599,11599,
11599,11599,11599,11599,11599,11599,11599,11599,11599,11599,11599,11599,11599,11599,11599,11599,
11599,11599,11599,11599,11599,11599,11599,11599,11599,11599,11599,11599,11599,11599,11599,11599,
11599,11599,11599,11599,11599,11599,11599,11599,11599,11599,11599,11599,11599,11599,11599,11599,
11599,11599,11599,11599,11599,11599,11599,11599,11599,11599,11599,11599,11599,11599,11599,11599,
11599,11599,11599,11599,11599,11599,11599,11599,11599,11599,11599,11599,11599,11599,11599,11599,
11599,11599,11599,11599,11599,11599,11599,11599,11599,11599,11599,11599,11599,11599,11599,11599,
11599,11599,11599,11599,11599,11599,11599,11599,11599,11599,11599,11599,11599,11599,11599,11599,
11599,11599,11599,11599,11599,11599,11599,11599,11599,11599,11599,11599,11599,11599,11599,11599,
11599,11599,11599,11599,11599,11599,11599,11599,11599,11599,11599,11599,11599,11599,11599,11599,
11599,11599,11599,11599,11599,11599,11599,11599,11599,11599,11599,11599,11599,11599,11599,11599,
11599,11599,11599,11599,11599,11599,11599,11599,11599,11599,11599,11599,11599,11599,11599,11599,
11599,11599,11599,11599,11599,11599,11599,11599,11599,11599,11599,11599,11599,11599,11599,11599
</chunk>
      <chunk x="80" y="112" width="16" height="16">
11599,11599,11599,11599,11599,11599,11599,11599,11599,11599,11599,11599,11599,11599,11599,11599,
11599,11599,11599,11599,11599,11599,11599,11599,11599,11599,11599,11599,11599,11599,11599,11599,
11599,11599,11599,11599,11599,11599,11599,11599,11599,11599,11599,11599,11599,11599,11599,11599,
11599,11599,11599,11599,11599,11599,11599,11599,11599,11599,11599,11599,11599,11599,11599,11599,
11599,11599,11599,11599,11599,11599,11599,11599,11599,11599,11599,11599,11599,11599,11599,11599,
11599,11599,11599,11599,11599,11599,11599,11599,11599,11599,11599,11599,11599,11599,11599,11599,
11599,11599,11599,11599,11599,11599,11599,11599,11599,11599,11599,11599,11599,11599,11599,11599,
11599,11599,11599,11599,11599,11599,11599,11599,11599,11599,11599,11599,11599,11599,11599,11599,
11599,11599,11599,11599,11599,11599,11599,11599,11599,11599,11599,11599,11599,11599,11599,11599,
11599,11599,11599,11599,11599,11599,11599,11599,11599,11599,11599,11599,11599,11599,11599,11599,
11599,11599,11599,11599,11599,11599,11599,11599,11599,11599,11599,11599,11599,11599,11599,11599,
11599,11599,11599,11599,11599,11599,11599,11599,11599,11599,11599,11599,11599,11599,11599,11599,
11599,11599,11599,11599,11599,11599,11599,11599,11599,11599,11599,11599,11599,11599,11599,11599,
11599,11599,11599,11599,11599,11599,11599,11599,11599,11599,11599,11599,11599,11599,11599,11599,
11599,11599,11599,11599,11599,11599,11599,11599,11599,11599,11599,11599,11599,11599,11599,11599,
11599,11599,11599,11599,11599,11599,11599,11599,11599,11599,11599,11599,11599,11599,11599,11599
</chunk>
      <chunk x="96" y="112" width="16" height="16">
11599,11599,11599,11599,11599,11599,11599,11599,11599,11599,11599,11599,11599,11599,11599,11599,
11599,11599,11599,11599,11599,11599,11599,11599,11599,11599,11599,11599,11599,11599,11599,11599,
11599,11599,11599,11599,11599,11599,11599,11599,11599,11599,11599,11599,11599,11599,11599,11599,
11599,11599,11599,11599,11599,11599,11599,11599,11599,11599,11599,11599,11599,11599,11599,11599,
11599,11599,11599,11599,11599,11599,11599,11599,11599,11599,11599,11599,11599,11599,11599,11599,
11599,11599,11599,11599,11599,11599,11599,11599,11599,11599,11599,11599,11599,11599,11599,11599,
11599,11599,11599,11599,11599,11599,11599,11599,11599,11599,11599,11599,11599,11599,11599,11599,
11599,11599,11599,11599,11599,11599,11599,11599,11599,11599,11599,11599,11599,11599,11599,11599,
11599,11599,11599,11599,11599,11599,11599,11599,11599,11599,11599,11599,11599,11599,11599,11599,
11599,11599,11599,11599,11599,11599,11599,11599,11599,11599,11599,11599,11599,11599,11599,11599,
11599,11599,11599,11599,11599,11599,11599,11599,11599,11599,11599,11599,11599,11599,11599,11599,
11599,11599,11599,11599,11599,11599,11599,11599,11599,11599,11599,11599,11599,11599,11599,11599,
11599,11599,11599,11599,11599,11599,11599,11599,11599,11599,11599,11599,11599,11599,11599,11599,
11599,11599,11599,11599,11599,11599,11599,11599,11599,11599,11599,11599,11599,11599,11599,11599,
11599,11599,11599,11599,11599,11599,11599,11599,11599,11599,11599,11599,11599,11599,11599,11599,
11599,11599,11599,11599,11599,11599,11599,11599,11599,11599,11599,11599,11599,11599,11599,11599
</chunk>
      <chunk x="112" y="112" width="16" height="16">
11599,11599,11599,11599,11599,11599,11599,6715,4167,4364,4364,4364,4364,4364,4364,4364,
11599,11599,11599,11599,11599,11599,11599,6731,4167,4364,4364,4364,4364,4364,4364,4364,
11599,11599,11599,11599,11599,11599,11599,6747,4167,4364,4364,4364,4364,4364,4364,4364,
11599,11599,11599,11599,11599,11599,11599,6715,4167,4364,4364,4364,4364,4364,4364,4364,
11599,11599,11599,11599,11599,11599,11599,6731,4167,4364,4364,4364,4364,4364,4364,4364,
11599,11599,11599,11599,11599,11599,11599,6747,4167,4364,4364,4364,4364,4364,4364,4364,
11599,11599,11599,11599,11599,11599,11599,6715,4167,4364,4364,4364,4364,4364,4364,4364,
11599,11599,11599,11599,11599,11599,11599,6731,4167,4364,4364,4364,4364,4364,4364,4364,
11599,11599,11599,11599,11599,11599,11599,6747,4167,4364,4364,4364,4364,4364,4364,4364,
11599,11599,11599,11599,11599,11599,11599,6715,4167,4364,4364,4364,4364,4364,4364,4364,
11599,11599,11599,11599,11599,11599,11599,6731,4167,4364,4364,4364,4364,4364,4364,4364,
11599,11599,11599,11599,11599,11599,11599,6747,4167,4364,4364,4364,4364,4364,4364,4364,
11599,11599,11599,11599,11599,11599,11599,6715,4167,4364,4364,4364,4364,4364,4364,4364,
11599,11599,11599,11599,11599,11599,11599,6731,4167,4364,4364,4364,4364,4364,4364,4364,
11599,11599,11599,11599,11599,11599,11599,6747,4167,4364,4364,4364,4364,4364,4364,4364,
11599,11599,11599,11599,11599,11599,11599,6715,4167,4364,4364,4364,4364,4364,4364,4364
</chunk>
      <chunk x="128" y="112" width="16" height="16">
4364,4364,4364,4364,4364,4364,4364,4364,4364,4364,4364,4364,4364,4364,4364,4364,
4364,4364,4364,4364,4364,4364,4364,4364,4364,4364,4364,4364,4364,4364,4364,4364,
4364,4364,4364,4364,4364,4364,4364,4364,4364,4364,4364,4364,4364,4364,4364,4364,
4364,4364,4364,4364,4364,4364,4364,4364,4364,4364,4364,4364,4364,4364,4364,4364,
4364,4364,4364,4364,4364,4364,4364,4364,4364,4364,4364,4364,4364,4364,4364,4364,
4364,4364,4364,4364,4364,4364,4364,4364,4364,4364,4364,4364,4364,4364,4364,4364,
4364,4364,4364,4364,4364,4364,4364,4364,4364,4364,4364,4364,4364,4364,4364,4364,
4364,4364,4364,4364,4364,4364,4364,4364,4364,4364,4364,4364,4364,4364,4364,4364,
4364,4364,4364,4364,4364,4364,4364,4364,4364,4364,4364,4364,4364,4364,4364,4364,
4364,4364,4364,4364,4364,4364,4364,4364,4364,4364,4364,4364,4364,4364,4364,4364,
4364,4364,4364,4364,4364,4364,4364,4364,4364,4364,4364,4364,4364,4364,4364,4364,
4364,4364,4364,4364,4364,4364,4364,4364,4364,4364,4364,4364,4364,4364,4364,4364,
4364,4364,4364,4364,4364,4364,4364,4364,4364,4364,4364,4364,4364,4364,4364,4364,
4364,4364,4364,4364,4364,4364,4364,4364,4364,4364,4364,4364,4364,4364,4364,4364,
4364,4364,4364,4364,4364,4364,4364,4364,4364,4364,4364,4364,4364,4364,4364,4364,
4364,4364,4364,4364,4364,4364,4364,4364,4364,4364,4364,4364,4364,4364,4364,4364
</chunk>
      <chunk x="144" y="112" width="16" height="16">
4364,4364,4364,4364,4364,4364,4364,4364,4364,8694,8842,8842,8698,4364,4364,4364,
4364,4364,4364,4364,4364,4364,4364,4364,4364,8694,8842,8842,8698,4364,4364,4364,
4364,4364,4364,4364,4364,4364,4364,4364,4364,8694,8842,8842,8698,4364,4364,4364,
4364,4364,4364,4364,4364,4364,4364,4364,4364,8694,8842,8842,8698,4364,4364,4364,
4364,4364,4364,4364,4364,4364,4364,4364,4364,8694,8842,8842,8698,4364,4364,4364,
4364,4364,4364,4364,4364,4364,4364,4364,4364,8694,8842,8842,8698,4364,4364,4364,
4364,4364,4364,4364,4364,4364,4364,4364,4364,8694,8842,8842,8698,4364,4364,4364,
4364,4364,4364,4364,4364,4364,4364,4364,4364,8694,8842,8842,8698,4364,4364,4364,
4364,4364,4364,4364,4364,4364,4364,4364,4364,8694,8842,8842,8698,4364,4364,4364,
4364,4364,4364,4364,4364,4364,4364,4364,4364,8694,8842,8842,8698,4364,4364,4364,
4364,4364,4364,4364,4364,4364,4364,4364,4364,8694,8842,8842,8698,4364,4364,4364,
4364,4364,4364,4364,4364,4364,4364,4364,4364,8694,8842,8842,8698,4364,4364,4364,
4364,4364,4364,4364,4364,4364,4364,4364,4364,8694,8842,8842,8698,4364,4364,4364,
4364,4364,4364,4364,4364,4364,4364,4364,4364,8694,8842,8842,8698,4364,4364,4364,
4364,4364,4364,4364,4364,4364,4364,4364,4364,8694,8842,8842,8698,4364,4364,4364,
4364,4364,4364,4364,4364,4364,4364,4364,4364,8694,8842,8842,8698,4364,4364,4364
</chunk>
      <chunk x="160" y="112" width="16" height="16">
4364,4364,4364,4364,4364,4364,4364,4364,4364,4364,4364,4364,4364,4364,4364,4364,
4364,4364,4364,4364,4364,4364,4364,4364,4364,4364,4364,4364,4364,4364,4364,4364,
4364,4364,4364,4364,4364,4364,4364,4364,4364,4364,4364,4364,4364,4364,4364,4364,
4364,4364,4364,4364,4364,4364,4364,4364,4364,4364,4364,4364,4364,4364,4364,4364,
4364,4364,4364,4364,4364,4364,4364,4364,4364,4364,4364,4364,4364,4364,4364,4364,
4364,4364,4364,4364,4364,4364,4364,4364,4364,4364,4364,4364,4364,4364,4364,4364,
4364,4364,4364,4364,4364,4364,4364,4364,4364,4364,4364,4364,4364,4364,4364,4364,
4364,4364,4364,4364,4364,4364,4364,4364,4364,4364,4364,4364,4364,4364,4364,4364,
4364,4364,4364,4364,4364,4364,4364,4364,4364,4364,4364,4364,4364,4364,4364,4364,
4364,4364,4364,4364,4364,4364,4364,4364,4364,4364,4364,4364,4364,4364,4364,4364,
4364,4364,4364,4364,4364,4364,4364,4364,4364,4364,4364,4364,4364,4364,4364,4364,
4364,4364,4364,4364,4364,4364,4364,4364,4364,4364,4364,4364,4364,4364,4364,4364,
4364,4364,4364,4364,4364,4364,4364,4364,4364,4364,4364,4364,4364,4364,4364,4364,
4364,4364,4364,4364,4364,4364,4364,4364,4364,4364,4364,4364,4364,4364,4364,4364,
4364,4364,4364,4364,4364,4364,4364,4364,4364,4364,4364,4364,4364,4364,4364,4364,
4364,4364,4364,4364,4364,4364,4364,4364,4364,4364,4364,4364,4364,4364,4364,4364
</chunk>
      <chunk x="176" y="112" width="16" height="16">
4364,4364,4364,4364,4364,4364,4364,4364,4364,4364,4364,4364,4364,4171,6714,11632,
4364,4364,4364,4364,4364,4364,4364,4364,4364,4364,4364,4364,4364,4171,6730,11632,
4364,4364,4364,4364,4364,4364,4364,4364,4364,4364,4364,4364,4364,4171,6746,11632,
4364,4364,4364,4364,4364,4364,4364,4364,4364,4364,4364,4364,4364,4171,6714,11632,
4364,4364,4364,4364,4364,4364,4364,4364,4364,4364,4364,4364,4364,4171,6730,11632,
4364,4364,4364,4364,4364,4364,4364,4364,4364,4364,4364,4364,4364,4171,6746,11632,
4364,4364,4364,4364,4364,4364,4364,4364,4364,4364,4364,4364,4364,4171,6714,11632,
4364,4364,4364,4364,4364,4364,4364,4364,4364,4364,4364,4364,4364,4171,6730,11632,
4364,4364,4364,4364,4364,4364,4364,4364,4364,4364,4364,4364,4364,4171,6746,11632,
4364,4364,4364,4364,4364,4364,4364,4364,4364,4364,4364,4364,4364,4171,6714,11632,
4364,4364,4364,4364,4364,4364,4364,4364,4364,4364,4364,4364,4364,4171,6730,11632,
4364,4364,4364,4364,4364,4364,4364,4364,4364,4364,4364,4364,4364,4171,6746,11632,
4364,4364,4364,4364,4364,4364,4364,4364,4364,4364,4364,4364,4364,4171,6714,11632,
4364,4364,4364,4364,4364,4364,4364,4364,4364,4364,4364,4364,4364,4171,6730,11632,
4364,4364,4364,4364,4364,4364,4364,4364,4364,4364,4364,4364,4364,4171,6746,11632,
4364,4364,4364,4364,4364,4364,4364,4364,4364,4364,4364,4364,4364,4171,6714,11632
</chunk>
      <chunk x="192" y="112" width="16" height="16">
11632,11632,11632,11632,11632,11632,11632,11632,11632,11632,11632,11632,11632,11632,11632,11632,
11632,11632,11632,11632,11632,11632,11632,11632,11632,11632,11632,11632,11632,11632,11632,11632,
11632,11632,11632,11632,11632,11632,11632,11632,11632,11632,11632,11632,11632,11632,11632,11632,
11632,11632,11632,11632,11632,11632,11632,11632,11632,11632,11632,11632,11632,11632,11632,11632,
11632,11632,11632,11632,11632,11632,11632,11632,11632,11632,11632,11632,11632,11632,11632,11632,
11632,11632,11632,11632,11632,11632,11632,11632,11632,11632,11632,11632,11632,11632,11632,11632,
11632,11632,11632,11632,11632,11632,11632,11632,11632,11632,11632,11632,11632,11632,11632,11632,
11632,11632,11632,11632,11632,11632,11632,11632,11632,11632,11632,11632,11632,11632,11632,11632,
11632,11632,11632,11632,11632,11632,11632,11632,11632,11632,11632,11632,11632,11632,11632,11632,
11632,11632,11632,11632,11632,11632,11632,11632,11632,11632,11632,11632,11632,11632,11632,11632,
11632,11632,11632,11632,11632,11632,11632,11632,11632,11632,11632,11632,11632,11632,11632,11632,
11632,11632,11632,11632,11632,11632,11632,11632,11632,11632,11632,11632,11632,11632,11632,11632,
11632,11632,11632,11632,11632,11632,11632,11632,11632,11632,11632,11632,11632,11632,11632,11632,
11632,11632,11632,11632,11632,11632,11632,11632,11632,11632,11632,11632,11632,11632,11632,11632,
11632,11632,11632,11632,11632,11632,11632,11632,11632,11632,11632,11632,11632,11632,11632,11632,
11632,11632,11632,11632,11632,11632,11632,11632,11632,11632,11632,11632,11632,11632,11632,11632
</chunk>
      <chunk x="208" y="112" width="16" height="16">
11632,11632,11632,11632,11632,11632,11632,11632,11632,11632,11632,11632,11632,11632,11632,11632,
11632,11632,11632,11632,11632,11632,11632,11632,11632,11632,11632,11632,11632,11632,11632,11632,
11632,11632,11632,11632,11632,11632,11632,11632,11632,11632,11632,11632,11632,11632,11632,11632,
11632,11632,11632,11632,11632,11632,11632,11632,11632,11632,11632,11632,11632,11632,11632,11632,
11632,11632,11632,11632,11632,11632,11632,11632,11632,11632,11632,11632,11632,11632,11632,11632,
11632,11632,11632,11632,11632,11632,11632,11632,11632,11632,11632,11632,11632,11632,11632,11632,
11632,11632,11632,11632,11632,11632,11632,11632,11632,11632,11632,11632,11632,11632,11632,11632,
11632,11632,11632,11632,11632,11632,11632,11632,11632,11632,11632,11632,11632,11632,11632,11632,
11632,11632,11632,11632,11632,11632,11632,11632,11632,11632,11632,11632,11632,11632,11632,11632,
11632,11632,11632,11632,11632,11632,11632,11632,11632,11632,11632,11632,11632,11632,11632,11632,
11632,11632,11632,11632,11632,11632,11632,11632,11632,11632,11632,11632,11632,11632,11632,11632,
11632,11632,11632,11632,11632,11632,11632,11632,11632,11632,11632,11632,11632,11632,11632,11632,
11632,11632,11632,11632,11632,11632,11632,11632,11632,11632,11632,11632,11632,11632,11632,11632,
11632,11632,11632,11632,11632,11632,11632,11632,11632,11632,11632,11632,11632,11632,11632,11632,
11632,11632,11632,11632,11632,11632,11632,11632,11632,11632,11632,11632,11632,11632,11632,11632,
11632,11632,11632,11632,11632,11632,11632,11632,11632,11632,11632,11632,11632,11632,11632,11632
</chunk>
      <chunk x="224" y="112" width="16" height="16">
11632,11632,11632,11632,11632,11632,11632,11632,11632,11632,11632,11632,11632,11632,11632,11632,
11632,11632,11632,11632,11632,11632,11632,11632,11632,11632,11632,11632,11632,11632,11632,11632,
11632,11632,11632,11632,11632,11632,11632,11632,11632,11632,11632,11632,11632,11632,11632,11632,
11632,11632,11632,11632,11632,11632,11632,11632,11632,11632,11632,11632,11632,11632,11632,11632,
11632,11632,11632,11632,11632,11632,11632,11632,11632,11632,11632,11632,11632,11632,11632,11632,
11632,11632,11632,11632,11632,11632,11632,11632,11632,11632,11632,11632,11632,11632,11632,11632,
11632,11632,11632,11632,11632,11632,11632,11632,11632,11632,11632,11632,11632,11632,11632,11632,
11632,11632,11632,11632,11632,11632,11632,11632,11632,11632,11632,11632,11632,11632,11632,11632,
11632,11632,11632,11632,11632,11632,11632,11632,11632,11632,11632,11632,11632,11632,11632,11632,
11632,11632,11632,11632,11632,11632,11632,11632,11632,11632,11632,11632,11632,11632,11632,11632,
11632,11632,11632,11632,11632,11632,11632,11632,11632,11632,11632,11632,11632,11632,11632,11632,
11632,11632,11632,11632,11632,11632,11632,11632,11632,11632,11632,11632,11632,11632,11632,11632,
11632,11632,11632,11632,11632,11632,11632,11632,11632,11632,11632,11632,11632,11632,11632,11632,
11632,11632,11632,11632,11632,11632,11632,11632,11632,11632,11632,11632,11632,11632,11632,11632,
11632,11632,11632,11632,11632,11632,11632,11632,11632,11632,11632,11632,11632,11632,11632,11632,
11632,11632,11632,11632,11632,11632,11632,11632,11632,11632,11632,11632,11632,11632,11632,11632
</chunk>
      <chunk x="240" y="112" width="16" height="16">
11632,11632,11632,11632,11632,11632,11632,11632,11632,11632,11632,11632,11632,11632,11632,11632,
11632,11632,11632,11632,11632,11632,11632,11632,11632,11632,11632,11632,11632,11632,11632,11632,
11632,11632,11632,11632,11632,11632,11632,11632,11632,11632,11632,11632,11632,11632,11632,11632,
11632,11632,11632,11632,11632,11632,11632,11632,11632,11632,11632,11632,11632,11632,11632,11632,
11632,11632,11632,11632,11632,11632,11632,11632,11632,11632,11632,11632,11632,11632,11632,11632,
11632,11632,11632,11632,11632,11632,11632,11632,11632,11632,11632,11632,11632,11632,11632,11632,
11632,11632,11632,11632,11632,11632,11632,11632,11632,11632,11632,11632,11632,11632,11632,11632,
11632,11632,11632,11632,11632,11632,11632,11632,11632,11632,11632,11632,11632,11632,11632,11632,
11632,11632,11632,11632,11632,11632,11632,11632,11632,11632,11632,11632,11632,11632,11632,11632,
11632,11632,11632,11632,11632,11632,11632,11632,11632,11632,11632,11632,11632,11632,11632,11632,
11632,11632,11632,11632,11632,11632,11632,11632,11632,11632,11632,11632,11632,11632,11632,11632,
11632,11632,11632,11632,11632,11632,11632,11632,11632,11632,11632,11632,11632,11632,11632,11632,
11632,11632,11632,11632,11632,11632,11632,11632,11632,11632,11632,11632,11632,11632,11632,11632,
11632,11632,11632,11632,11632,11632,11632,11632,11632,11632,11632,11632,11632,11632,11632,11632,
11632,11632,11632,11632,11632,11632,11632,11632,11632,11632,11632,11632,11632,11632,11632,11632,
11632,11632,11632,11632,11632,11632,11632,11632,11632,11632,11632,11632,11632,11632,11632,11632
</chunk>
      <chunk x="256" y="112" width="16" height="16">
11632,11632,11632,11632,6762,6763,6762,6763,6762,6763,6762,6763,6762,6763,6762,6763,
11632,11632,11632,11632,6778,6779,6778,6779,6778,6779,6778,6779,6778,6779,6778,6779,
11632,11632,11632,11632,6794,6795,6794,6795,6794,6795,6794,6795,6794,6795,6794,6795,
11632,11632,11632,11632,6762,6763,6762,6763,6762,6763,6762,6763,6762,6763,6762,6763,
11632,11632,11632,11632,6778,6779,6778,6779,6778,6779,6778,6779,6778,6779,6778,6779,
11632,11632,11632,11632,6794,6795,6794,6795,6794,6795,6794,6795,6794,6795,6794,6795,
11632,11632,11632,11632,6762,6763,6762,6763,6762,6763,6762,6763,6762,6763,6762,6763,
11632,11632,11632,11632,6778,6779,6778,6779,6778,6779,6778,6779,6778,6779,6778,6779,
11632,11632,11632,11632,6794,6795,6794,6795,6794,6795,6794,6795,6794,6795,6794,6795,
11632,11632,11632,11632,6762,6763,6762,6763,6762,6763,6762,6763,6762,6763,6762,6763,
11632,11632,11632,11632,6778,6779,6778,6779,6778,6779,6778,6779,6778,6779,6778,6779,
11632,11632,11632,11632,6794,6795,6794,6795,6794,6795,6794,6795,6794,6795,6794,6795,
11632,11632,11632,11632,6762,6763,6762,6763,6762,6763,6762,6763,6762,6763,6762,6763,
11632,11632,11632,11632,6778,6779,6778,6779,6778,6779,6778,6779,6778,6779,6778,6779,
11632,11632,11632,11632,6794,6795,6794,6795,6794,6795,6794,6795,6794,6795,6794,6795,
11632,11632,11632,11632,6762,6763,6762,6763,6762,6763,6762,6763,6762,6763,6762,6763
</chunk>
      <chunk x="272" y="112" width="16" height="16">
6762,6763,6762,6763,6762,6763,6762,6763,0,0,0,0,0,0,0,0,
6778,6779,6778,6779,6778,6779,6778,6779,0,0,0,0,0,0,0,0,
6794,6795,6794,6795,6794,6795,6794,6795,0,0,0,0,0,0,0,0,
6762,6763,6762,6763,6762,6763,6762,6763,0,0,0,0,0,0,0,0,
6778,6779,6778,6779,6778,6779,6778,6779,0,0,0,0,0,0,0,0,
6794,6795,6794,6795,6794,6795,6794,6795,0,0,0,0,0,0,0,0,
6762,6763,6762,6763,6762,6763,6762,6763,0,0,0,0,0,0,0,0,
6778,6779,6778,6779,6778,6779,6778,6779,0,0,0,0,0,0,0,0,
6794,6795,6794,6795,6794,6795,6794,6795,0,0,0,0,0,0,0,0,
6762,6763,6762,6763,6762,6763,6762,6763,0,0,0,0,0,0,0,0,
6778,6779,6778,6779,6778,6779,6778,6779,0,0,0,0,0,0,0,0,
6794,6795,6794,6795,6794,6795,6794,6795,0,0,0,0,0,0,0,0,
6762,6763,6762,6763,6762,6763,6762,6763,0,0,0,0,0,0,0,0,
6778,6779,6778,6779,6778,6779,6778,6779,0,0,0,0,0,0,0,0,
6794,6795,6794,6795,6794,6795,6794,6795,0,0,0,0,0,0,0,0,
6762,6763,6762,6763,6762,6763,6762,6763,0,0,0,0,0,0,0,0
</chunk>
      <chunk x="16" y="128" width="16" height="16">
0,0,0,0,0,0,0,0,0,0,0,0,0,0,6778,6779,
0,0,0,0,0,0,0,0,0,0,0,0,0,0,6794,6795,
0,0,0,0,0,0,0,0,0,0,0,0,0,0,6762,6763,
0,0,0,0,0,0,0,0,0,0,0,0,0,0,6778,6779,
0,0,0,0,0,0,0,0,0,0,0,0,0,0,6794,6795,
0,0,0,0,0,0,0,0,0,0,0,0,0,0,6762,6763,
0,0,0,0,0,0,0,0,0,0,0,0,0,0,6778,6779,
0,0,0,0,0,0,0,0,0,0,0,0,0,0,6794,6795,
0,0,0,0,0,0,0,0,0,0,0,0,0,0,6762,6763,
0,0,0,0,0,0,0,0,0,0,0,0,0,0,6778,6779,
0,0,0,0,0,0,0,0,0,0,0,0,0,0,6794,6795,
0,0,0,0,0,0,0,0,0,0,0,0,0,0,6762,6763,
0,0,0,0,0,0,0,0,0,0,0,0,0,0,6778,6779,
0,0,0,0,0,0,0,0,0,0,0,0,0,0,6794,6795,
0,0,0,0,0,0,0,0,0,0,0,0,0,0,6762,6763,
0,0,0,0,0,0,0,0,0,0,0,0,0,0,6778,6779
</chunk>
      <chunk x="32" y="128" width="16" height="16">
6778,6779,6778,6779,6778,6779,6778,6779,6778,6779,6778,6779,6778,6779,6778,6779,
6794,6795,6794,6795,6794,6795,6794,6795,6794,6795,6794,6795,6794,6795,6794,6795,
6762,6763,6762,6763,6762,6763,6762,6763,6762,6763,6762,6763,6762,6763,6762,6763,
6778,6779,6778,6779,6778,6779,6778,6779,6778,6779,6778,6779,6778,6779,6778,6779,
6794,6795,6794,6795,6794,6795,6794,6795,6794,6795,6794,6795,6794,6795,6794,6795,
6762,6763,6762,6763,6762,6763,6762,6763,6762,6763,6762,6763,6762,6763,6762,6763,
6778,6779,6778,6779,6778,6779,6778,6779,6778,6779,6778,6779,6778,6779,6778,6779,
6794,6795,6794,6795,6794,6795,6794,6795,6794,6795,6794,6795,6794,6795,6794,6795,
6762,6763,6762,6763,6762,6763,6762,6763,6762,6763,6762,6763,6762,6763,6762,6763,
6778,6779,6778,6779,6778,6779,6778,6779,6778,6779,6778,6779,6778,6779,6778,6779,
6794,6795,6794,6795,6794,6795,6794,6795,6794,6795,6794,6795,6794,6795,6794,6795,
6762,6763,6762,6763,6762,6763,6762,6763,6762,6763,6762,6763,6762,6763,6762,6763,
6778,6779,6778,6779,6778,6779,6778,6779,6778,6779,6778,6779,6778,6779,6778,6779,
6794,6795,6794,6795,6794,6795,6794,6795,6794,6795,6794,6795,6794,6795,6794,6795,
6762,6763,6762,6763,6762,6763,6762,6763,6762,6763,6762,6763,6762,6763,6762,6763,
6778,6779,6778,6779,6778,6779,6778,6779,6778,6779,6778,6779,6778,6779,6778,6779
</chunk>
      <chunk x="48" y="128" width="16" height="16">
6778,6779,11599,11599,11599,11599,11599,11599,11599,11599,11599,11599,11599,11599,11599,11599,
6794,6795,11599,11599,11599,11599,11599,11599,11599,11599,11599,11599,11599,11599,11599,11599,
6762,6763,11599,11599,11599,11599,11599,11599,11599,11599,11599,11599,11599,11599,11599,11599,
6778,6779,11599,11599,11599,11599,11599,11599,11599,11599,11599,11599,11599,11599,11599,11599,
6794,6795,11599,11599,11599,11599,11599,11599,11599,11599,11599,11599,11599,11599,11599,11599,
6762,6763,11599,11599,11599,11599,11599,11599,11599,11599,11599,11599,11599,11599,11599,11599,
6778,6779,11599,11599,11599,11599,11599,11599,11599,11599,11599,11599,11599,11599,11599,11599,
6794,6795,11599,11599,11599,11599,11599,11599,11599,11599,11599,11599,11599,11599,11599,11599,
6762,6763,11599,11599,11599,11599,11599,11599,11599,11599,11599,11599,11599,11599,11599,11599,
6778,6779,11599,11599,11599,11599,11599,11599,11599,11599,11599,11599,11599,11599,11599,11599,
6794,6795,11599,11599,11599,11599,11599,11599,11599,11599,11599,11599,11599,11599,11599,11599,
6762,6763,11599,11599,11599,11599,11599,11599,11599,11599,11599,11599,11599,11599,11599,11599,
6778,6779,6778,6779,6778,6779,6778,6779,6778,6779,6778,6779,6778,6779,6778,6779,
6794,6795,6794,6795,6794,6795,6794,6795,6794,6795,6794,6795,6794,6795,6794,6795,
6762,6763,6762,6763,6762,6763,6762,6763,6762,6763,6762,6763,6762,6763,6762,6763,
6778,6779,6778,6779,6778,6779,6778,6779,6778,6779,6778,6779,6778,6779,6778,6779
</chunk>
      <chunk x="64" y="128" width="16" height="16">
11599,11599,11599,11599,11599,11599,11599,11599,11599,11599,11599,11599,11599,11599,11599,11599,
11599,11599,11599,11599,11599,11599,11599,11599,11599,11599,11599,11599,11599,11599,11599,11599,
11599,11599,11599,11599,11599,11599,11599,11599,11599,11599,11599,11599,11599,11599,11599,11599,
11599,11599,11599,11599,11599,11599,11599,11599,11599,11599,11599,11599,11599,11599,11599,11599,
11599,11599,11599,11599,11599,11599,11599,11599,11599,11599,11599,11599,11599,11599,11599,11599,
11599,11599,11599,11599,11599,11599,11599,11599,11599,11599,11599,11599,11599,11599,11599,11599,
11599,11599,11599,11599,11599,11599,11599,11599,11599,11599,11599,11599,11599,11599,11599,11599,
11599,11599,11599,11599,11599,11599,11599,11599,11599,11599,11599,11599,11599,11599,11599,11599,
11599,11599,11599,11599,11599,11599,11599,11599,11599,11599,11599,11599,11599,11599,11599,11599,
11599,11599,11599,11599,11599,11599,11599,11599,11599,11599,11599,11599,11599,11599,11599,11599,
11599,11599,11599,11599,11599,11599,11599,11599,11599,11599,11599,11599,11599,11599,11599,11599,
11599,11599,11599,11599,11599,11599,11599,11599,11599,11599,11599,11599,11599,11599,11599,11599,
6778,6779,6778,6779,6778,6779,6778,6779,6778,6779,6778,6779,6778,6779,6778,6779,
6794,6795,6794,6795,6794,6795,6794,6795,6794,6795,6794,6795,6794,6795,6794,6795,
6762,6763,6762,6763,6762,6763,6762,6763,6762,6763,6762,6763,6762,6763,6762,6763,
6778,6779,6778,6779,6778,6779,6778,6779,6778,6779,6778,6779,6778,6779,6778,6779
</chunk>
      <chunk x="80" y="128" width="16" height="16">
11599,11599,11599,11599,11599,11599,11599,11599,11599,11599,11599,11599,11599,11599,11599,11599,
11599,11599,11599,11599,11599,11599,11599,11599,11599,11599,11599,11599,11599,11599,11599,11599,
11599,11599,11599,11599,11599,11599,11599,11599,11599,11599,11599,11599,11599,11599,11599,11599,
11599,11599,11599,11599,11599,11599,11599,11599,11599,11599,11599,11599,11599,11599,11599,11599,
11599,11599,11599,11599,11599,11599,11599,11599,11599,11599,11599,11599,11599,11599,11599,11599,
11599,11599,11599,11599,11599,11599,11599,11599,11599,11599,11599,11599,11599,11599,11599,11599,
11599,11599,11599,11599,11599,11599,11599,11599,11599,11599,11599,11599,11599,11599,11599,11599,
11599,11599,11599,11599,11599,11599,11599,11599,11599,11599,11599,11599,11599,11599,11599,11599,
11599,11599,11599,11599,11599,11599,11599,11599,11599,11599,11599,11599,11599,11599,11599,11599,
11599,11599,11599,11599,11599,11599,11599,11599,11599,11599,11599,11599,11599,11599,11599,11599,
11599,11599,11599,11599,11599,11599,11599,11599,11599,11599,11599,11599,11599,11599,11599,11599,
11599,11599,11599,11599,11599,11599,11599,11599,11599,11599,11599,11599,11599,11599,11599,11599,
6778,6779,6778,6779,6778,6779,6778,6779,6778,6779,6778,6779,6778,6779,6778,6779,
6794,6795,6794,6795,6794,6795,6794,6795,6794,6795,6794,6795,6794,6795,6794,6795,
6762,6763,6762,6763,6762,6763,6762,6763,6762,6763,6762,6763,6762,6763,6762,6763,
6778,6779,6778,6779,6778,6779,6778,6779,6778,6779,6778,6779,6778,6779,6778,6779
</chunk>
      <chunk x="96" y="128" width="16" height="16">
11599,11599,11599,11599,11599,11599,11599,11599,11599,11599,11599,11599,11599,11599,11599,11599,
11599,11599,11599,11599,11599,11599,11599,11599,11599,11599,11599,11599,11599,11599,11599,11599,
11599,11599,11599,11599,11599,11599,11599,11599,11599,11599,11599,11599,11599,11599,11599,11599,
11599,11599,11599,11599,11599,11599,11599,11599,11599,11599,11599,11599,11599,11599,11599,11599,
11599,11599,11599,11599,11599,11599,11599,11599,11599,11599,11599,11599,11599,11599,11599,11599,
11599,11599,11599,11599,11599,11599,11599,11599,11599,11599,11599,11599,11599,11599,11599,11599,
11599,11599,11599,11599,11599,11599,11599,11599,11599,11599,11599,11599,11599,11599,11599,11599,
11599,11599,11599,11599,11599,11599,11599,11599,11599,11599,11599,11599,11599,11599,11599,11599,
11599,11599,11599,11599,11599,11599,11599,11599,11599,11599,11599,11599,11599,11599,11599,11599,
11599,11599,11599,11599,11599,11599,11599,11599,11599,11599,11599,11599,11599,11599,11599,11599,
11599,11599,11599,11599,11599,11599,11599,11599,11599,11599,11599,11599,11599,11599,11599,11599,
11599,11599,11599,11599,11599,11599,11599,11599,11599,11599,11599,11599,11599,11599,11599,11599,
6778,6779,6778,6779,6778,6779,6778,6779,6778,6779,6778,6779,6778,6779,6778,6779,
6794,6795,6794,6795,6794,6795,6794,6795,6794,6795,6794,6795,6794,6795,6794,6795,
6762,6763,6762,6763,6762,6763,6762,6763,6762,6763,6762,6763,6762,6763,6762,6763,
6778,6779,6778,6779,6778,6779,6778,6779,6778,6779,6778,6779,6778,6779,6778,6779
</chunk>
      <chunk x="112" y="128" width="16" height="16">
11599,11599,11599,11599,11599,11599,11599,6731,4167,4364,4364,4364,4364,4364,4364,4364,
11599,11599,11599,11599,11599,11599,11599,6747,4167,4364,4364,4364,4364,4364,4364,4364,
11599,11599,11599,11599,11599,11599,11599,6715,4167,4364,4364,4364,4364,4364,4364,4364,
11599,11599,11599,11599,11599,11599,11599,6731,4167,4364,4364,4364,4364,4364,4364,4364,
11599,11599,11599,11599,11599,11599,11599,6747,4167,4364,4364,4364,4364,4364,4364,4364,
11599,11599,11599,11599,11599,11599,11599,6715,4167,4364,4364,4364,4364,4364,4364,4364,
11599,11599,11599,11599,11599,11599,11599,6731,4167,4364,4364,4364,4364,4364,4364,4364,
11599,11599,11599,11599,11599,11599,11599,6747,4167,4364,4364,4364,4364,4364,4364,4364,
11599,11599,11599,11599,11599,11599,11599,6715,4167,4364,4364,4364,4364,4364,4364,4364,
11599,11599,11599,11599,11599,11599,11599,6731,4167,4364,4364,4364,4364,4364,4364,4364,
11599,11599,11599,11599,11599,11599,11599,6747,4167,4364,4364,4364,4364,4364,4364,4364,
11599,11599,11599,11599,11599,11599,11599,6715,4167,4364,4364,4364,4364,4364,4364,4364,
6778,6779,6778,6779,6778,6779,6778,6762,4167,4364,4364,4364,4364,4364,4364,4364,
6794,6795,6794,6795,6794,6795,6794,6778,4167,4364,4364,4364,4364,4364,4364,4364,
6762,6763,6762,6763,6762,6763,6762,6794,4167,4364,4364,4364,4364,4364,4364,4364,
6778,6779,6778,6779,6778,6779,6778,6762,4167,4364,4364,4364,4364,4364,4364,4364
</chunk>
      <chunk x="128" y="128" width="16" height="16">
4364,4364,4364,4364,4364,4364,4364,4364,4364,4364,4364,4364,4364,4364,4364,4364,
4364,4364,4364,4364,4364,4364,4364,4364,4364,4364,4364,4364,4364,4364,4364,4364,
4364,4364,4364,4364,4364,4364,4364,4364,4364,4364,4364,4364,4364,4364,4364,4364,
4364,4364,4364,4364,4364,4364,4364,4364,4364,4364,4364,4364,4364,4364,4364,4364,
4364,4364,4364,4364,4364,4364,4364,4364,4364,4364,4364,4364,4364,4364,4364,4364,
4364,4364,4364,4364,4364,4364,4364,4364,4364,4364,4364,4364,4364,4364,4364,4364,
4364,4364,4364,4364,4364,4364,4364,4364,4364,4364,4364,4364,4364,4364,4364,4364,
4364,4364,4364,4364,4364,4364,4364,4364,4364,4364,4364,4364,4364,4364,4364,4364,
4364,4364,4364,4364,4364,4364,4364,4364,4364,4364,4364,4364,4364,4364,4364,4364,
4364,4364,4364,4364,4364,4364,4364,4364,4364,4364,4364,4364,4364,4364,4364,4364,
4364,4364,4364,4364,4364,4364,4364,4364,4364,4364,4364,4364,4364,4364,4364,4364,
4364,4364,4364,4364,4364,4364,4364,4364,4364,4364,4364,4364,4364,4364,4364,4364,
4364,4364,4364,4364,4364,4364,4364,4364,4364,4364,4364,4364,4364,4364,4364,4364,
4364,4364,4364,4364,4364,4364,4364,4364,4364,4364,4364,4364,4364,4364,4364,4364,
4364,4364,4364,4364,4364,4364,4364,4364,4364,4364,4364,4364,4364,4364,4364,4364,
4364,4364,4364,4364,4364,4364,4364,4364,4364,4364,4364,4364,4364,4364,4364,4364
</chunk>
      <chunk x="144" y="128" width="16" height="16">
4364,4364,4364,4364,4364,4364,4364,4364,4364,8694,8842,8842,8698,4364,4364,4364,
4364,4364,4364,4364,4364,4364,4364,4364,4364,8694,8842,8842,8698,4364,4364,4364,
4364,4364,4364,4364,4364,4364,4364,4364,4364,8694,8842,8842,8698,4364,4364,4364,
4364,4364,4364,4364,4364,4364,4364,4364,4364,8694,8842,8842,8698,4364,4364,4364,
4364,4364,4364,4364,4364,4364,4364,4364,4364,8694,8842,8842,8698,4364,4364,4364,
4364,4364,4364,4364,4364,4364,4364,4364,4364,8694,8842,8842,8698,4364,4364,4364,
4364,4364,4364,4364,4364,4364,4364,4364,4364,8694,8842,8842,8698,4364,4364,4364,
4364,4364,4364,4364,4364,4364,4364,4364,4364,8694,8842,8842,8698,4364,4364,4364,
4364,4364,4364,4364,4364,4364,4364,4364,4364,8694,8842,8842,8698,4364,4364,4364,
4364,4364,4364,4364,4364,4364,4364,4364,4364,8694,8842,8842,8698,4364,4364,4364,
4364,4364,4364,4364,4364,4364,4364,4364,4364,8694,8842,8842,8698,4364,4364,4364,
4364,4364,4364,4364,4364,4364,4364,4364,4364,8694,8842,8842,8698,4364,4364,4364,
4364,4364,4364,4364,4364,4364,4364,4364,4364,8694,8842,8842,8698,4364,4364,4364,
4364,4364,4364,4364,4364,4364,4364,4364,4364,8694,8842,8842,8698,4364,4364,4364,
4364,4364,4364,4364,4364,4364,4364,4364,4364,8694,8842,8842,8698,4364,4364,4364,
4364,4364,4364,4364,4364,4364,4364,4364,4364,8694,8842,8842,8698,4364,4364,4364
</chunk>
      <chunk x="160" y="128" width="16" height="16">
4364,4364,4364,4364,4364,4364,4364,4364,4364,4364,4364,4364,4364,4364,4364,4364,
4364,4364,4364,4364,4364,4364,4364,4364,4364,4364,4364,4364,4364,4364,4364,4364,
4364,4364,4364,4364,4364,4364,4364,4364,4364,4364,4364,4364,4364,4364,4364,4364,
4364,4364,4364,4364,4364,4364,4364,4364,4364,4364,4364,4364,4364,4364,4364,4364,
4364,4364,4364,4364,4364,4364,4364,4364,4364,4364,4364,4364,4364,4364,4364,4364,
4364,4364,4364,4364,4364,4364,4364,4364,4364,4364,4364,4364,4364,4364,4364,4364,
4364,4364,4364,4364,4364,4364,4364,4364,4364,4364,4364,4364,4364,4364,4364,4364,
4364,4364,4364,4364,4364,4364,4364,4364,4364,4364,4364,4364,4364,4364,4364,4364,
4364,4364,4364,4364,4364,4364,4364,4364,4364,4364,4364,4364,4364,4364,4364,4364,
4364,4364,4364,4364,4364,4364,4364,4364,4364,4364,4364,4364,4364,4364,4364,4364,
4364,4364,4364,4364,4364,4364,4364,4364,4364,4364,4364,4364,4364,4364,4364,4364,
4364,4364,4364,4364,4364,4364,4364,4364,4364,4364,4364,4364,4364,4364,4364,4364,
4364,4364,4364,4364,4364,4364,4364,4364,4364,4364,4364,4364,4364,4364,4364,4364,
4364,4364,4364,4364,4364,4364,4364,4364,4364,4364,4364,4364,4364,4364,4364,4364,
4364,4364,4364,4364,4364,4364,4364,4364,4364,4364,4364,4364,4364,4364,4364,4364,
4364,4364,4364,4364,4364,4364,4364,4364,4364,4364,4364,4364,4364,4364,4364,4364
</chunk>
      <chunk x="176" y="128" width="16" height="16">
4364,4364,4364,4364,4364,4364,4364,4364,4364,4364,4364,4364,4364,4171,6730,11632,
4364,4364,4364,4364,4364,4364,4364,4364,4364,4364,4364,4364,4364,4171,6746,11632,
4364,4364,4364,4364,4364,4364,4364,4364,4364,4364,4364,4364,4364,4171,6714,11632,
4364,4364,4364,4364,4364,4364,4364,4364,4364,4364,4364,4364,4364,4171,6730,11632,
4364,4364,4364,4364,4364,4364,4364,4364,4364,4364,4364,4364,4364,4171,6746,11632,
4364,4364,4364,4364,4364,4364,4364,4364,4364,4364,4364,4364,4364,4171,6714,11632,
4364,4364,4364,4364,4364,4364,4364,4364,4364,4364,4364,4364,4364,4171,6730,11632,
4364,4364,4364,4364,4364,4364,4364,4364,4364,4364,4364,4364,4364,4171,6746,11632,
4364,4364,4364,4364,4364,4364,4364,4364,4364,4364,4364,4364,4364,4171,6714,11632,
4364,4364,4364,4364,4364,4364,4364,4364,4364,4364,4364,4364,4364,4171,6730,11632,
4364,4364,4364,4364,4364,4364,4364,4364,4364,4364,4364,4364,4364,4171,6746,11632,
4364,4364,4364,4364,4364,4364,4364,4364,4364,4364,4364,4364,4364,4171,6714,11632,
4364,4364,4364,4364,4364,4364,4364,4364,4364,4364,4364,4364,4364,4171,6762,6779,
4364,4364,4364,4364,4364,4364,4364,4364,4364,4364,4364,4364,4364,4171,6778,6795,
4364,4364,4364,4364,4364,4364,4364,4364,4364,4364,4364,4364,4364,4171,6794,6763,
4364,4364,4364,4364,4364,4364,4364,4364,4364,4364,4364,4364,4364,4171,6762,6779
</chunk>
      <chunk x="192" y="128" width="16" height="16">
11632,11632,11632,11632,11632,11632,11632,11632,11632,11632,11632,11632,11632,11632,11632,11632,
11632,11632,11632,11632,11632,11632,11632,11632,11632,11632,11632,11632,11632,11632,11632,11632,
11632,11632,11632,11632,11632,11632,11632,11632,11632,11632,11632,11632,11632,11632,11632,11632,
11632,11632,11632,11632,11632,11632,11632,11632,11632,11632,11632,11632,11632,11632,11632,11632,
11632,11632,11632,11632,11632,11632,11632,11632,11632,11632,11632,11632,11632,11632,11632,11632,
11632,11632,11632,11632,11632,11632,11632,11632,11632,11632,11632,11632,11632,11632,11632,11632,
11632,11632,11632,11632,11632,11632,11632,11632,11632,11632,11632,11632,11632,11632,11632,11632,
11632,11632,11632,11632,11632,11632,11632,11632,11632,11632,11632,11632,11632,11632,11632,11632,
11632,11632,11632,11632,11632,11632,11632,11632,11632,11632,11632,11632,11632,11632,11632,11632,
11632,11632,11632,11632,11632,11632,11632,11632,11632,11632,11632,11632,11632,11632,11632,11632,
11632,11632,11632,11632,11632,11632,11632,11632,11632,11632,11632,11632,11632,11632,11632,11632,
11632,11632,11632,11632,11632,11632,11632,11632,11632,11632,11632,11632,11632,11632,11632,11632,
6778,6779,6778,6779,6778,6779,6778,6779,6778,6779,6778,6779,6778,6779,6778,6779,
6794,6795,6794,6795,6794,6795,6794,6795,6794,6795,6794,6795,6794,6795,6794,6795,
6762,6763,6762,6763,6762,6763,6762,6763,6762,6763,6762,6763,6762,6763,6762,6763,
6778,6779,6778,6779,6778,6779,6778,6779,6778,6779,6778,6779,6778,6779,6778,6779
</chunk>
      <chunk x="208" y="128" width="16" height="16">
11632,11632,11632,11632,11632,11632,11632,11632,11632,11632,11632,11632,11632,11632,11632,11632,
11632,11632,11632,11632,11632,11632,11632,11632,11632,11632,11632,11632,11632,11632,11632,11632,
11632,11632,11632,11632,11632,11632,11632,11632,11632,11632,11632,11632,11632,11632,11632,11632,
11632,11632,11632,11632,11632,11632,11632,11632,11632,11632,11632,11632,11632,11632,11632,11632,
11632,11632,11632,11632,11632,11632,11632,11632,11632,11632,11632,11632,11632,11632,11632,11632,
11632,11632,11632,11632,11632,11632,11632,11632,11632,11632,11632,11632,11632,11632,11632,11632,
11632,11632,11632,11632,11632,11632,11632,11632,11632,11632,11632,11632,11632,11632,11632,11632,
11632,11632,11632,11632,11632,11632,11632,11632,11632,11632,11632,11632,11632,11632,11632,11632,
11632,11632,11632,11632,11632,11632,11632,11632,11632,11632,11632,11632,11632,11632,11632,11632,
11632,11632,11632,11632,11632,11632,11632,11632,11632,11632,11632,11632,11632,11632,11632,11632,
11632,11632,11632,11632,11632,11632,11632,11632,11632,11632,11632,11632,11632,11632,11632,11632,
11632,11632,11632,11632,11632,11632,11632,11632,11632,11632,11632,11632,11632,11632,11632,11632,
6778,6779,6778,6779,6778,6779,6778,6779,6778,6779,6778,6779,6778,6779,6778,6779,
6794,6795,6794,6795,6794,6795,6794,6795,6794,6795,6794,6795,6794,6795,6794,6795,
6762,6763,6762,6763,6762,6763,6762,6763,6762,6763,6762,6763,6762,6763,6762,6763,
6778,6779,6778,6779,6778,6779,6778,6779,6778,6779,6778,6779,6778,6779,6778,6779
</chunk>
      <chunk x="224" y="128" width="16" height="16">
11632,11632,11632,11632,11632,11632,11632,11632,11632,11632,11632,11632,11632,11632,11632,11632,
11632,11632,11632,11632,11632,11632,11632,11632,11632,11632,11632,11632,11632,11632,11632,11632,
11632,11632,11632,11632,11632,11632,11632,11632,11632,11632,11632,11632,11632,11632,11632,11632,
11632,11632,11632,11632,11632,11632,11632,11632,11632,11632,11632,11632,11632,11632,11632,11632,
11632,11632,11632,11632,11632,11632,11632,11632,11632,11632,11632,11632,11632,11632,11632,11632,
11632,11632,11632,11632,11632,11632,11632,11632,11632,11632,11632,11632,11632,11632,11632,11632,
11632,11632,11632,11632,11632,11632,11632,11632,11632,11632,11632,11632,11632,11632,11632,11632,
11632,11632,11632,11632,11632,11632,11632,11632,11632,11632,11632,11632,11632,11632,11632,11632,
11632,11632,11632,11632,11632,11632,11632,11632,11632,11632,11632,11632,11632,11632,11632,11632,
11632,11632,11632,11632,11632,11632,11632,11632,11632,11632,11632,11632,11632,11632,11632,11632,
11632,11632,11632,11632,11632,11632,11632,11632,11632,11632,11632,11632,11632,11632,11632,11632,
11632,11632,11632,11632,11632,11632,11632,11632,11632,11632,11632,11632,11632,11632,11632,11632,
6778,6779,6778,6779,6778,6779,6778,6779,6778,6779,6778,6779,6778,6779,6778,6779,
6794,6795,6794,6795,6794,6795,6794,6795,6794,6795,6794,6795,6794,6795,6794,6795,
6762,6763,6762,6763,6762,6763,6762,6763,6762,6763,6762,6763,6762,6763,6762,6763,
6778,6779,6778,6779,6778,6779,6778,6779,6778,6779,6778,6779,6778,6779,6778,6779
</chunk>
      <chunk x="240" y="128" width="16" height="16">
11632,11632,11632,11632,11632,11632,11632,11632,11632,11632,11632,11632,11632,11632,11632,11632,
11632,11632,11632,11632,11632,11632,11632,11632,11632,11632,11632,11632,11632,11632,11632,11632,
11632,11632,11632,11632,11632,11632,11632,11632,11632,11632,11632,11632,11632,11632,11632,11632,
11632,11632,11632,11632,11632,11632,11632,11632,11632,11632,11632,11632,11632,11632,11632,11632,
11632,11632,11632,11632,11632,11632,11632,11632,11632,11632,11632,11632,11632,11632,11632,11632,
11632,11632,11632,11632,11632,11632,11632,11632,11632,11632,11632,11632,11632,11632,11632,11632,
11632,11632,11632,11632,11632,11632,11632,11632,11632,11632,11632,11632,11632,11632,11632,11632,
11632,11632,11632,11632,11632,11632,11632,11632,11632,11632,11632,11632,11632,11632,11632,11632,
11632,11632,11632,11632,11632,11632,11632,11632,11632,11632,11632,11632,11632,11632,11632,11632,
11632,11632,11632,11632,11632,11632,11632,11632,11632,11632,11632,11632,11632,11632,11632,11632,
11632,11632,11632,11632,11632,11632,11632,11632,11632,11632,11632,11632,11632,11632,11632,11632,
11632,11632,11632,11632,11632,11632,11632,11632,11632,11632,11632,11632,11632,11632,11632,11632,
6778,6779,6778,6779,6778,6779,6778,6779,6778,6779,6778,6779,6778,6779,6778,6779,
6794,6795,6794,6795,6794,6795,6794,6795,6794,6795,6794,6795,6794,6795,6794,6795,
6762,6763,6762,6763,6762,6763,6762,6763,6762,6763,6762,6763,6762,6763,6762,6763,
6778,6779,6778,6779,6778,6779,6778,6779,6778,6779,6778,6779,6778,6779,6778,6779
</chunk>
      <chunk x="256" y="128" width="16" height="16">
11632,11632,11632,11632,6778,6779,6778,6779,6778,6779,6778,6779,6778,6779,6778,6779,
11632,11632,11632,11632,6794,6795,6794,6795,6794,6795,6794,6795,6794,6795,6794,6795,
11632,11632,11632,11632,6762,6763,6762,6763,6762,6763,6762,6763,6762,6763,6762,6763,
11632,11632,11632,11632,6778,6779,6778,6779,6778,6779,6778,6779,6778,6779,6778,6779,
11632,11632,11632,11632,6794,6795,6794,6795,6794,6795,6794,6795,6794,6795,6794,6795,
11632,11632,11632,11632,6762,6763,6762,6763,6762,6763,6762,6763,6762,6763,6762,6763,
11632,11632,11632,11632,6778,6779,6778,6779,6778,6779,6778,6779,6778,6779,6778,6779,
11632,11632,11632,11632,6794,6795,6794,6795,6794,6795,6794,6795,6794,6795,6794,6795,
11632,11632,11632,11632,6762,6763,6762,6763,6762,6763,6762,6763,6762,6763,6762,6763,
11632,11632,11632,11632,6778,6779,6778,6779,6778,6779,6778,6779,6778,6779,6778,6779,
11632,11632,11632,11632,6794,6795,6794,6795,6794,6795,6794,6795,6794,6795,6794,6795,
11632,11632,11632,11632,6762,6763,6762,6763,6762,6763,6762,6763,6762,6763,6762,6763,
6778,6779,6778,6779,6778,6779,6778,6779,6778,6779,6778,6779,6778,6779,6778,6779,
6794,6795,6794,6795,6794,6795,6794,6795,6794,6795,6794,6795,6794,6795,6794,6795,
6762,6763,6762,6763,6762,6763,6762,6763,6762,6763,6762,6763,6762,6763,6762,6763,
6778,6779,6778,6779,6778,6779,6778,6779,6778,6779,6778,6779,6778,6779,6778,6779
</chunk>
      <chunk x="272" y="128" width="16" height="16">
6778,6779,6778,6779,6778,6779,6778,6779,0,0,0,0,0,0,0,0,
6794,6795,6794,6795,6794,6795,6794,6795,0,0,0,0,0,0,0,0,
6762,6763,6762,6763,6762,6763,6762,6763,0,0,0,0,0,0,0,0,
6778,6779,6778,6779,6778,6779,6778,6779,0,0,0,0,0,0,0,0,
6794,6795,6794,6795,6794,6795,6794,6795,0,0,0,0,0,0,0,0,
6762,6763,6762,6763,6762,6763,6762,6763,0,0,0,0,0,0,0,0,
6778,6779,6778,6779,6778,6779,6778,6779,0,0,0,0,0,0,0,0,
6794,6795,6794,6795,6794,6795,6794,6795,0,0,0,0,0,0,0,0,
6762,6763,6762,6763,6762,6763,6762,6763,0,0,0,0,0,0,0,0,
6778,6779,6778,6779,6778,6779,6778,6779,0,0,0,0,0,0,0,0,
6794,6795,6794,6795,6794,6795,6794,6795,0,0,0,0,0,0,0,0,
6762,6763,6762,6763,6762,6763,6762,6763,0,0,0,0,0,0,0,0,
6778,6779,6778,6779,6778,6779,6778,6779,0,0,0,0,0,0,0,0,
6794,6795,6794,6795,6794,6795,6794,6795,0,0,0,0,0,0,0,0,
6762,6763,6762,6763,6762,6763,6762,6763,0,0,0,0,0,0,0,0,
6778,6779,6778,6779,6778,6779,6778,6779,0,0,0,0,0,0,0,0
</chunk>
      <chunk x="16" y="144" width="16" height="16">
0,0,0,0,0,0,0,0,0,0,0,0,0,0,6794,6795,
0,0,0,0,0,0,0,0,0,0,0,0,0,0,6762,6763,
0,0,0,0,0,0,0,0,0,0,0,0,0,0,6778,6779,
0,0,0,0,0,0,0,0,0,0,0,0,0,0,6794,6795,
0,0,0,0,0,0,0,0,0,0,0,0,0,0,6762,6763,
0,0,0,0,0,0,0,0,0,0,0,0,0,0,6778,6779,
0,0,0,0,0,0,0,0,0,0,0,0,0,0,6794,6795,
0,0,0,0,0,0,0,0,0,0,0,0,0,0,6762,6763,
0,0,0,0,0,0,0,0,0,0,0,0,0,0,6778,6779,
0,0,0,0,0,0,0,0,0,0,0,0,0,0,6794,6795,
0,0,0,0,0,0,0,0,0,0,0,0,0,0,6762,6763,
0,0,0,0,0,0,0,0,0,0,0,0,0,0,6778,6779,
0,0,0,0,0,0,0,0,0,0,0,0,0,0,6794,6795,
0,0,0,0,0,0,0,0,0,0,0,0,0,0,6762,6763,
0,0,0,0,0,0,0,0,0,0,0,0,0,0,6778,6779,
0,0,0,0,0,0,0,0,0,0,0,0,0,0,6794,6795
</chunk>
      <chunk x="32" y="144" width="16" height="16">
6794,6795,6794,6795,6794,6795,6794,6795,6794,6795,6794,6795,6794,6795,6794,6795,
6762,6763,6762,6763,6762,6763,6762,6763,6762,6763,6762,6763,6762,6763,6762,6763,
6778,6779,6778,6779,6778,6779,6778,6779,6778,6779,6778,6779,6778,6779,6778,6779,
6794,6795,6794,6795,6794,6795,6794,6795,6794,6795,6794,6795,6794,6795,6794,6795,
6762,6763,6762,6763,6762,6763,6762,6763,6762,6763,6762,6763,6762,6763,6762,6763,
6778,6779,6778,6779,6778,6779,6778,6779,6778,6779,6778,6779,6778,6779,6778,6779,
6794,6795,6794,6795,6794,6795,6794,6795,6794,6795,6794,6795,6794,6795,6794,6795,
6762,6763,6762,6763,6762,6763,6762,6763,6762,6763,6762,6763,6762,6763,6762,6763,
6778,6779,6778,6779,6778,6779,6778,6779,6778,6779,6778,6779,6778,6779,6778,6779,
6794,6795,6794,6795,6794,6795,6794,6795,6794,6795,6794,6795,6794,6795,6794,6795,
6762,6763,6762,6763,6762,6763,6762,6763,6762,6763,6762,6763,6762,6763,6762,6763,
6778,6779,6778,6779,6778,6779,6778,6779,6778,6779,6778,6779,6778,6779,6778,6779,
6794,6795,6794,6795,6794,6795,6794,6795,6794,6795,6794,6795,6794,6795,6794,6795,
6762,6763,6762,6763,6762,6763,6762,6763,6762,6763,6762,6763,6762,6763,6762,6763,
6778,6779,6778,6779,6778,6779,6778,6779,6778,6779,6778,6779,6778,6779,6778,6779,
6794,6795,6794,6795,6794,6795,6794,6795,6794,6795,6794,6795,6794,6795,6794,6795
</chunk>
      <chunk x="48" y="144" width="16" height="16">
6794,6795,6794,6795,6794,6795,6794,6795,6794,6795,6794,6795,6794,6795,6794,6795,
6762,6763,6762,6763,6762,6763,6762,6763,6762,6763,6762,6763,6762,6763,6762,6763,
6778,6779,6778,6779,6778,6779,6778,6779,6778,6779,6778,6779,6778,6779,6778,6779,
6794,6795,6794,6795,6794,6795,6794,6795,6794,6795,6794,6795,6794,6795,6794,6795,
6762,6763,6762,6763,6762,6763,6762,6763,6762,6763,6762,6763,6762,6763,6762,6763,
6778,6779,6778,6779,6778,6779,6778,6779,6778,6779,6778,6779,6778,6779,6778,6779,
6794,6795,6794,6795,6794,6795,6794,6795,6794,6795,6794,6795,6794,6795,6794,6795,
6762,6763,6762,6763,6762,6763,6762,6763,6762,6763,6762,6763,6762,6763,6762,6763,
6778,6779,6778,6779,6778,6779,6778,6779,6778,6779,6778,6779,6778,6779,6778,6779,
6794,6795,6794,6795,6794,6795,6794,6795,6794,6795,6794,6795,6794,6795,6794,6795,
6762,6763,6762,6763,6762,6763,6762,6763,6762,6763,6762,6763,6762,6763,6762,6763,
6778,6779,6778,6779,6778,6779,6778,6779,6778,6779,6778,6779,6778,6779,6778,6779,
6794,6795,6794,6795,6794,6795,6794,6795,6794,6795,6794,6795,6794,6795,6794,6795,
6762,6763,6762,6763,6762,6763,6762,6763,6762,6763,6762,6763,6762,6763,6762,6763,
6778,6779,6778,6779,6778,6779,6778,6779,6778,6779,6778,6779,6778,6779,6778,6779,
6794,6795,6794,6795,6794,6795,6794,6795,6794,6795,6794,6795,6794,6795,6794,6795
</chunk>
      <chunk x="64" y="144" width="16" height="16">
6794,6795,6794,6795,6794,6795,6794,6795,6794,6795,6794,6795,6794,6795,6794,6795,
6762,6763,6762,6763,6762,6763,6762,6763,6762,6763,6762,6763,6762,6763,6762,6763,
6778,6779,6778,6779,6778,6779,6778,6779,6778,6779,6778,6779,6778,6779,6778,6779,
6794,6795,6794,6795,6794,6795,6794,6795,6794,6795,6794,6795,6794,6795,6794,6795,
6762,6763,6762,6763,6762,6763,6762,6763,6762,6763,6762,6763,6762,6763,6762,6763,
6778,6779,6778,6779,6778,6779,6778,6779,6778,6779,6778,6779,6778,6779,6778,6779,
6794,6795,6794,6795,6794,6795,6794,6795,6794,6795,6794,6795,6794,6795,6794,6795,
6762,6763,6762,6763,6762,6763,6762,6763,6762,6763,6762,6763,6762,6763,6762,6763,
6778,6779,6778,6779,6778,6779,6778,6779,6778,6779,6778,6779,6778,6779,6778,6779,
6794,6795,6794,6795,6794,6795,6794,6795,6794,6795,6794,6795,6794,6795,6794,6795,
6762,6763,6762,6763,6762,6763,6762,6763,6762,6763,6762,6763,6762,6763,6762,6763,
6778,6779,6778,6779,6778,6779,6778,6779,6778,6779,6778,6779,6778,6779,6778,6779,
6794,6795,6794,6795,6794,6795,6794,6795,6794,6795,6794,6795,6794,6795,6794,6795,
6762,6763,6762,6763,6762,6763,6762,6763,6762,6763,6762,6763,6762,6763,6762,6763,
6778,6779,6778,6779,6778,6779,6778,6779,6778,6779,6778,6779,6778,6779,6778,6779,
6794,6795,6794,6795,6794,6795,6794,6795,6794,6795,6794,6795,6794,6795,6794,6795
</chunk>
      <chunk x="80" y="144" width="16" height="16">
6794,6795,6794,6795,6794,6795,6794,6795,6794,6795,6794,6795,6794,6795,6794,6795,
6762,6763,6762,6763,6762,6763,6762,6763,6762,6763,6762,6763,6762,6763,6762,6763,
6778,6779,6778,6779,6778,6779,6778,6779,6778,6779,6778,6779,6778,6779,6778,6779,
6794,6795,6794,6795,6794,6795,6794,6795,6794,6795,6794,6795,6794,6795,6794,6795,
6762,6763,6762,6763,6762,6763,6762,6763,6762,6763,6762,6763,6762,6763,6762,6763,
6778,6779,6778,6779,6778,6779,6778,6779,6778,6779,6778,6779,6778,6779,6778,6779,
6794,6795,6794,6795,6794,6795,6794,6795,6794,6795,6794,6795,6794,6795,6794,6795,
6762,6763,6762,6763,6762,6763,6762,6763,6762,6763,6762,6763,6762,6763,6762,6763,
6778,6779,6778,6779,6778,6779,6778,6779,6778,6779,6778,6779,6778,6779,6778,6779,
6794,6795,6794,6795,6794,6795,6794,6795,6794,6795,6794,6795,6794,6795,6794,6795,
6762,6763,6762,6763,6762,6763,6762,6763,6762,6763,6762,6763,6762,6763,6762,6763,
6778,6779,6778,6779,6778,6779,6778,6779,6778,6779,6778,6779,6778,6779,6778,6779,
6794,6795,6794,6795,6794,6795,6794,6795,6794,6795,6794,6795,6794,6795,6794,6795,
6762,6763,6762,6763,6762,6763,6762,6763,6762,6763,6762,6763,6762,6763,6762,6763,
6778,6779,6778,6779,6778,6779,6778,6779,6778,6779,6778,6779,6778,6779,6778,6779,
6794,6795,6794,6795,6794,6795,6794,6795,6794,6795,6794,6795,6794,6795,6794,6795
</chunk>
      <chunk x="96" y="144" width="16" height="16">
6794,6795,6794,6795,6794,6795,6794,6795,6794,6795,6794,6795,6794,6795,6794,6795,
6762,6763,6762,6763,6762,6763,6762,6763,6762,6763,6762,6763,6762,6763,6762,6763,
6778,6779,6778,6779,6778,6779,6778,6779,6778,6779,6778,6779,6778,6779,6778,6779,
6794,6795,6794,6795,6794,6795,6794,6795,6794,6795,6794,6795,6794,6795,6794,6795,
6762,6763,6762,6763,6762,6763,6762,6763,6762,6763,6762,6763,6762,6763,6762,6763,
6778,6779,6778,6779,6778,6779,6778,6779,6778,6779,6778,6779,6778,6779,6778,6779,
6794,6795,6794,6795,6794,6795,6794,6795,6794,6795,6794,6795,6794,6795,6794,6795,
6762,6763,6762,6763,6762,6763,6762,6763,6762,6763,6762,6763,6762,6763,6762,6763,
6778,6779,6778,6779,6778,6779,6778,6779,6778,6779,6778,6779,6778,6779,6778,6779,
6794,6795,6794,6795,6794,6795,6794,6795,6794,6795,6794,6795,6794,6795,6794,6795,
6762,6763,6762,6763,6762,6763,6762,6763,6762,6763,6762,6763,6762,6763,6762,6763,
6778,6779,6778,6779,6778,6779,6778,6779,6778,6779,6778,6779,6778,6779,6778,6779,
6794,6795,6794,6795,6794,6795,6794,6795,6794,6795,6794,6795,6794,6795,6794,6795,
6762,6763,6762,6763,6762,6763,6762,6763,6762,6763,6762,6763,6762,6763,6762,6763,
6778,6779,6778,6779,6778,6779,6778,6779,6778,6779,6778,6779,6778,6779,6778,6779,
6794,6795,6794,6795,6794,6795,6794,6795,6794,6795,6794,6795,6794,6795,6794,6795
</chunk>
      <chunk x="112" y="144" width="16" height="16">
6794,6795,6794,6795,6794,6795,6794,6778,4167,4364,4364,4364,4364,4364,4364,4364,
6762,6763,6762,6763,6762,6763,6762,6794,4167,4364,4364,4364,4364,4364,4364,4364,
6778,6779,6778,6779,6778,6779,6778,6762,4167,4364,4364,4364,4364,4364,4364,4364,
6794,6795,6794,6795,6794,6795,6794,6778,4167,4364,4364,4364,4364,4364,4364,4364,
6762,6763,6762,6763,6762,6763,6762,6794,4167,4364,4364,4364,4364,4364,4364,4364,
6778,6779,6778,6779,6778,6779,6778,6762,4167,4364,4364,4364,4364,4364,4364,4364,
6794,6795,6794,6795,6794,6795,6794,6778,4167,4364,4364,4364,4364,4364,4364,4364,
6762,6763,6762,6763,6762,6763,6762,6794,4167,4364,4364,4364,4364,4364,4364,4364,
6778,6779,6778,6779,6778,6779,6778,6762,4167,4364,4364,4364,4364,4364,4364,4364,
6794,6795,6794,6795,6794,6795,6794,6778,4167,4364,4364,4364,4364,4364,4364,4364,
6762,6763,6762,6763,6762,6763,6762,6794,4167,4364,4364,4364,4364,4364,4364,4364,
6778,6779,6778,6779,6778,6779,6778,6762,4167,4364,4364,4364,4364,4364,4364,4364,
6794,6795,6794,6795,6794,6795,6794,6778,4167,4364,4364,4364,4364,4364,4364,4364,
6762,6763,6762,6763,6762,6763,6762,6794,4167,4364,4364,4364,4364,4364,4364,4364,
6778,6779,6778,6779,6778,6779,6778,6762,4167,4364,4364,4364,4364,4364,4364,4364,
6794,6795,6794,6795,6794,6795,6794,6778,4167,4364,4364,4364,4364,4364,4364,4364
</chunk>
      <chunk x="128" y="144" width="16" height="16">
4364,4364,4364,4364,4364,4364,4364,4364,4364,4364,4364,4364,4364,4364,4364,4364,
4364,4364,4364,4364,4364,4364,4364,4364,4364,4364,4364,4364,4364,4364,4364,4364,
4364,4364,4364,4364,4364,4364,4364,4364,4364,4364,4364,4364,4364,4364,4364,4364,
4364,4364,4364,4364,4364,4364,4364,4364,4364,4364,4364,4364,4364,4364,4364,4364,
4364,4364,4364,4364,4364,4364,4364,4364,4364,4364,4364,4364,4364,4364,4364,4364,
4364,4364,4364,4364,4364,4364,4364,4364,4364,4364,4364,4364,4364,4364,4364,4364,
4364,4364,4364,4364,4364,4364,4364,4364,4364,4364,4364,4364,4364,4364,4364,4364,
4364,4364,4364,4364,4364,4364,4364,4364,4364,4364,4364,4364,4364,4364,4364,4364,
4364,4364,4364,4364,4364,4364,4364,4364,4364,4364,4364,4364,4364,4364,4364,4364,
4364,4364,4364,4364,4364,4364,4364,4364,4364,4364,4364,4364,4364,4364,4364,4364,
4364,4364,4364,4364,4364,4364,4364,4364,4364,4364,4364,4364,4364,4364,4364,4364,
4364,4364,4364,4364,4364,4364,4364,4364,4364,4364,4364,4364,4364,4364,4364,4364,
4364,4364,4364,4364,4364,4364,4364,4364,4364,4364,4364,4364,4364,4364,4364,4364,
4364,4364,4364,4364,4364,4364,4364,4364,4364,4364,4364,4364,4364,4364,4364,4364,
4364,4364,4364,4364,4364,4364,4364,4364,4364,4364,4364,4364,4364,4364,4364,4364,
4364,4364,4364,4364,4364,4364,4364,4364,4364,4364,4364,4364,4364,4364,4364,4364
</chunk>
      <chunk x="144" y="144" width="16" height="16">
4364,4364,4364,4364,4364,4364,4364,4364,4364,8694,8842,8842,8698,4364,4364,4364,
4364,4364,4364,4364,4364,4364,4364,4364,4364,8694,8842,8842,8698,4364,4364,4364,
4364,4364,4364,4364,4364,4364,4364,4364,4364,8694,8842,8842,8698,4364,4364,4364,
4364,4364,4364,4364,4364,4364,4364,4364,4364,8694,8842,8842,8698,4364,4364,4364,
4364,4364,4364,4364,4364,4364,4364,4364,4364,8694,8842,8842,8698,4364,4364,4364,
4364,4364,4364,4364,4364,4364,4364,4364,4364,8694,8842,8842,8698,4364,4364,4364,
4364,4364,4364,4364,4364,4364,4364,4364,4364,8694,8842,8842,8698,4364,4364,4364,
4364,4364,4364,4364,4364,4364,4364,4364,4364,8694,8842,8842,8698,4364,4364,4364,
4364,4364,4364,4364,4364,4364,4364,4364,4364,8694,8842,8842,8698,4364,4364,4364,
4364,4364,4364,4364,4364,4364,4364,4364,4364,8694,8842,8842,8698,4364,4364,4364,
4364,4364,4364,4364,4364,4364,4364,4364,4364,8694,8842,8842,8698,4364,4364,4364,
4364,4364,4364,4364,4364,4364,4364,4364,4364,8694,8842,8842,8698,4364,4364,4364,
4364,4364,4364,4364,4364,4364,4364,4364,4364,8694,8842,8842,8698,4364,4364,4364,
4364,4364,4364,4364,4364,4364,4364,4364,4364,8694,8842,8842,8698,4364,4364,4364,
4364,4364,4364,4364,4364,4364,4364,4364,4364,8694,8842,8842,8698,4364,4364,4364,
4364,4364,4364,4364,4364,4364,4364,4364,4364,8694,8842,8842,8698,4364,4364,4364
</chunk>
      <chunk x="160" y="144" width="16" height="16">
4364,4364,4364,4364,4364,4364,4364,4364,4364,4364,4364,4364,4364,4364,4364,4364,
4364,4364,4364,4364,4364,4364,4364,4364,4364,4364,4364,4364,4364,4364,4364,4364,
4364,4364,4364,4364,4364,4364,4364,4364,4364,4364,4364,4364,4364,4364,4364,4364,
4364,4364,4364,4364,4364,4364,4364,4364,4364,4364,4364,4364,4364,4364,4364,4364,
4364,4364,4364,4364,4364,4364,4364,4364,4364,4364,4364,4364,4364,4364,4364,4364,
4364,4364,4364,4364,4364,4364,4364,4364,4364,4364,4364,4364,4364,4364,4364,4364,
4364,4364,4364,4364,4364,4364,4364,4364,4364,4364,4364,4364,4364,4364,4364,4364,
4364,4364,4364,4364,4364,4364,4364,4364,4364,4364,4364,4364,4364,4364,4364,4364,
4364,4364,4364,4364,4364,4364,4364,4364,4364,4364,4364,4364,4364,4364,4364,4364,
4364,4364,4364,4364,4364,4364,4364,4364,4364,4364,4364,4364,4364,4364,4364,4364,
4364,4364,4364,4364,4364,4364,4364,4364,4364,4364,4364,4364,4364,4364,4364,4364,
4364,4364,4364,4364,4364,4364,4364,4364,4364,4364,4364,4364,4364,4364,4364,4364,
4364,4364,4364,4364,4364,4364,4364,4364,4364,4364,4364,4364,4364,4364,4364,4364,
4364,4364,4364,4364,4364,4364,4364,4364,4364,4364,4364,4364,4364,4364,4364,4364,
4364,4364,4364,4364,4364,4364,4364,4364,4364,4364,4364,4364,4364,4364,4364,4364,
4364,4364,4364,4364,4364,4364,4364,4364,4364,4364,4364,4364,4364,4364,4364,4364
</chunk>
      <chunk x="176" y="144" width="16" height="16">
4364,4364,4364,4364,4364,4364,4364,4364,4364,4364,4364,4364,4364,4171,6778,6795,
4364,4364,4364,4364,4364,4364,4364,4364,4364,4364,4364,4364,4364,4171,6794,6763,
4364,4364,4364,4364,4364,4364,4364,4364,4364,4364,4364,4364,4364,4171,6762,6779,
4364,4364,4364,4364,4364,4364,4364,4364,4364,4364,4364,4364,4364,4171,6778,6795,
4364,4364,4364,4364,4364,4364,4364,4364,4364,4364,4364,4364,4364,4171,6794,6763,
4364,4364,4364,4364,4364,4364,4364,4364,4364,4364,4364,4364,4364,4171,6762,6779,
4364,4364,4364,4364,4364,4364,4364,4364,4364,4364,4364,4364,4364,4171,6778,6795,
4364,4364,4364,4364,4364,4364,4364,4364,4364,4364,4364,4364,4364,4171,6794,6763,
4364,4364,4364,4364,4364,4364,4364,4364,4364,4364,4364,4364,4364,4171,6762,6779,
4364,4364,4364,4364,4364,4364,4364,4364,4364,4364,4364,4364,4364,4171,6778,6795,
4364,4364,4364,4364,4364,4364,4364,4364,4364,4364,4364,4364,4364,4171,6794,6763,
4364,4364,4364,4364,4364,4364,4364,4364,4364,4364,4364,4364,4364,4171,6762,6779,
4364,4364,4364,4364,4364,4364,4364,4364,4364,4364,4364,4364,4364,4171,6778,6795,
4364,4364,4364,4364,4364,4364,4364,4364,4364,4364,4364,4364,4364,4171,6794,6763,
4364,4364,4364,4364,4364,4364,4364,4364,4364,4364,4364,4364,4364,4171,6762,6779,
4364,4364,4364,4364,4364,4364,4364,4364,4364,4364,4364,4364,4364,4171,6778,6795
</chunk>
      <chunk x="192" y="144" width="16" height="16">
6794,6795,6794,6795,6794,6795,6794,6795,6794,6795,6794,6795,6794,6795,6794,6795,
6762,6763,6762,6763,6762,6763,6762,6763,6762,6763,6762,6763,6762,6763,6762,6763,
6778,6779,6778,6779,6778,6779,6778,6779,6778,6779,6778,6779,6778,6779,6778,6779,
6794,6795,6794,6795,6794,6795,6794,6795,6794,6795,6794,6795,6794,6795,6794,6795,
6762,6763,6762,6763,6762,6763,6762,6763,6762,6763,6762,6763,6762,6763,6762,6763,
6778,6779,6778,6779,6778,6779,6778,6779,6778,6779,6778,6779,6778,6779,6778,6779,
6794,6795,6794,6795,6794,6795,6794,6795,6794,6795,6794,6795,6794,6795,6794,6795,
6762,6763,6762,6763,6762,6763,6762,6763,6762,6763,6762,6763,6762,6763,6762,6763,
6778,6779,6778,6779,6778,6779,6778,6779,6778,6779,6778,6779,6778,6779,6778,6779,
6794,6795,6794,6795,6794,6795,6794,6795,6794,6795,6794,6795,6794,6795,6794,6795,
6762,6763,6762,6763,6762,6763,6762,6763,6762,6763,6762,6763,6762,6763,6762,6763,
6778,6779,6778,6779,6778,6779,6778,6779,6778,6779,6778,6779,6778,6779,6778,6779,
6794,6795,6794,6795,6794,6795,6794,6795,6794,6795,6794,6795,6794,6795,6794,6795,
6762,6763,6762,6763,6762,6763,6762,6763,6762,6763,6762,6763,6762,6763,6762,6763,
6778,6779,6778,6779,6778,6779,6778,6779,6778,6779,6778,6779,6778,6779,6778,6779,
6794,6795,6794,6795,6794,6795,6794,6795,6794,6795,6794,6795,6794,6795,6794,6795
</chunk>
      <chunk x="208" y="144" width="16" height="16">
6794,6795,6794,6795,6794,6795,6794,6795,6794,6795,6794,6795,6794,6795,6794,6795,
6762,6763,6762,6763,6762,6763,6762,6763,6762,6763,6762,6763,6762,6763,6762,6763,
6778,6779,6778,6779,6778,6779,6778,6779,6778,6779,6778,6779,6778,6779,6778,6779,
6794,6795,6794,6795,6794,6795,6794,6795,6794,6795,6794,6795,6794,6795,6794,6795,
6762,6763,6762,6763,6762,6763,6762,6763,6762,6763,6762,6763,6762,6763,6762,6763,
6778,6779,6778,6779,6778,6779,6778,6779,6778,6779,6778,6779,6778,6779,6778,6779,
6794,6795,6794,6795,6794,6795,6794,6795,6794,6795,6794,6795,6794,6795,6794,6795,
6762,6763,6762,6763,6762,6763,6762,6763,6762,6763,6762,6763,6762,6763,6762,6763,
6778,6779,6778,6779,6778,6779,6778,6779,6778,6779,6778,6779,6778,6779,6778,6779,
6794,6795,6794,6795,6794,6795,6794,6795,6794,6795,6794,6795,6794,6795,6794,6795,
6762,6763,6762,6763,6762,6763,6762,6763,6762,6763,6762,6763,6762,6763,6762,6763,
6778,6779,6778,6779,6778,6779,6778,6779,6778,6779,6778,6779,6778,6779,6778,6779,
6794,6795,6794,6795,6794,6795,6794,6795,6794,6795,6794,6795,6794,6795,6794,6795,
6762,6763,6762,6763,6762,6763,6762,6763,6762,6763,6762,6763,6762,6763,6762,6763,
6778,6779,6778,6779,6778,6779,6778,6779,6778,6779,6778,6779,6778,6779,6778,6779,
6794,6795,6794,6795,6794,6795,6794,6795,6794,6795,6794,6795,6794,6795,6794,6795
</chunk>
      <chunk x="224" y="144" width="16" height="16">
6794,6795,6794,6795,6794,6795,6794,6795,6794,6795,6794,6795,6794,6795,6794,6795,
6762,6763,6762,6763,6762,6763,6762,6763,6762,6763,6762,6763,6762,6763,6762,6763,
6778,6779,6778,6779,6778,6779,6778,6779,6778,6779,6778,6779,6778,6779,6778,6779,
6794,6795,6794,6795,6794,6795,6794,6795,6794,6795,6794,6795,6794,6795,6794,6795,
6762,6763,6762,6763,6762,6763,6762,6763,6762,6763,6762,6763,6762,6763,6762,6763,
6778,6779,6778,6779,6778,6779,6778,6779,6778,6779,6778,6779,6778,6779,6778,6779,
6794,6795,6794,6795,6794,6795,6794,6795,6794,6795,6794,6795,6794,6795,6794,6795,
6762,6763,6762,6763,6762,6763,6762,6763,6762,6763,6762,6763,6762,6763,6762,6763,
6778,6779,6778,6779,6778,6779,6778,6779,6778,6779,6778,6779,6778,6779,6778,6779,
6794,6795,6794,6795,6794,6795,6794,6795,6794,6795,6794,6795,6794,6795,6794,6795,
6762,6763,6762,6763,6762,6763,6762,6763,6762,6763,6762,6763,6762,6763,6762,6763,
6778,6779,6778,6779,6778,6779,6778,6779,6778,6779,6778,6779,6778,6779,6778,6779,
6794,6795,6794,6795,6794,6795,6794,6795,6794,6795,6794,6795,6794,6795,6794,6795,
6762,6763,6762,6763,6762,6763,6762,6763,6762,6763,6762,6763,6762,6763,6762,6763,
6778,6779,6778,6779,6778,6779,6778,6779,6778,6779,6778,6779,6778,6779,6778,6779,
6794,6795,6794,6795,6794,6795,6794,6795,6794,6795,6794,6795,6794,6795,6794,6795
</chunk>
      <chunk x="240" y="144" width="16" height="16">
6794,6795,6794,6795,6794,6795,6794,6795,6794,6795,6794,6795,6794,6795,6794,6795,
6762,6763,6762,6763,6762,6763,6762,6763,6762,6763,6762,6763,6762,6763,6762,6763,
6778,6779,6778,6779,6778,6779,6778,6779,6778,6779,6778,6779,6778,6779,6778,6779,
6794,6795,6794,6795,6794,6795,6794,6795,6794,6795,6794,6795,6794,6795,6794,6795,
6762,6763,6762,6763,6762,6763,6762,6763,6762,6763,6762,6763,6762,6763,6762,6763,
6778,6779,6778,6779,6778,6779,6778,6779,6778,6779,6778,6779,6778,6779,6778,6779,
6794,6795,6794,6795,6794,6795,6794,6795,6794,6795,6794,6795,6794,6795,6794,6795,
6762,6763,6762,6763,6762,6763,6762,6763,6762,6763,6762,6763,6762,6763,6762,6763,
6778,6779,6778,6779,6778,6779,6778,6779,6778,6779,6778,6779,6778,6779,6778,6779,
6794,6795,6794,6795,6794,6795,6794,6795,6794,6795,6794,6795,6794,6795,6794,6795,
6762,6763,6762,6763,6762,6763,6762,6763,6762,6763,6762,6763,6762,6763,6762,6763,
6778,6779,6778,6779,6778,6779,6778,6779,6778,6779,6778,6779,6778,6779,6778,6779,
6794,6795,6794,6795,6794,6795,6794,6795,6794,6795,6794,6795,6794,6795,6794,6795,
6762,6763,6762,6763,6762,6763,6762,6763,6762,6763,6762,6763,6762,6763,6762,6763,
6778,6779,6778,6779,6778,6779,6778,6779,6778,6779,6778,6779,6778,6779,6778,6779,
6794,6795,6794,6795,6794,6795,6794,6795,6794,6795,6794,6795,6794,6795,6794,6795
</chunk>
      <chunk x="256" y="144" width="16" height="16">
6794,6795,6794,6795,6794,6795,6794,6795,6794,6795,6794,6795,6794,6795,6794,6795,
6762,6763,6762,6763,6762,6763,6762,6763,6762,6763,6762,6763,6762,6763,6762,6763,
6778,6779,6778,6779,6778,6779,6778,6779,6778,6779,6778,6779,6778,6779,6778,6779,
6794,6795,6794,6795,6794,6795,6794,6795,6794,6795,6794,6795,6794,6795,6794,6795,
6762,6763,6762,6763,6762,6763,6762,6763,6762,6763,6762,6763,6762,6763,6762,6763,
6778,6779,6778,6779,6778,6779,6778,6779,6778,6779,6778,6779,6778,6779,6778,6779,
6794,6795,6794,6795,6794,6795,6794,6795,6794,6795,6794,6795,6794,6795,6794,6795,
6762,6763,6762,6763,6762,6763,6762,6763,6762,6763,6762,6763,6762,6763,6762,6763,
6778,6779,6778,6779,6778,6779,6778,6779,6778,6779,6778,6779,6778,6779,6778,6779,
6794,6795,6794,6795,6794,6795,6794,6795,6794,6795,6794,6795,6794,6795,6794,6795,
6762,6763,6762,6763,6762,6763,6762,6763,6762,6763,6762,6763,6762,6763,6762,6763,
6778,6779,6778,6779,6778,6779,6778,6779,6778,6779,6778,6779,6778,6779,6778,6779,
6794,6795,6794,6795,6794,6795,6794,6795,6794,6795,6794,6795,6794,6795,6794,6795,
6762,6763,6762,6763,6762,6763,6762,6763,6762,6763,6762,6763,6762,6763,6762,6763,
6778,6779,6778,6779,6778,6779,6778,6779,6778,6779,6778,6779,6778,6779,6778,6779,
6794,6795,6794,6795,6794,6795,6794,6795,6794,6795,6794,6795,6794,6795,6794,6795
</chunk>
      <chunk x="272" y="144" width="16" height="16">
6794,6795,6794,6795,6794,6795,6794,6795,0,0,0,0,0,0,0,0,
6762,6763,6762,6763,6762,6763,6762,6763,0,0,0,0,0,0,0,0,
6778,6779,6778,6779,6778,6779,6778,6779,0,0,0,0,0,0,0,0,
6794,6795,6794,6795,6794,6795,6794,6795,0,0,0,0,0,0,0,0,
6762,6763,6762,6763,6762,6763,6762,6763,0,0,0,0,0,0,0,0,
6778,6779,6778,6779,6778,6779,6778,6779,0,0,0,0,0,0,0,0,
6794,6795,6794,6795,6794,6795,6794,6795,0,0,0,0,0,0,0,0,
6762,6763,6762,6763,6762,6763,6762,6763,0,0,0,0,0,0,0,0,
6778,6779,6778,6779,6778,6779,6778,6779,0,0,0,0,0,0,0,0,
6794,6795,6794,6795,6794,6795,6794,6795,0,0,0,0,0,0,0,0,
6762,6763,6762,6763,6762,6763,6762,6763,0,0,0,0,0,0,0,0,
6778,6779,6778,6779,6778,6779,6778,6779,0,0,0,0,0,0,0,0,
6794,6795,6794,6795,6794,6795,6794,6795,0,0,0,0,0,0,0,0,
6762,6763,6762,6763,6762,6763,6762,6763,0,0,0,0,0,0,0,0,
6778,6779,6778,6779,6778,6779,6778,6779,0,0,0,0,0,0,0,0,
6794,6795,6794,6795,6794,6795,6794,6795,0,0,0,0,0,0,0,0
</chunk>
      <chunk x="96" y="160" width="16" height="16">
0,0,0,0,6762,6763,6762,6763,6762,6763,6762,6763,6762,6763,6762,6763,
0,0,0,0,6778,6779,6778,6779,6778,6779,6778,6779,6778,6779,6778,6779,
0,0,0,0,6794,6795,6794,6795,6794,6795,6794,6795,6794,6795,6794,6795,
0,0,0,0,6762,6763,6762,6763,6762,6763,6762,6763,6762,6763,6762,6763,
0,0,0,0,6778,6779,6778,6779,6778,6779,6778,6779,6778,6779,6778,6779,
0,0,0,0,6794,6795,6794,6795,6794,6795,6794,6795,6794,6795,6794,6795,
0,0,0,0,6762,6763,6762,6763,6762,6763,6762,6763,6762,6763,6762,6763,
0,0,0,0,6778,6779,6778,6779,6778,6779,6778,6779,6778,6779,6778,6779,
0,0,0,0,6794,6795,6794,6795,6794,6795,6794,6795,6794,6795,6794,6795,
0,0,0,0,6762,6763,6762,6763,6762,6763,6762,6763,6762,6763,6762,6763,
0,0,0,0,6778,6779,6778,6779,6778,6779,6778,6779,6778,6779,6778,6779,
0,0,0,0,6794,6795,6794,6795,6794,6795,6794,6795,6794,6795,6794,6795,
0,0,0,0,6762,6763,6762,6763,6762,6763,6762,6763,6762,6763,6762,6763,
0,0,0,0,6778,6779,6778,6779,6778,6779,6778,6779,6778,6779,6778,6779,
0,0,0,0,6794,6795,6794,6795,6794,6795,6794,6795,6794,6795,6794,6795,
0,0,0,0,6762,6763,6762,6763,6762,6763,6762,6763,6762,6763,6762,6763
</chunk>
      <chunk x="112" y="160" width="16" height="16">
6762,6763,6762,6763,6762,6763,6762,6794,4167,4364,4364,4364,4364,4364,4364,4364,
6778,6779,6778,6779,6778,6779,6778,6762,4167,4364,4364,4364,4364,4364,4364,4364,
6794,6795,6794,6795,6794,6795,6794,6778,4167,4364,4364,4364,4364,4364,4364,4364,
6762,6763,6762,6763,6762,6763,6762,6794,4167,4364,4364,4364,4364,4364,4364,4364,
6778,6779,6778,6779,6778,6779,6778,6762,4167,4364,4364,4364,4364,4364,4364,4364,
6794,6795,6794,6795,6794,6795,6794,6778,4167,4364,4364,4364,4364,4364,4364,4364,
6762,6763,6762,6763,6762,6763,6762,6794,4167,4364,4364,4364,4364,4364,4364,4364,
6778,6779,6778,6779,6778,6779,6778,6762,4167,4364,4364,4364,4364,4364,4364,4364,
6794,6795,6794,6795,6794,6795,6794,6778,4167,4364,4364,4364,4364,4364,4364,4364,
6762,6763,6762,6763,6762,6763,6762,6794,4167,4364,4364,4364,4364,4364,4364,4364,
6778,6779,6778,6779,6778,6779,6778,6762,4167,4364,4364,4364,4364,4364,4364,4364,
6794,6795,6794,6795,6794,6795,6794,6778,4167,4364,4364,4364,4364,4364,4364,4364,
6762,6763,6762,6763,6762,6763,6762,6794,4167,4364,4364,4364,4364,4364,4364,4364,
6778,6779,6778,6779,6778,6779,6778,6762,4167,4364,4364,4364,4364,4364,4364,4364,
6794,6795,6794,6795,6794,6795,6794,6778,4167,4364,4364,4364,4364,4364,4364,4364,
6762,6763,6762,6763,6762,6763,6762,6794,4167,4364,4364,4364,4364,4364,4364,4364
</chunk>
      <chunk x="128" y="160" width="16" height="16">
4364,4364,4364,4364,4364,4364,4364,4364,4364,4364,4364,4364,4364,4364,4364,4364,
4364,4364,4364,4364,4364,4364,4364,4364,4364,4364,4364,4364,4364,4364,4364,4364,
4364,4364,4364,4364,4364,4364,4364,4364,4364,4364,4364,4364,4364,4364,4364,4364,
4364,4364,4364,4364,4364,4364,4364,4364,4364,4364,4364,4364,4364,4364,4364,4364,
4364,4364,4364,4364,4364,4364,4364,4364,4364,4364,4364,4364,4364,4364,4364,4364,
4364,4364,4364,4364,4364,4364,4364,4364,4364,4364,4364,4364,4364,4364,4364,4364,
4364,4364,4364,4364,4364,4364,4364,4364,4364,4364,4364,4364,4364,4364,4364,4364,
4364,4364,4364,4364,4364,4364,4364,4364,4364,4364,4364,4364,4364,4364,4364,4364,
4364,4364,4364,4364,4364,4364,4364,4364,4364,4364,4364,4364,4364,4364,4364,4364,
4364,4364,4364,4364,4364,4364,4364,4364,4364,4364,4364,4364,4364,4364,4364,4364,
4364,4364,4364,4364,4364,4364,4364,4364,4364,4364,4364,4364,4364,4364,4364,4364,
4364,4364,4364,4364,4364,4364,4364,4364,4364,4364,4364,4364,4364,4364,4364,4364,
4364,4364,4364,4364,4364,4364,4364,4364,4364,4364,4364,4364,4364,4364,4364,4364,
4364,4364,4364,4364,4364,4364,4364,4364,4364,4364,4364,4364,4364,4364,4364,4364,
4364,4364,4364,4364,4364,4364,4364,4364,4364,4364,4364,4364,4364,4364,4364,4364,
4364,4364,4364,4364,4364,4364,4364,4364,4364,4364,4364,4364,4364,4364,4364,4364
</chunk>
      <chunk x="144" y="160" width="16" height="16">
4364,4364,4364,4364,4364,4364,4364,4364,4364,8694,8842,8842,8698,4364,4364,4364,
4364,4364,4364,4364,4364,4364,4364,4364,4364,8694,8842,8842,8698,4364,4364,4364,
4364,4364,4364,4364,4364,4364,4364,4364,4364,8694,8842,8842,8698,4364,4364,4364,
4364,4364,4364,4364,4364,4364,4364,4364,4364,8694,8842,8842,8698,4364,4364,4364,
4364,4364,4364,4364,4364,4364,4364,4364,4364,8694,8842,8842,8698,4364,4364,4364,
4364,4364,4364,4364,4364,4364,4364,4364,4364,8694,8842,8842,8698,4364,4364,4364,
4364,4364,4364,4364,4364,4364,4364,4364,4364,8694,8842,8842,8698,4364,4364,4364,
4364,4364,4364,4364,4364,4364,4364,4364,4364,8694,8842,8842,8698,4364,4364,4364,
4364,4364,4364,4364,4364,4364,4364,4364,4364,8694,8842,8842,8698,4364,4364,4364,
4364,4364,4364,4364,4364,4364,4364,4364,4364,8694,8842,8842,8698,4364,4364,4364,
4364,4364,4364,4364,4364,4364,4364,4364,4364,8694,8842,8842,8698,4364,4364,4364,
4364,4364,4364,4364,4364,4364,4364,4364,4364,8694,8842,8842,8698,4364,4364,4364,
4364,4364,4364,4364,4364,4364,4364,4364,4364,8694,8842,8842,8698,4364,4364,4364,
4364,4364,4364,4364,4364,4364,4364,4364,4364,8694,8842,8842,8698,4364,4364,4364,
4364,4364,4364,4364,4364,4364,4364,4364,4364,8694,8842,8842,8698,4364,4364,4364,
4364,4364,4364,4364,4364,4364,4364,4364,4364,8694,8842,8842,8698,4364,4364,4364
</chunk>
      <chunk x="160" y="160" width="16" height="16">
4364,4364,4364,4364,4364,4364,4364,4364,4364,4364,4364,4364,4364,4364,4364,4364,
4364,4364,4364,4364,4364,4364,4364,4364,4364,4364,4364,4364,4364,4364,4364,4364,
4364,4364,4364,4364,4364,4364,4364,4364,4364,4364,4364,4364,4364,4364,4364,4364,
4364,4364,4364,4364,4364,4364,4364,4364,4364,4364,4364,4364,4364,4364,4364,4364,
4364,4364,4364,4364,4364,4364,4364,4364,4364,4364,4364,4364,4364,4364,4364,4364,
4364,4364,4364,4364,4364,4364,4364,4364,4364,4364,4364,4364,4364,4364,4364,4364,
4364,4364,4364,4364,4364,4364,4364,4364,4364,4364,4364,4364,4364,4364,4364,4364,
4364,4364,4364,4364,4364,4364,4364,4364,4364,4364,4364,4364,4364,4364,4364,4364,
4364,4364,4364,4364,4364,4364,4364,4364,4364,4364,4364,4364,4364,4364,4364,4364,
4364,4364,4364,4364,4364,4364,4364,4364,4364,4364,4364,4364,4364,4364,4364,4364,
4364,4364,4364,4364,4364,4364,4364,4364,4364,4364,4364,4364,4364,4364,4364,4364,
4364,4364,4364,4364,4364,4364,4364,4364,4364,4364,4364,4364,4364,4364,4364,4364,
4364,4364,4364,4364,4364,4364,4364,4364,4364,4364,4364,4364,4364,4364,4364,4364,
4364,4364,4364,4364,4364,4364,4364,4364,4364,4364,4364,4364,4364,4364,4364,4364,
4364,4364,4364,4364,4364,4364,4364,4364,4364,4364,4364,4364,4364,4364,4364,4364,
4364,4364,4364,4364,4364,4364,4364,4364,4364,4364,4364,4364,4364,4364,4364,4364
</chunk>
      <chunk x="176" y="160" width="16" height="16">
4364,4364,4364,4364,4364,4364,4364,4364,4364,4364,4364,4364,4364,4171,6794,6763,
4364,4364,4364,4364,4364,4364,4364,4364,4364,4364,4364,4364,4364,4171,6762,6779,
4364,4364,4364,4364,4364,4364,4364,4364,4364,4364,4364,4364,4364,4171,6778,6795,
4364,4364,4364,4364,4364,4364,4364,4364,4364,4364,4364,4364,4364,4171,6794,6763,
4364,4364,4364,4364,4364,4364,4364,4364,4364,4364,4364,4364,4364,4171,6762,6779,
4364,4364,4364,4364,4364,4364,4364,4364,4364,4364,4364,4364,4364,4171,6778,6795,
4364,4364,4364,4364,4364,4364,4364,4364,4364,4364,4364,4364,4364,4171,6794,6763,
4364,4364,4364,4364,4364,4364,4364,4364,4364,4364,4364,4364,4364,4171,6762,6779,
4364,4364,4364,4364,4364,4364,4364,4364,4364,4364,4364,4364,4364,4171,6778,6795,
4364,4364,4364,4364,4364,4364,4364,4364,4364,4364,4364,4364,4364,4171,6794,6763,
4364,4364,4364,4364,4364,4364,4364,4364,4364,4364,4364,4364,4364,4171,6762,6779,
4364,4364,4364,4364,4364,4364,4364,4364,4364,4364,4364,4364,4364,4171,6778,6795,
4364,4364,4364,4364,4364,4364,4364,4364,4364,4364,4364,4364,4364,4171,6794,6763,
4364,4364,4364,4364,4364,4364,4364,4364,4364,4364,4364,4364,4364,4171,6762,6779,
4364,4364,4364,4364,4364,4364,4364,4364,4364,4364,4364,4364,4364,4171,6778,6795,
4364,4364,4364,4364,4364,4364,4364,4364,4364,4364,4364,4364,4364,4171,6794,6763
</chunk>
      <chunk x="192" y="160" width="16" height="16">
6762,6763,6762,6763,6762,6763,6762,6763,6762,6763,6762,6763,6762,6763,6762,6763,
6778,6779,6778,6779,6778,6779,6778,6779,6778,6779,6778,6779,6778,6779,6778,6779,
6794,6795,6794,6795,6794,6795,6794,6795,6794,6795,6794,6795,6794,6795,6794,6795,
6762,6763,6762,6763,6762,6763,6762,6763,6762,6763,6762,6763,6762,6763,6762,6763,
6778,6779,6778,6779,6778,6779,6778,6779,6778,6779,6778,6779,6778,6779,6778,6779,
6794,6795,6794,6795,6794,6795,6794,6795,6794,6795,6794,6795,6794,6795,6794,6795,
6762,6763,6762,6763,6762,6763,6762,6763,6762,6763,6762,6763,6762,6763,6762,6763,
6778,6779,6778,6779,6778,6779,6778,6779,6778,6779,6778,6779,6778,6779,6778,6779,
6794,6795,6794,6795,6794,6795,6794,6795,6794,6795,6794,6795,6794,6795,6794,6795,
6762,6763,6762,6763,6762,6763,6762,6763,6762,6763,6762,6763,6762,6763,6762,6763,
6778,6779,6778,6779,6778,6779,6778,6779,6778,6779,6778,6779,6778,6779,6778,6779,
6794,6795,6794,6795,6794,6795,6794,6795,6794,6795,6794,6795,6794,6795,6794,6795,
6762,6763,6762,6763,6762,6763,6762,6763,6762,6763,6762,6763,6762,6763,6762,6763,
6778,6779,6778,6779,6778,6779,6778,6779,6778,6779,6778,6779,6778,6779,6778,6779,
6794,6795,6794,6795,6794,6795,6794,6795,6794,6795,6794,6795,6794,6795,6794,6795,
6762,6763,6762,6763,6762,6763,6762,6763,6762,6763,6762,6763,6762,6763,6762,6763
</chunk>
      <chunk x="208" y="160" width="16" height="16">
6762,6763,0,0,0,0,0,0,0,0,0,0,0,0,0,0,
6778,6779,0,0,0,0,0,0,0,0,0,0,0,0,0,0,
6794,6795,0,0,0,0,0,0,0,0,0,0,0,0,0,0,
6762,6763,0,0,0,0,0,0,0,0,0,0,0,0,0,0,
6778,6779,0,0,0,0,0,0,0,0,0,0,0,0,0,0,
6794,6795,0,0,0,0,0,0,0,0,0,0,0,0,0,0,
6762,6763,0,0,0,0,0,0,0,0,0,0,0,0,0,0,
6778,6779,0,0,0,0,0,0,0,0,0,0,0,0,0,0,
6794,6795,0,0,0,0,0,0,0,0,0,0,0,0,0,0,
6762,6763,0,0,0,0,0,0,0,0,0,0,0,0,0,0,
6778,6779,0,0,0,0,0,0,0,0,0,0,0,0,0,0,
6794,6795,0,0,0,0,0,0,0,0,0,0,0,0,0,0,
6762,6763,0,0,0,0,0,0,0,0,0,0,0,0,0,0,
6778,6779,0,0,0,0,0,0,0,0,0,0,0,0,0,0,
6794,6795,0,0,0,0,0,0,0,0,0,0,0,0,0,0,
6762,6763,0,0,0,0,0,0,0,0,0,0,0,0,0,0
</chunk>
      <chunk x="96" y="176" width="16" height="16">
0,0,0,0,6778,6779,6778,6779,6778,6779,6778,6779,6778,6779,6778,6779,
0,0,0,0,6794,6795,6794,6795,6794,6795,6794,6795,6794,6795,6794,6795,
0,0,0,0,6762,6763,6762,6763,6762,6763,6762,6763,6762,6763,6762,6763,
0,0,0,0,6778,6779,6778,6779,6778,6779,6778,6779,6778,6779,6778,6779,
0,0,0,0,6794,6795,6794,6795,6794,6795,6794,6795,6794,6795,6794,6795,
0,0,0,0,6762,6763,6762,6763,6762,6763,6762,6763,6762,6763,6762,6763,
0,0,0,0,6778,6779,6778,6779,6778,6779,6778,6779,6778,6779,6778,6779,
0,0,0,0,6794,6795,6794,6795,6794,6795,6794,6795,6794,6795,6794,6795,
0,0,0,0,6762,6763,6762,6763,6762,6763,6762,6763,6762,6763,6762,6763,
0,0,0,0,6778,6779,6778,6779,6778,6779,6778,6779,6778,6779,6778,6779,
0,0,0,0,6794,6795,6794,6795,6794,6795,6794,6795,6794,6795,6794,6795,
0,0,0,0,6762,6763,6762,6763,6762,6763,6762,6763,6762,6763,6762,6763,
0,0,0,0,6778,6779,6778,6779,6778,6779,6778,6779,6778,6779,6778,6779,
0,0,0,0,6794,6795,6794,6795,6794,6795,6794,6795,6794,6795,6794,6795,
0,0,0,0,6762,6763,6762,6763,6762,6763,6762,6763,6762,6763,6762,6763,
0,0,0,0,6778,6779,6778,6779,6778,6779,6778,6779,6778,6779,6778,6779
</chunk>
      <chunk x="112" y="176" width="16" height="16">
6778,6779,6778,6779,6778,6779,6778,6762,4167,4364,4364,4364,4364,4364,4364,4364,
6794,6795,6794,6795,6794,6795,6794,6778,4167,4364,4364,4364,4364,4364,4364,4364,
6762,6763,6762,6763,6762,6763,6762,6794,4167,4364,4364,4364,4364,4364,4364,4364,
6778,6779,6778,6779,6778,6779,6778,6762,4167,4364,4364,4364,4364,4364,4364,4364,
6794,6795,6794,6795,6794,6795,6794,6778,4167,4364,4364,4364,4364,4364,4364,4364,
6762,6763,6762,6763,6762,6763,6762,6794,4167,4364,4364,4364,4364,4364,4364,4364,
6778,6779,6778,6779,6778,6779,6778,6762,4167,4364,4364,4364,4364,4364,4364,4364,
6794,6795,6794,6795,6794,6795,6794,6778,4167,4364,4364,4364,4364,4364,4364,4364,
6762,6763,6762,6763,6762,6763,6762,6794,4167,4364,4364,4364,4364,4364,4364,4364,
6778,6779,6778,6779,6778,6779,6778,6762,4167,4364,4364,4364,4364,4364,4364,4364,
6794,6795,6794,6795,6794,6795,6794,6778,4167,4364,4364,4364,4364,4364,4364,4364,
6762,6763,6762,6763,6762,6763,6762,6794,4167,4364,4364,4364,4364,4364,4364,4364,
6778,6779,6778,6779,6778,6779,6778,6762,4167,4364,4364,4364,4364,4364,4364,4364,
6794,6795,6794,6795,6794,6795,6794,6778,4167,4364,4364,4364,4364,4364,4364,4364,
6762,6763,6762,6763,6762,6763,6762,6794,4167,4364,4364,4364,4364,4364,4364,4364,
6778,6779,6778,6779,6778,6779,6778,6762,4167,4364,4364,4364,4364,4364,4364,4364
</chunk>
      <chunk x="128" y="176" width="16" height="16">
4364,4364,4364,4364,4364,4364,4364,4364,4364,4364,4364,4364,4364,4364,4364,4364,
4364,4364,4364,4364,4364,4364,4364,4364,4364,4364,4364,4364,4364,4364,4364,4364,
4364,4364,4364,4364,4364,4364,4364,4364,4364,4364,4364,4364,4364,4364,4364,4364,
4364,4364,4364,4364,4364,4364,4364,4364,4364,4364,4364,4364,4364,4364,4364,4364,
4364,4364,4364,4364,4364,4364,4364,4364,4364,4364,4364,4364,4364,4364,4364,4364,
4364,4364,4364,4364,4364,4364,4364,4364,4364,4364,4364,4364,4364,4364,4364,4364,
4364,4364,4364,4364,4364,4364,4364,4364,4364,4364,4364,4364,4364,4364,4364,4364,
4364,4364,4364,4364,4364,4364,4364,4364,4364,4364,4364,4364,4364,4364,4364,4364,
4364,4364,4364,4364,4364,4364,4364,4364,4364,4364,4364,4364,4364,4364,4364,4364,
4364,4364,4364,4364,4364,4364,4364,4364,4364,4364,4364,4364,4364,4364,4364,4364,
4364,4364,4364,4364,4364,4364,4364,4364,4364,4364,4364,4364,4364,4364,4364,4364,
4364,4364,4364,4364,4364,4364,4364,4364,4364,4364,4364,4364,4364,4364,4364,4364,
4364,4364,4364,4364,4364,4364,4364,4364,4364,4364,4364,4364,4364,4364,4364,4364,
4364,4364,4364,4364,4364,4364,4364,4364,4364,4364,4364,4364,4364,4364,4364,4364,
4364,4364,4364,4364,4364,4364,4364,4364,4364,4364,4364,4364,4364,4364,4364,4364,
4364,4364,4364,4364,4364,4364,4364,4364,4364,4364,4364,4364,4364,4364,4364,4364
</chunk>
      <chunk x="144" y="176" width="16" height="16">
4364,4364,4364,4364,4364,4364,4364,4364,4364,8694,8842,8842,8698,4364,4364,4364,
4364,4364,4364,4364,4364,4364,4364,4364,4364,8694,8842,8842,8698,4364,4364,4364,
4364,4364,4364,4364,4364,4364,4364,4364,4364,8694,8842,8842,8698,4364,4364,4364,
4364,4364,4364,4364,4364,4364,4364,4364,4364,8694,8842,8842,8698,4364,4364,4364,
4364,4364,4364,4364,4364,4364,4364,4364,4364,8694,8842,8842,8698,4364,4364,4364,
4364,4364,4364,4364,4364,4364,4364,4364,4364,8694,8842,8842,8698,4364,4364,4364,
4364,4364,4364,4364,4364,4364,4364,4364,4364,8694,8842,8842,8698,4364,4364,4364,
4364,4364,4364,4364,4364,4364,4364,4364,4364,8694,8842,8842,8698,4364,4364,4364,
4364,4364,4364,4364,4364,4364,4364,4364,4364,8694,8842,8842,8698,4364,4364,4364,
4364,4364,4364,4364,4364,4364,4364,4364,4364,8694,8842,8842,8698,4364,4364,4364,
4364,4364,4364,4364,4364,4364,4364,4364,4364,8694,8842,8842,8698,4364,4364,4364,
4364,4364,4364,4364,4364,4364,4364,4364,4364,8694,8842,8842,8698,4364,4364,4364,
4364,4364,4364,4364,4364,4364,4364,4364,4364,8694,8842,8842,8698,4364,4364,4364,
4364,4364,4364,4364,4364,4364,4364,4364,4364,8694,8842,8842,8698,4364,4364,4364,
4364,4364,4364,4364,4364,4364,4364,4364,4364,8694,8842,8842,8698,4364,4364,4364,
4364,4364,4364,4364,4364,4364,4364,4364,4364,8694,8842,8842,8698,4364,4364,4364
</chunk>
      <chunk x="160" y="176" width="16" height="16">
4364,4364,4364,4364,4364,4364,4364,4364,4364,4364,4364,4364,4364,4364,4364,4364,
4364,4364,4364,4364,4364,4364,4364,4364,4364,4364,4364,4364,4364,4364,4364,4364,
4364,4364,4364,4364,4364,4364,4364,4364,4364,4364,4364,4364,4364,4364,4364,4364,
4364,4364,4364,4364,4364,4364,4364,4364,4364,4364,4364,4364,4364,4364,4364,4364,
4364,4364,4364,4364,4364,4364,4364,4364,4364,4364,4364,4364,4364,4364,4364,4364,
4364,4364,4364,4364,4364,4364,4364,4364,4364,4364,4364,4364,4364,4364,4364,4364,
4364,4364,4364,4364,4364,4364,4364,4364,4364,4364,4364,4364,4364,4364,4364,4364,
4364,4364,4364,4364,4364,4364,4364,4364,4364,4364,4364,4364,4364,4364,4364,4364,
4364,4364,4364,4364,4364,4364,4364,4364,4364,4364,4364,4364,4364,4364,4364,4364,
4364,4364,4364,4364,4364,4364,4364,4364,4364,4364,4364,4364,4364,4364,4364,4364,
4364,4364,4364,4364,4364,4364,4364,4364,4364,4364,4364,4364,4364,4364,4364,4364,
4364,4364,4364,4364,4364,4364,4364,4364,4364,4364,4364,4364,4364,4364,4364,4364,
4364,4364,4364,4364,4364,4364,4364,4364,4364,4364,4364,4364,4364,4364,4364,4364,
4364,4364,4364,4364,4364,4364,4364,4364,4364,4364,4364,4364,4364,4364,4364,4364,
4364,4364,4364,4364,4364,4364,4364,4364,4364,4364,4364,4364,4364,4364,4364,4364,
4364,4364,4364,4364,4364,4364,4364,4364,4364,4364,4364,4364,4364,4364,4364,4364
</chunk>
      <chunk x="176" y="176" width="16" height="16">
4364,4364,4364,4364,4364,4364,4364,4364,4364,4364,4364,4364,4364,4171,6762,6779,
4364,4364,4364,4364,4364,4364,4364,4364,4364,4364,4364,4364,4364,4171,6778,6795,
4364,4364,4364,4364,4364,4364,4364,4364,4364,4364,4364,4364,4364,4171,6794,6763,
4364,4364,4364,4364,4364,4364,4364,4364,4364,4364,4364,4364,4364,4171,6762,6779,
4364,4364,4364,4364,4364,4364,4364,4364,4364,4364,4364,4364,4364,4171,6778,6795,
4364,4364,4364,4364,4364,4364,4364,4364,4364,4364,4364,4364,4364,4171,6794,6763,
4364,4364,4364,4364,4364,4364,4364,4364,4364,4364,4364,4364,4364,4171,6762,6779,
4364,4364,4364,4364,4364,4364,4364,4364,4364,4364,4364,4364,4364,4171,6778,6795,
4364,4364,4364,4364,4364,4364,4364,4364,4364,4364,4364,4364,4364,4171,6794,6763,
4364,4364,4364,4364,4364,4364,4364,4364,4364,4364,4364,4364,4364,4171,6762,6779,
4364,4364,4364,4364,4364,4364,4364,4364,4364,4364,4364,4364,4364,4171,6778,6795,
4364,4364,4364,4364,4364,4364,4364,4364,4364,4364,4364,4364,4364,4171,6794,6763,
4364,4364,4364,4364,4364,4364,4364,4364,4364,4364,4364,4364,4364,4171,6762,6779,
4364,4364,4364,4364,4364,4364,4364,4364,4364,4364,4364,4364,4364,4171,6778,6795,
4364,4364,4364,4364,4364,4364,4364,4364,4364,4364,4364,4364,4364,4171,6794,6763,
4364,4364,4364,4364,4364,4364,4364,4364,4364,4364,4364,4364,4364,4171,6762,6779
</chunk>
      <chunk x="192" y="176" width="16" height="16">
6778,6779,6778,6779,6778,6779,6778,6779,6778,6779,6778,6779,6778,6779,6778,6779,
6794,6795,6794,6795,6794,6795,6794,6795,6794,6795,6794,6795,6794,6795,6794,6795,
6762,6763,6762,6763,6762,6763,6762,6763,6762,6763,6762,6763,6762,6763,6762,6763,
6778,6779,6778,6779,6778,6779,6778,6779,6778,6779,6778,6779,6778,6779,6778,6779,
6794,6795,6794,6795,6794,6795,6794,6795,6794,6795,6794,6795,6794,6795,6794,6795,
6762,6763,6762,6763,6762,6763,6762,6763,6762,6763,6762,6763,6762,6763,6762,6763,
6778,6779,6778,6779,6778,6779,6778,6779,6778,6779,6778,6779,6778,6779,6778,6779,
6794,6795,6794,6795,6794,6795,6794,6795,6794,6795,6794,6795,6794,6795,6794,6795,
6762,6763,6762,6763,6762,6763,6762,6763,6762,6763,6762,6763,6762,6763,6762,6763,
6778,6779,6778,6779,6778,6779,6778,6779,6778,6779,6778,6779,6778,6779,6778,6779,
6794,6795,6794,6795,6794,6795,6794,6795,6794,6795,6794,6795,6794,6795,6794,6795,
6762,6763,6762,6763,6762,6763,6762,6763,6762,6763,6762,6763,6762,6763,6762,6763,
6778,6779,6778,6779,6778,6779,6778,6779,6778,6779,6778,6779,6778,6779,6778,6779,
6794,6795,6794,6795,6794,6795,6794,6795,6794,6795,6794,6795,6794,6795,6794,6795,
6762,6763,6762,6763,6762,6763,6762,6763,6762,6763,6762,6763,6762,6763,6762,6763,
6778,6779,6778,6779,6778,6779,6778,6779,6778,6779,6778,6779,6778,6779,6778,6779
</chunk>
      <chunk x="208" y="176" width="16" height="16">
6778,6779,0,0,0,0,0,0,0,0,0,0,0,0,0,0,
6794,6795,0,0,0,0,0,0,0,0,0,0,0,0,0,0,
6762,6763,0,0,0,0,0,0,0,0,0,0,0,0,0,0,
6778,6779,0,0,0,0,0,0,0,0,0,0,0,0,0,0,
6794,6795,0,0,0,0,0,0,0,0,0,0,0,0,0,0,
6762,6763,0,0,0,0,0,0,0,0,0,0,0,0,0,0,
6778,6779,0,0,0,0,0,0,0,0,0,0,0,0,0,0,
6794,6795,0,0,0,0,0,0,0,0,0,0,0,0,0,0,
6762,6763,0,0,0,0,0,0,0,0,0,0,0,0,0,0,
6778,6779,0,0,0,0,0,0,0,0,0,0,0,0,0,0,
6794,6795,0,0,0,0,0,0,0,0,0,0,0,0,0,0,
6762,6763,0,0,0,0,0,0,0,0,0,0,0,0,0,0,
6778,6779,0,0,0,0,0,0,0,0,0,0,0,0,0,0,
6794,6795,0,0,0,0,0,0,0,0,0,0,0,0,0,0,
6762,6763,0,0,0,0,0,0,0,0,0,0,0,0,0,0,
6778,6779,0,0,0,0,0,0,0,0,0,0,0,0,0,0
</chunk>
      <chunk x="96" y="192" width="16" height="16">
0,0,0,0,6794,6795,6794,6795,6794,6795,6794,6795,6794,6795,6794,6795,
0,0,0,0,6762,6763,6762,6763,6762,6763,6762,6763,6762,6763,6762,6763,
0,0,0,0,6778,6779,6778,6779,6778,6779,6778,6779,6778,6779,6778,6779,
0,0,0,0,6794,6795,6794,6795,6794,6795,6794,6795,6794,6795,6794,6795,
0,0,0,0,6762,6763,6762,6763,6762,6763,6762,6763,6762,6763,6762,6763,
0,0,0,0,6778,6779,6778,6779,6778,6779,6778,6779,6778,6779,6778,6779,
0,0,0,0,6794,6795,6794,6795,6794,6795,6794,6795,6794,6795,6794,6795,
0,0,0,0,6762,6763,6762,6763,6762,6763,6762,6763,6762,6763,6762,6763,
0,0,0,0,6778,6779,6778,6779,6778,6779,6778,6779,6778,6779,6778,6779,
0,0,0,0,6794,6795,6794,6795,6794,6795,6794,6795,6794,6795,6794,6795,
0,0,0,0,6762,6763,6762,6763,6762,6763,6762,6763,6762,6763,6762,6763,
0,0,0,0,6778,6779,6778,6779,6778,6779,6778,6779,6778,6779,6778,6779,
0,0,0,0,6794,6795,6794,6795,6794,6795,6794,6795,6794,6795,6794,6795,
0,0,0,0,6762,6763,6762,6763,6762,6763,6762,6763,6762,6763,6762,6763,
0,0,0,0,6778,6779,6778,6779,6778,6779,6778,6779,6778,6779,6778,6779,
0,0,0,0,6794,6795,6794,6795,6794,6795,6794,6795,6794,6795,6794,6795
</chunk>
      <chunk x="112" y="192" width="16" height="16">
6794,6795,6794,6795,6794,6795,6794,6778,4167,4364,4364,4364,4364,4364,4364,4364,
6762,6763,6762,6763,6762,6763,6762,6794,4167,4364,4364,4364,4364,4364,4364,4364,
6778,6779,6778,6779,6778,6779,6778,6762,4167,4364,4364,4364,4364,4364,4364,4364,
6794,6795,6794,6795,6794,6795,6794,6778,4167,4364,4364,4364,4364,4364,4364,4364,
6762,6763,6762,6763,6762,6763,6762,6794,4167,4364,4364,4364,4364,4364,4364,4364,
6778,6779,6778,6779,6778,6779,6778,6762,4167,4364,4364,4364,4364,4364,4364,4364,
6794,6795,6794,6795,6794,6795,6794,6778,4167,4364,4364,4364,4364,4364,4364,4364,
6762,6763,6762,6763,6762,6763,6762,6794,4167,4364,4364,4364,4364,4364,4364,4364,
6778,6779,6778,6779,6778,6779,6778,6762,4167,4364,4364,4364,4364,4364,4364,4364,
6794,6795,6794,6795,6794,6795,6794,6778,4167,4364,4364,4364,4364,4364,4364,4364,
6762,6763,6762,6763,6762,6763,6762,6794,4167,4364,4364,4364,4364,4364,4364,4364,
6778,6779,6778,6779,6778,6779,6778,6762,4167,4364,4364,4364,4364,4364,4364,4364,
6794,6795,6794,6795,6794,6795,6794,6778,4167,4364,4364,4364,4364,4364,4364,4364,
6762,6763,6762,6763,6762,6763,6762,6794,4167,4364,4364,4364,4364,4364,4364,4364,
6778,6779,6778,6779,6778,6779,6778,6762,4167,4364,4364,4364,4364,4364,4364,4364,
6794,6795,6794,6795,6794,6795,6794,6778,4167,4364,4364,4364,4364,4364,4364,4364
</chunk>
      <chunk x="128" y="192" width="16" height="16">
4364,4364,4364,4364,4364,4364,4364,4364,4364,4364,4364,4364,4364,4364,4364,4364,
4364,4364,4364,4364,4364,4364,4364,4364,4364,4364,4364,4364,4364,4364,4364,4364,
4364,4364,4364,4364,4364,4364,4364,4364,4364,4364,4364,4364,4364,4364,4364,4364,
4364,4364,4364,4364,4364,4364,4364,4364,4364,4364,4364,4364,4364,4364,4364,4364,
4364,4364,4364,4364,4364,4364,4364,4364,4364,4364,4364,4364,4364,4364,4364,4364,
4364,4364,4364,4364,4364,4364,4364,4364,4364,4364,4364,4364,4364,4364,4364,4364,
4364,4364,4364,4364,4364,4364,4364,4364,4364,4364,4364,4364,4364,4364,4364,4364,
4364,4364,4364,4364,4364,4364,4364,4364,4364,4364,4364,4364,4364,4364,4364,4364,
4364,4364,4364,4364,4364,4364,4364,4364,4364,4364,4364,4364,4364,4364,4364,4364,
4364,4364,4364,4364,4364,4364,4364,4364,4364,4364,4364,4364,4364,4364,4364,4364,
4364,4364,4364,4364,4364,4364,4364,4364,4364,4364,4364,4364,4364,4364,4364,4364,
4364,4364,4364,4364,4364,4364,4364,4364,4364,4364,4364,4364,4364,4364,4364,4364,
4364,4364,4364,4364,4364,4364,4364,4364,4364,4364,4364,4364,4364,4364,4364,4364,
4364,4364,4364,4364,4364,4364,4364,4364,4364,4364,4364,4364,4364,4364,4364,4364,
4364,4364,4364,4364,4364,4364,4364,4364,4364,4364,4364,4364,4364,4364,4364,4364,
4364,4364,4364,4364,4364,4364,4364,4364,4364,4364,4364,4364,4364,4364,4364,4364
</chunk>
      <chunk x="144" y="192" width="16" height="16">
4364,4364,4364,4364,4364,4364,4364,4364,4364,8694,8842,8842,8698,4364,4364,4364,
4364,4364,4364,4364,4364,4364,4364,4364,4364,8694,8842,8842,8698,4364,4364,4364,
4364,4364,4364,4364,4364,4364,4364,4364,4364,8694,8842,8842,8698,4364,4364,4364,
4364,4364,4364,4364,4364,4364,4364,4364,4364,8694,8842,8842,8698,4364,4364,4364,
4364,4364,4364,4364,4364,4364,4364,4364,4364,8694,8842,8842,8698,4364,4364,4364,
4364,4364,4364,4364,4364,4364,4364,4364,4364,8694,8842,8842,8698,4364,4364,4364,
4364,4364,4364,4364,4364,4364,4364,4364,4364,8694,8842,8842,8698,4364,4364,4364,
4364,4364,4364,4364,4364,4364,4364,4364,4364,8694,8842,8842,8698,4364,4364,4364,
4364,4364,4364,4364,4364,4364,4364,4364,4364,8694,8842,8842,8698,4364,4364,4364,
4364,4364,4364,4364,4364,4364,4364,4364,4364,8694,8842,8842,8698,4364,4364,4364,
4364,4364,4364,4364,4364,4364,4364,4364,4364,8694,8842,8842,8698,4364,4364,4364,
4364,4364,4364,4364,4364,4364,4364,4364,4364,8694,8842,8842,8698,4364,4364,4364,
4364,4364,4364,4364,4364,4364,4364,4364,4364,8694,8842,8842,8698,4364,4364,4364,
4364,4364,4364,4364,4364,4364,4364,4364,4364,8694,8842,8842,8698,4364,4364,4364,
4364,4364,4364,4364,4364,4364,4364,4364,4364,8694,8842,8842,8698,4364,4364,4364,
4364,4364,4364,4364,4364,4364,4364,4364,4364,8694,8842,8842,8698,4364,4364,4364
</chunk>
      <chunk x="160" y="192" width="16" height="16">
4364,4364,4364,4364,4364,4364,4364,4364,4364,4364,4364,4364,4364,4364,4364,4364,
4364,4364,4364,4364,4364,4364,4364,4364,4364,4364,4364,4364,4364,4364,4364,4364,
4364,4364,4364,4364,4364,4364,4364,4364,4364,4364,4364,4364,4364,4364,4364,4364,
4364,4364,4364,4364,4364,4364,4364,4364,4364,4364,4364,4364,4364,4364,4364,4364,
4364,4364,4364,4364,4364,4364,4364,4364,4364,4364,4364,4364,4364,4364,4364,4364,
4364,4364,4364,4364,4364,4364,4364,4364,4364,4364,4364,4364,4364,4364,4364,4364,
4364,4364,4364,4364,4364,4364,4364,4364,4364,4364,4364,4364,4364,4364,4364,4364,
4364,4364,4364,4364,4364,4364,4364,4364,4364,4364,4364,4364,4364,4364,4364,4364,
4364,4364,4364,4364,4364,4364,4364,4364,4364,4364,4364,4364,4364,4364,4364,4364,
4364,4364,4364,4364,4364,4364,4364,4364,4364,4364,4364,4364,4364,4364,4364,4364,
4364,4364,4364,4364,4364,4364,4364,4364,4364,4364,4364,4364,4364,4364,4364,4364,
4364,4364,4364,4364,4364,4364,4364,4364,4364,4364,4364,4364,4364,4364,4364,4364,
4364,4364,4364,4364,4364,4364,4364,4364,4364,4364,4364,4364,4364,4364,4364,4364,
4364,4364,4364,4364,4364,4364,4364,4364,4364,4364,4364,4364,4364,4364,4364,4364,
4364,4364,4364,4364,4364,4364,4364,4364,4364,4364,4364,4364,4364,4364,4364,4364,
4364,4364,4364,4364,4364,4364,4364,4364,4364,4364,4364,4364,4364,4364,4364,4364
</chunk>
      <chunk x="176" y="192" width="16" height="16">
4364,4364,4364,4364,4364,4364,4364,4364,4364,4364,4364,4364,4364,4171,6778,6795,
4364,4364,4364,4364,4364,4364,4364,4364,4364,4364,4364,4364,4364,4171,6794,6763,
4364,4364,4364,4364,4364,4364,4364,4364,4364,4364,4364,4364,4364,4171,6762,6779,
4364,4364,4364,4364,4364,4364,4364,4364,4364,4364,4364,4364,4364,4171,6778,6795,
4364,4364,4364,4364,4364,4364,4364,4364,4364,4364,4364,4364,4364,4171,6794,6763,
4364,4364,4364,4364,4364,4364,4364,4364,4364,4364,4364,4364,4364,4171,6762,6779,
4364,4364,4364,4364,4364,4364,4364,4364,4364,4364,4364,4364,4364,4171,6778,6795,
4364,4364,4364,4364,4364,4364,4364,4364,4364,4364,4364,4364,4364,4171,6794,6763,
4364,4364,4364,4364,4364,4364,4364,4364,4364,4364,4364,4364,4364,4171,6762,6779,
4364,4364,4364,4364,4364,4364,4364,4364,4364,4364,4364,4364,4364,4171,6778,6795,
4364,4364,4364,4364,4364,4364,4364,4364,4364,4364,4364,4364,4364,4171,6794,6763,
4364,4364,4364,4364,4364,4364,4364,4364,4364,4364,4364,4364,4364,4171,6762,6779,
4364,4364,4364,4364,4364,4364,4364,4364,4364,4364,4364,4364,4364,4171,6778,6795,
4364,4364,4364,4364,4364,4364,4364,4364,4364,4364,4364,4364,4364,4171,6794,6763,
4364,4364,4364,4364,4364,4364,4364,4364,4364,4364,4364,4364,4364,4171,6762,6779,
4364,4364,4364,4364,4364,4364,4364,4364,4364,4364,4364,4364,4364,4171,6778,6795
</chunk>
      <chunk x="192" y="192" width="16" height="16">
6794,6795,6794,6795,6794,6795,6794,6795,6794,6795,6794,6795,6794,6795,6794,6795,
6762,6763,6762,6763,6762,6763,6762,6763,6762,6763,6762,6763,6762,6763,6762,6763,
6778,6779,6778,6779,6778,6779,6778,6779,6778,6779,6778,6779,6778,6779,6778,6779,
6794,6795,6794,6795,6794,6795,6794,6795,6794,6795,6794,6795,6794,6795,6794,6795,
6762,6763,6762,6763,6762,6763,6762,6763,6762,6763,6762,6763,6762,6763,6762,6763,
6778,6779,6778,6779,6778,6779,6778,6779,6778,6779,6778,6779,6778,6779,6778,6779,
6794,6795,6794,6795,6794,6795,6794,6795,6794,6795,6794,6795,6794,6795,6794,6795,
6762,6763,6762,6763,6762,6763,6762,6763,6762,6763,6762,6763,6762,6763,6762,6763,
6778,6779,6778,6779,6778,6779,6778,6779,6778,6779,6778,6779,6778,6779,6778,6779,
6794,6795,6794,6795,6794,6795,6794,6795,6794,6795,6794,6795,6794,6795,6794,6795,
6762,6763,6762,6763,6762,6763,6762,6763,6762,6763,6762,6763,6762,6763,6762,6763,
6778,6779,6778,6779,6778,6779,6778,6779,6778,6779,6778,6779,6778,6779,6778,6779,
6794,6795,6794,6795,6794,6795,6794,6795,6794,6795,6794,6795,6794,6795,6794,6795,
6762,6763,6762,6763,6762,6763,6762,6763,6762,6763,6762,6763,6762,6763,6762,6763,
6778,6779,6778,6779,6778,6779,6778,6779,6778,6779,6778,6779,6778,6779,6778,6779,
6794,6795,6794,6795,6794,6795,6794,6795,6794,6795,6794,6795,6794,6795,6794,6795
</chunk>
      <chunk x="208" y="192" width="16" height="16">
6794,6795,0,0,0,0,0,0,0,0,0,0,0,0,0,0,
6762,6763,0,0,0,0,0,0,0,0,0,0,0,0,0,0,
6778,6779,0,0,0,0,0,0,0,0,0,0,0,0,0,0,
6794,6795,0,0,0,0,0,0,0,0,0,0,0,0,0,0,
6762,6763,0,0,0,0,0,0,0,0,0,0,0,0,0,0,
6778,6779,0,0,0,0,0,0,0,0,0,0,0,0,0,0,
6794,6795,0,0,0,0,0,0,0,0,0,0,0,0,0,0,
6762,6763,0,0,0,0,0,0,0,0,0,0,0,0,0,0,
6778,6779,0,0,0,0,0,0,0,0,0,0,0,0,0,0,
6794,6795,0,0,0,0,0,0,0,0,0,0,0,0,0,0,
6762,6763,0,0,0,0,0,0,0,0,0,0,0,0,0,0,
6778,6779,0,0,0,0,0,0,0,0,0,0,0,0,0,0,
6794,6795,0,0,0,0,0,0,0,0,0,0,0,0,0,0,
6762,6763,0,0,0,0,0,0,0,0,0,0,0,0,0,0,
6778,6779,0,0,0,0,0,0,0,0,0,0,0,0,0,0,
6794,6795,0,0,0,0,0,0,0,0,0,0,0,0,0,0
</chunk>
      <chunk x="96" y="208" width="16" height="16">
0,0,0,0,6762,6763,6762,6763,6762,6763,6762,6763,6762,6763,6762,6763,
0,0,0,0,6778,6779,6778,6779,6778,6779,6778,6779,6778,6779,6778,6779,
0,0,0,0,6794,6795,6794,6795,6794,6795,6794,6795,6794,6795,6794,6795,
0,0,0,0,6762,6763,6762,6763,6762,6763,6762,6763,6762,6763,6762,6763,
0,0,0,0,6778,6779,6778,6779,6778,6779,6778,6779,6778,6779,6778,6779,
0,0,0,0,6794,6795,6794,6795,6794,6795,6794,6795,6794,6795,6794,6795,
0,0,0,0,6762,6763,6762,6763,6762,6763,6762,6763,6762,6763,6762,6763,
0,0,0,0,6778,6779,6778,6779,6778,6779,6778,6779,6778,6779,6778,6779,
0,0,0,0,6794,6795,6794,6795,6794,6795,6794,6795,6794,6795,6794,6795,
0,0,0,0,6762,6763,6762,6763,6762,6763,6762,6763,6762,6763,6762,6763,
0,0,0,0,6778,6779,6778,6779,6778,6779,6778,6779,6778,6779,6778,6779,
0,0,0,0,6794,6795,6794,6795,6794,6795,6794,6795,6794,6795,6794,6795,
0,0,0,0,6762,6763,6762,6763,6762,6763,6762,6763,6762,6763,6762,6763,
0,0,0,0,6778,6779,6778,6779,6778,6779,6778,6779,6778,6779,6778,6779,
0,0,0,0,6794,6795,6794,6795,6794,6795,6794,6795,6794,6795,6794,6795,
0,0,0,0,6762,6763,6762,6763,6762,6763,6762,6763,6762,6763,6762,6763
</chunk>
      <chunk x="112" y="208" width="16" height="16">
6762,6763,6762,6763,6762,6763,6762,6794,4167,4364,4364,4364,4364,4364,4364,4364,
6778,6779,6778,6779,6778,6779,6778,6762,4167,4364,4364,4364,4364,4364,4364,4364,
6794,6795,6794,6795,6794,6795,6794,6778,4167,4364,4364,4364,4364,4364,4364,4364,
6762,6763,6762,6763,6762,6763,6762,6794,4167,4364,4364,4364,4364,4364,4364,4364,
6778,6779,6778,6779,6778,6779,6778,6762,4167,4364,4364,4364,4364,4364,4364,4364,
6794,6795,6794,6795,6794,6795,6794,6778,4167,4364,4364,4364,4364,4364,4364,4364,
6762,6763,6762,6763,6762,6763,6762,6794,4167,4364,4364,4364,4364,4364,4364,4364,
6778,6779,6778,6779,6778,6779,6778,6762,4167,4364,4364,4364,4364,4364,4364,4364,
6794,6795,6794,6795,6794,6795,6794,6778,4167,4364,4364,4364,4364,4364,4364,4364,
6762,6763,6762,6763,6762,6763,6762,6794,4167,4364,4364,4364,4364,4364,4364,4364,
6778,6779,6778,6779,6778,6779,6778,6762,4167,4364,4364,4364,4364,4364,4364,4364,
6794,6795,6794,6795,6794,6795,6794,6778,4167,4364,4364,4364,4364,4364,4364,4364,
6762,6763,6762,6763,6762,6763,6762,6794,4167,4364,4364,4364,4364,4364,4364,4364,
6778,6779,6778,6779,6778,6779,6778,6762,4167,4364,4364,4364,4364,4364,4364,4364,
6794,6795,6794,6795,6794,6795,6794,6778,4167,4364,4364,4364,4364,4364,4364,4364,
6762,6763,6762,6763,6762,6763,6762,6794,4167,4364,4364,4364,4364,4364,4364,4364
</chunk>
      <chunk x="128" y="208" width="16" height="16">
4364,4364,4364,4364,4364,4364,4364,4364,4364,4364,4364,4364,4364,4364,4364,4364,
4364,4364,4364,4364,4364,4364,4364,4364,4364,4364,4364,4364,4364,4364,4364,4364,
4364,4364,4364,4364,4364,4364,4364,4364,4364,4364,4364,4364,4364,4364,4364,4364,
4364,4364,4364,4364,4364,4364,4364,4364,4364,4364,4364,4364,4364,4364,4364,4364,
4364,4364,4364,4364,4364,4364,4364,4364,4364,4364,4364,4364,4364,4364,4364,4364,
4364,4364,4364,4364,4364,4364,4364,4364,4364,4364,4364,4364,4364,4364,4364,4364,
4364,4364,4364,4364,4364,4364,4364,4364,4364,4364,4364,4364,4364,4364,4364,4364,
4364,4364,4364,4364,4364,4364,4364,4364,4364,4364,4364,4364,4364,4364,4364,4364,
4364,4364,4364,4364,4364,4364,4364,4364,4364,4364,4364,4364,4364,4364,4364,4364,
4364,4364,4364,4364,4364,4364,4364,4364,4364,4364,4364,4364,4364,4364,4364,4364,
4364,4364,4364,4364,4364,4364,4364,4364,4364,4364,4364,4364,4364,4364,4364,4364,
4364,4364,4364,4364,4364,4364,4364,4364,4364,4364,4364,4364,4364,4364,4364,4364,
4364,4364,4364,4364,4364,4364,4364,4364,4364,4364,4364,4364,4364,4364,4364,4364,
4364,4364,4364,4364,4364,4364,4364,4364,4364,4364,4364,4364,4364,4364,4364,4364,
4364,4364,4364,4364,4364,4364,4364,4364,4364,4364,4364,4364,4364,4364,4364,4364,
4364,4364,4364,4364,4364,4364,4364,4364,4364,4364,4364,4364,4364,4364,4364,4364
</chunk>
      <chunk x="144" y="208" width="16" height="16">
4364,4364,4364,4364,4364,4364,4364,4364,4364,8694,8842,8842,8698,4364,4364,4364,
4364,4364,4364,4364,4364,4364,4364,4364,4364,8694,8842,8842,8698,4364,4364,4364,
4364,4364,4364,4364,4364,4364,4364,4364,4364,8694,8842,8842,8698,4364,4364,4364,
4364,4364,4364,4364,4364,4364,4364,4364,4364,8694,8842,8842,8698,4364,4364,4364,
4364,4364,4364,4364,4364,4364,4364,4364,4364,8694,8842,8842,8698,4364,4364,4364,
4364,4364,4364,4364,4364,4364,4364,4364,4364,8694,8842,8842,8698,4364,4364,4364,
4364,4364,4364,4364,4364,4364,4364,4364,4364,8694,8842,8842,8698,4364,4364,4364,
4364,4364,4364,4364,4364,4364,4364,4364,4364,8694,8842,8842,8698,4364,4364,4364,
4364,4364,4364,4364,4364,4364,4364,4364,4364,8694,8842,8842,8698,4364,4364,4364,
4364,4364,4364,4364,4364,4364,4364,4364,4364,8694,8842,8842,8698,4364,4364,4364,
4364,4364,4364,4364,4364,4364,4364,4364,4364,8694,8842,8842,8698,4364,4364,4364,
4364,4364,4364,4364,4364,4364,4364,4364,4364,8694,8842,8842,8698,4364,4364,4364,
4364,4364,4364,4364,4364,4364,4364,4364,4364,8694,8842,8842,8698,4364,4364,4364,
4364,4364,4364,4364,4364,4364,4364,4364,4364,8694,8842,8842,8698,4364,4364,4364,
4364,4364,4364,4364,4364,4364,4364,4364,4364,8694,8842,8842,8698,4364,4364,4364,
4364,4364,4364,4364,4364,4364,4364,4364,4364,8694,8842,8842,8698,4364,4364,4364
</chunk>
      <chunk x="160" y="208" width="16" height="16">
4364,4364,4364,4364,4364,4364,4364,4364,4364,4364,4364,4364,4364,4364,4364,4364,
4364,4364,4364,4364,4364,4364,4364,4364,4364,4364,4364,4364,4364,4364,4364,4364,
4364,4364,4364,4364,4364,4364,4364,4364,4364,4364,4364,4364,4364,4364,4364,4364,
4364,4364,4364,4364,4364,4364,4364,4364,4364,4364,4364,4364,4364,4364,4364,4364,
4364,4364,4364,4364,4364,4364,4364,4364,4364,4364,4364,4364,4364,4364,4364,4364,
4364,4364,4364,4364,4364,4364,4364,4364,4364,4364,4364,4364,4364,4364,4364,4364,
4364,4364,4364,4364,4364,4364,4364,4364,4364,4364,4364,4364,4364,4364,4364,4364,
4364,4364,4364,4364,4364,4364,4364,4364,4364,4364,4364,4364,4364,4364,4364,4364,
4364,4364,4364,4364,4364,4364,4364,4364,4364,4364,4364,4364,4364,4364,4364,4364,
4364,4364,4364,4364,4364,4364,4364,4364,4364,4364,4364,4364,4364,4364,4364,4364,
4364,4364,4364,4364,4364,4364,4364,4364,4364,4364,4364,4364,4364,4364,4364,4364,
4364,4364,4364,4364,4364,4364,4364,4364,4364,4364,4364,4364,4364,4364,4364,4364,
4364,4364,4364,4364,4364,4364,4364,4364,4364,4364,4364,4364,4364,4364,4364,4364,
4364,4364,4364,4364,4364,4364,4364,4364,4364,4364,4364,4364,4364,4364,4364,4364,
4364,4364,4364,4364,4364,4364,4364,4364,4364,4364,4364,4364,4364,4364,4364,4364,
4364,4364,4364,4364,4364,4364,4364,4364,4364,4364,4364,4364,4364,4364,4364,4364
</chunk>
      <chunk x="176" y="208" width="16" height="16">
4364,4364,4364,4364,4364,4364,4364,4364,4364,4364,4364,4364,4364,4171,6794,6763,
4364,4364,4364,4364,4364,4364,4364,4364,4364,4364,4364,4364,4364,4171,6762,6779,
4364,4364,4364,4364,4364,4364,4364,4364,4364,4364,4364,4364,4364,4171,6778,6795,
4364,4364,4364,4364,4364,4364,4364,4364,4364,4364,4364,4364,4364,4171,6794,6763,
4364,4364,4364,4364,4364,4364,4364,4364,4364,4364,4364,4364,4364,4171,6762,6779,
4364,4364,4364,4364,4364,4364,4364,4364,4364,4364,4364,4364,4364,4171,6778,6795,
4364,4364,4364,4364,4364,4364,4364,4364,4364,4364,4364,4364,4364,4171,6794,6763,
4364,4364,4364,4364,4364,4364,4364,4364,4364,4364,4364,4364,4364,4171,6762,6779,
4364,4364,4364,4364,4364,4364,4364,4364,4364,4364,4364,4364,4364,4171,6778,6795,
4364,4364,4364,4364,4364,4364,4364,4364,4364,4364,4364,4364,4364,4171,6794,6763,
4364,4364,4364,4364,4364,4364,4364,4364,4364,4364,4364,4364,4364,4171,6762,6779,
4364,4364,4364,4364,4364,4364,4364,4364,4364,4364,4364,4364,4364,4171,6778,6795,
4364,4364,4364,4364,4364,4364,4364,4364,4364,4364,4364,4364,4364,4171,6794,6763,
4364,4364,4364,4364,4364,4364,4364,4364,4364,4364,4364,4364,4364,4171,6762,6779,
4364,4364,4364,4364,4364,4364,4364,4364,4364,4364,4364,4364,4364,4171,6778,6795,
4364,4364,4364,4364,4364,4364,4364,4364,4364,4364,4364,4364,4364,4171,6794,6763
</chunk>
      <chunk x="192" y="208" width="16" height="16">
6762,6763,6762,6763,6762,6763,6762,6763,6762,6763,6762,6763,6762,6763,6762,6763,
6778,6779,6778,6779,6778,6779,6778,6779,6778,6779,6778,6779,6778,6779,6778,6779,
6794,6795,6794,6795,6794,6795,6794,6795,6794,6795,6794,6795,6794,6795,6794,6795,
6762,6763,6762,6763,6762,6763,6762,6763,6762,6763,6762,6763,6762,6763,6762,6763,
6778,6779,6778,6779,6778,6779,6778,6779,6778,6779,6778,6779,6778,6779,6778,6779,
6794,6795,6794,6795,6794,6795,6794,6795,6794,6795,6794,6795,6794,6795,6794,6795,
6762,6763,6762,6763,6762,6763,6762,6763,6762,6763,6762,6763,6762,6763,6762,6763,
6778,6779,6778,6779,6778,6779,6778,6779,6778,6779,6778,6779,6778,6779,6778,6779,
6794,6795,6794,6795,6794,6795,6794,6795,6794,6795,6794,6795,6794,6795,6794,6795,
6762,6763,6762,6763,6762,6763,6762,6763,6762,6763,6762,6763,6762,6763,6762,6763,
6778,6779,6778,6779,6778,6779,6778,6779,6778,6779,6778,6779,6778,6779,6778,6779,
6794,6795,6794,6795,6794,6795,6794,6795,6794,6795,6794,6795,6794,6795,6794,6795,
6762,6763,6762,6763,6762,6763,6762,6763,6762,6763,6762,6763,6762,6763,6762,6763,
6778,6779,6778,6779,6778,6779,6778,6779,6778,6779,6778,6779,6778,6779,6778,6779,
6794,6795,6794,6795,6794,6795,6794,6795,6794,6795,6794,6795,6794,6795,6794,6795,
6762,6763,6762,6763,6762,6763,6762,6763,6762,6763,6762,6763,6762,6763,6762,6763
</chunk>
      <chunk x="208" y="208" width="16" height="16">
6762,6763,0,0,0,0,0,0,0,0,0,0,0,0,0,0,
6778,6779,0,0,0,0,0,0,0,0,0,0,0,0,0,0,
6794,6795,0,0,0,0,0,0,0,0,0,0,0,0,0,0,
6762,6763,0,0,0,0,0,0,0,0,0,0,0,0,0,0,
6778,6779,0,0,0,0,0,0,0,0,0,0,0,0,0,0,
6794,6795,0,0,0,0,0,0,0,0,0,0,0,0,0,0,
6762,6763,0,0,0,0,0,0,0,0,0,0,0,0,0,0,
6778,6779,0,0,0,0,0,0,0,0,0,0,0,0,0,0,
6794,6795,0,0,0,0,0,0,0,0,0,0,0,0,0,0,
6762,6763,0,0,0,0,0,0,0,0,0,0,0,0,0,0,
6778,6779,0,0,0,0,0,0,0,0,0,0,0,0,0,0,
6794,6795,0,0,0,0,0,0,0,0,0,0,0,0,0,0,
6762,6763,0,0,0,0,0,0,0,0,0,0,0,0,0,0,
6778,6779,0,0,0,0,0,0,0,0,0,0,0,0,0,0,
6794,6795,0,0,0,0,0,0,0,0,0,0,0,0,0,0,
6762,6763,0,0,0,0,0,0,0,0,0,0,0,0,0,0
</chunk>
      <chunk x="96" y="224" width="16" height="16">
0,0,0,0,6778,6779,6778,6779,6778,6779,6778,6779,6778,6779,6778,6779,
0,0,0,0,6794,6795,6794,6795,6794,6795,6794,6795,6794,6795,6794,6795,
0,0,0,0,6762,6763,6762,6763,6762,6763,6762,6763,6762,6763,6762,6763,
0,0,0,0,6778,6779,6778,6779,6778,6779,6778,6779,6778,6779,6778,6779,
0,0,0,0,6794,6795,6794,6795,6794,6795,6794,6795,6794,6795,6794,6795,
0,0,0,0,6762,6763,6762,6763,6762,6763,6762,6763,6762,6763,6762,6763,
0,0,0,0,6778,6779,6778,6779,6778,6779,6778,6779,6778,6779,6778,6779,
0,0,0,0,6794,6795,6794,6795,6794,6795,6794,6795,6794,6795,6794,6795,
0,0,0,0,6762,6763,6762,6763,6762,6763,6762,6763,6762,6763,6762,6763,
0,0,0,0,6778,6779,6778,6779,6778,6779,6778,6779,6778,6779,6778,6779,
0,0,0,0,6794,6795,6794,6795,6794,6795,6794,6795,6794,6795,6794,6795,
0,0,0,0,6762,6763,6762,6763,6762,6763,6762,6763,6762,6763,6762,6763,
0,0,0,0,6778,6779,6778,6779,6778,6779,6778,6779,6778,6779,6778,6779,
0,0,0,0,6794,6795,6794,6795,6794,6795,6794,6795,6794,6795,6794,6795,
0,0,0,0,6762,6763,6762,6763,6762,6763,6762,6763,6762,6763,6762,6763,
0,0,0,0,6778,6779,6778,6779,6778,6779,6778,6779,6778,6779,6778,6779
</chunk>
      <chunk x="112" y="224" width="16" height="16">
6778,6779,6778,6779,6778,6779,6778,6762,4167,4364,4364,4364,4364,4364,4364,4364,
6794,6795,6794,6795,6794,6795,6794,6778,4167,4364,4364,4364,4364,4364,4364,4364,
6762,6763,6762,6763,6762,6763,6762,6794,4167,4364,4364,4364,4364,4364,4364,4364,
6778,6779,6778,6779,6778,6779,6778,6762,4167,4364,4364,4364,4364,4364,4364,4364,
6794,6795,6794,6795,6794,6795,6794,6778,4167,4364,4364,4364,4364,4364,4364,4364,
6762,6763,6762,6763,6762,6763,6762,6794,4167,4364,4364,4364,4364,4364,4364,4364,
6778,6779,6778,6779,6778,6779,6778,6762,4167,4364,4364,4364,4364,4364,4364,4364,
6794,6795,6794,6795,6794,6795,6794,6778,4167,4364,4364,4364,4364,4364,4364,4364,
6762,6763,6762,6763,6762,6763,6762,6794,4167,4364,4364,4364,4364,4364,4364,4364,
6778,6779,6778,6779,6778,6779,6778,6762,4167,4364,4364,4364,4364,4364,4364,4364,
6794,6795,6794,6795,6794,6795,6794,6778,4167,4364,4364,4364,4364,4364,4364,4364,
6762,6763,6762,6763,6762,6763,6762,6794,4167,4364,4364,4364,4364,4364,4364,4364,
6778,6779,6778,6779,6778,6779,6778,6762,4167,4364,4364,4364,4364,4364,4364,4364,
6794,6795,6794,6795,6794,6795,6794,6778,4167,4364,4364,4364,4364,4364,4364,4364,
6762,6763,6762,6763,6762,6763,6762,6794,4167,4364,4364,4364,4364,4364,4364,4364,
6778,6779,6778,6779,6778,6779,6778,6762,4167,4364,4364,4364,4364,4364,4364,4364
</chunk>
      <chunk x="128" y="224" width="16" height="16">
4364,4364,4364,4364,4364,4364,4364,4364,4364,4364,4364,4364,4364,4364,4364,4364,
4364,4364,4364,4364,4364,4364,4364,4364,4364,4364,4364,4364,4364,4364,4364,4364,
4364,4364,4364,4364,4364,4364,4364,4364,4364,4364,4364,4364,4364,4364,4364,4364,
4364,4364,4364,4364,4364,4364,4364,4364,4364,4364,4364,4364,4364,4364,4364,4364,
4364,4364,4364,4364,4364,4364,4364,4364,4364,4364,4364,4364,4364,4364,4364,4364,
4364,4364,4364,4364,4364,4364,4364,4364,4364,4364,4364,4364,4364,4364,4364,4364,
4364,4364,4364,4364,4364,4364,4364,4364,4364,4364,4364,4364,4364,4364,4364,4364,
4364,4364,4364,4364,4364,4364,4364,4364,4364,4364,4364,4364,4364,4364,4364,4364,
4364,4364,4364,4364,4364,4364,4364,4364,4364,4364,4364,4364,4364,4364,4364,4364,
4364,4364,4364,4364,4364,4364,4364,4364,4364,4364,4364,4364,4364,4364,4364,4364,
4364,4364,4364,4364,4364,4364,4364,4364,4364,4364,4364,4364,4364,4364,4364,4364,
4364,4364,4364,4364,4364,4364,4364,4364,4364,4364,4364,4364,4364,4364,4364,4364,
4364,4364,4364,4364,4364,4364,4364,4364,4364,4364,4364,4364,4364,4364,4364,4364,
4364,4364,4364,4364,4364,4364,4364,4364,4364,4364,4364,4364,4364,4364,4364,4364,
4364,4364,4364,4364,4364,4364,4364,4364,4364,4364,4364,4364,4364,4364,4364,4364,
4364,4364,4364,4364,4364,4364,4364,4364,4364,4364,4364,4364,4364,4364,4364,4364
</chunk>
      <chunk x="144" y="224" width="16" height="16">
4364,4364,4364,4364,4364,4364,4364,4364,4364,8694,8842,8842,8698,4364,4364,4364,
4364,4364,4364,4364,4364,4364,4364,4364,4364,8694,8842,8842,8698,4364,4364,4364,
4364,4364,4364,4364,4364,4364,4364,4364,4364,8694,8842,8842,8698,4364,4364,4364,
4364,4364,4364,4364,4364,4364,4364,4364,4364,8694,8842,8842,8698,4364,4364,4364,
4364,4364,4364,4364,4364,4364,4364,4364,4364,8694,8842,8842,8698,4364,4364,4364,
4364,4364,4364,4364,4364,4364,4364,4364,4364,8694,8842,8842,8698,4364,4364,4364,
4364,4364,4364,4364,4364,4364,4364,4364,4364,8694,8842,8842,8698,4364,4364,4364,
4364,4364,4364,4364,4364,4364,4364,4364,4364,8694,8842,8842,8698,4364,4364,4364,
4364,4364,4364,4364,4364,4364,4364,4364,4364,8694,8842,8842,8698,4364,4364,4364,
4364,4364,4364,4364,4364,4364,4364,4364,4364,8694,8842,8842,8698,4364,4364,4364,
4364,4364,4364,4364,4364,4364,4364,4364,4364,8694,8842,8842,8698,4364,4364,4364,
4364,4364,4364,4364,4364,4364,4364,4364,4364,8694,8842,8842,8698,4364,4364,4364,
4364,4364,4364,4364,4364,4364,4364,4364,4364,8694,8842,8842,8698,4364,4364,4364,
4364,4364,4364,4364,4364,4364,4364,4364,4364,8694,8842,8842,8698,4364,4364,4364,
4364,4364,4364,4364,4364,4364,4364,4364,4364,8694,8842,8842,8698,4364,4364,4364,
4364,4364,4364,4364,4364,4364,4364,4364,4364,8694,8842,8842,8698,4364,4364,4364
</chunk>
      <chunk x="160" y="224" width="16" height="16">
4364,4364,4364,4364,4364,4364,4364,4364,4364,4364,4364,4364,4364,4364,4364,4364,
4364,4364,4364,4364,4364,4364,4364,4364,4364,4364,4364,4364,4364,4364,4364,4364,
4364,4364,4364,4364,4364,4364,4364,4364,4364,4364,4364,4364,4364,4364,4364,4364,
4364,4364,4364,4364,4364,4364,4364,4364,4364,4364,4364,4364,4364,4364,4364,4364,
4364,4364,4364,4364,4364,4364,4364,4364,4364,4364,4364,4364,4364,4364,4364,4364,
4364,4364,4364,4364,4364,4364,4364,4364,4364,4364,4364,4364,4364,4364,4364,4364,
4364,4364,4364,4364,4364,4364,4364,4364,4364,4364,4364,4364,4364,4364,4364,4364,
4364,4364,4364,4364,4364,4364,4364,4364,4364,4364,4364,4364,4364,4364,4364,4364,
4364,4364,4364,4364,4364,4364,4364,4364,4364,4364,4364,4364,4364,4364,4364,4364,
4364,4364,4364,4364,4364,4364,4364,4364,4364,4364,4364,4364,4364,4364,4364,4364,
4364,4364,4364,4364,4364,4364,4364,4364,4364,4364,4364,4364,4364,4364,4364,4364,
4364,4364,4364,4364,4364,4364,4364,4364,4364,4364,4364,4364,4364,4364,4364,4364,
4364,4364,4364,4364,4364,4364,4364,4364,4364,4364,4364,4364,4364,4364,4364,4364,
4364,4364,4364,4364,4364,4364,4364,4364,4364,4364,4364,4364,4364,4364,4364,4364,
4364,4364,4364,4364,4364,4364,4364,4364,4364,4364,4364,4364,4364,4364,4364,4364,
4364,4364,4364,4364,4364,4364,4364,4364,4364,4364,4364,4364,4364,4364,4364,4364
</chunk>
      <chunk x="176" y="224" width="16" height="16">
4364,4364,4364,4364,4364,4364,4364,4364,4364,4364,4364,4364,4364,4171,6762,6779,
4364,4364,4364,4364,4364,4364,4364,4364,4364,4364,4364,4364,4364,4171,6778,6795,
4364,4364,4364,4364,4364,4364,4364,4364,4364,4364,4364,4364,4364,4171,6794,6763,
4364,4364,4364,4364,4364,4364,4364,4364,4364,4364,4364,4364,4364,4171,6762,6779,
4364,4364,4364,4364,4364,4364,4364,4364,4364,4364,4364,4364,4364,4171,6778,6795,
4364,4364,4364,4364,4364,4364,4364,4364,4364,4364,4364,4364,4364,4171,6794,6763,
4364,4364,4364,4364,4364,4364,4364,4364,4364,4364,4364,4364,4364,4171,6762,6779,
4364,4364,4364,4364,4364,4364,4364,4364,4364,4364,4364,4364,4364,4171,6778,6795,
4364,4364,4364,4364,4364,4364,4364,4364,4364,4364,4364,4364,4364,4171,6794,6763,
4364,4364,4364,4364,4364,4364,4364,4364,4364,4364,4364,4364,4364,4171,6762,6779,
4364,4364,4364,4364,4364,4364,4364,4364,4364,4364,4364,4364,4364,4171,6778,6795,
4364,4364,4364,4364,4364,4364,4364,4364,4364,4364,4364,4364,4364,4171,6794,6763,
4364,4364,4364,4364,4364,4364,4364,4364,4364,4364,4364,4364,4364,4171,6762,6779,
4364,4364,4364,4364,4364,4364,4364,4364,4364,4364,4364,4364,4364,4171,6778,6795,
4364,4364,4364,4364,4364,4364,4364,4364,4364,4364,4364,4364,4364,4171,6794,6763,
4364,4364,4364,4364,4364,4364,4364,4364,4364,4364,4364,4364,4364,4171,6762,6779
</chunk>
      <chunk x="192" y="224" width="16" height="16">
6778,6779,6778,6779,6778,6779,6778,6779,6778,6779,6778,6779,6778,6779,6778,6779,
6794,6795,6794,6795,6794,6795,6794,6795,6794,6795,6794,6795,6794,6795,6794,6795,
6762,6763,6762,6763,6762,6763,6762,6763,6762,6763,6762,6763,6762,6763,6762,6763,
6778,6779,6778,6779,6778,6779,6778,6779,6778,6779,6778,6779,6778,6779,6778,6779,
6794,6795,6794,6795,6794,6795,6794,6795,6794,6795,6794,6795,6794,6795,6794,6795,
6762,6763,6762,6763,6762,6763,6762,6763,6762,6763,6762,6763,6762,6763,6762,6763,
6778,6779,6778,6779,6778,6779,6778,6779,6778,6779,6778,6779,6778,6779,6778,6779,
6794,6795,6794,6795,6794,6795,6794,6795,6794,6795,6794,6795,6794,6795,6794,6795,
6762,6763,6762,6763,6762,6763,6762,6763,6762,6763,6762,6763,6762,6763,6762,6763,
6778,6779,6778,6779,6778,6779,6778,6779,6778,6779,6778,6779,6778,6779,6778,6779,
6794,6795,6794,6795,6794,6795,6794,6795,6794,6795,6794,6795,6794,6795,6794,6795,
6762,6763,6762,6763,6762,6763,6762,6763,6762,6763,6762,6763,6762,6763,6762,6763,
6778,6779,6778,6779,6778,6779,6778,6779,6778,6779,6778,6779,6778,6779,6778,6779,
6794,6795,6794,6795,6794,6795,6794,6795,6794,6795,6794,6795,6794,6795,6794,6795,
6762,6763,6762,6763,6762,6763,6762,6763,6762,6763,6762,6763,6762,6763,6762,6763,
6778,6779,6778,6779,6778,6779,6778,6779,6778,6779,6778,6779,6778,6779,6778,6779
</chunk>
      <chunk x="208" y="224" width="16" height="16">
6778,6779,0,0,0,0,0,0,0,0,0,0,0,0,0,0,
6794,6795,0,0,0,0,0,0,0,0,0,0,0,0,0,0,
6762,6763,0,0,0,0,0,0,0,0,0,0,0,0,0,0,
6778,6779,0,0,0,0,0,0,0,0,0,0,0,0,0,0,
6794,6795,0,0,0,0,0,0,0,0,0,0,0,0,0,0,
6762,6763,0,0,0,0,0,0,0,0,0,0,0,0,0,0,
6778,6779,0,0,0,0,0,0,0,0,0,0,0,0,0,0,
6794,6795,0,0,0,0,0,0,0,0,0,0,0,0,0,0,
6762,6763,0,0,0,0,0,0,0,0,0,0,0,0,0,0,
6778,6779,0,0,0,0,0,0,0,0,0,0,0,0,0,0,
6794,6795,0,0,0,0,0,0,0,0,0,0,0,0,0,0,
6762,6763,0,0,0,0,0,0,0,0,0,0,0,0,0,0,
6778,6779,0,0,0,0,0,0,0,0,0,0,0,0,0,0,
6794,6795,0,0,0,0,0,0,0,0,0,0,0,0,0,0,
6762,6763,0,0,0,0,0,0,0,0,0,0,0,0,0,0,
6778,6779,0,0,0,0,0,0,0,0,0,0,0,0,0,0
</chunk>
      <chunk x="96" y="240" width="16" height="16">
0,0,0,0,6794,6795,6794,6795,6794,6795,6794,6795,6794,6795,6794,6795,
0,0,0,0,6762,6763,6762,6763,6762,6763,6762,6763,6762,6763,6762,6763,
0,0,0,0,6778,6779,6778,6779,6778,6779,6778,6779,6778,6779,6778,6779,
0,0,0,0,6794,6795,6794,6795,6794,6795,6794,6795,6794,6795,6794,6795,
0,0,0,0,6762,6763,6762,6763,6762,6763,6762,6763,6762,6763,6762,6763,
0,0,0,0,6778,6779,6778,6779,6778,6779,6778,6779,6778,6779,6778,6779,
0,0,0,0,6794,6795,6794,6795,6794,6795,6794,6795,6794,6795,6794,6795,
0,0,0,0,6762,6763,6762,6763,6762,6763,6762,6763,6762,6763,6762,6763,
0,0,0,0,6778,6779,6778,6779,6778,6779,6778,6779,6778,6779,6778,6779,
0,0,0,0,6794,6795,6794,6795,6794,6795,6794,6795,6794,6795,6794,6795,
0,0,0,0,6762,6763,6762,6763,6762,6763,6762,6763,6762,6763,6762,6763,
0,0,0,0,6778,6779,6778,6779,6778,6779,6778,6779,6778,6779,6778,6779,
0,0,0,0,6794,6795,6794,6795,6794,6795,6794,6795,6794,6795,6794,6795,
0,0,0,0,6762,6763,6762,6763,6762,6763,6762,6763,6762,6763,6762,6763,
0,0,0,0,6778,6779,6778,6779,6778,6779,6778,6779,6778,6779,6778,6779,
0,0,0,0,6794,6795,6794,6795,6794,6795,6794,6795,6794,6795,6794,6795
</chunk>
      <chunk x="112" y="240" width="16" height="16">
6794,6795,6794,6795,6794,6795,6794,6778,4167,4364,4364,4364,4364,4364,4364,4364,
6762,6763,6762,6763,6762,6763,6762,6794,4167,4364,4364,4364,4364,4364,4364,4364,
6778,6779,6778,6779,6778,6779,6778,6762,4167,4364,4364,4364,4364,4364,4364,4364,
6794,6795,6794,6795,6794,6795,6794,6778,4167,4364,4364,4364,4364,4364,4364,4364,
6762,6763,6762,6763,6762,6763,6762,6794,4167,4364,4364,4364,4364,4364,4364,4364,
6778,6779,6778,6779,6778,6779,6778,6762,4167,4364,4364,4364,4364,4364,4364,4364,
6794,6795,6794,6795,6794,6795,6794,6778,4167,4364,4364,4364,4364,4364,4364,4364,
6762,6763,6762,6763,6762,6763,6762,6794,4167,4364,4364,4364,4364,4364,4364,4364,
6778,6779,6778,6779,6778,6779,6778,6762,4167,4364,4364,4364,4364,4364,4364,4364,
6794,6795,6794,6795,6794,6795,6794,6778,4167,4364,4364,4364,4364,4364,4364,4364,
6762,6763,6762,6763,6762,6763,6762,6794,4167,4364,4364,4364,4364,4364,4364,4364,
6778,6779,6778,6779,6778,6779,6778,6762,4167,4364,4364,4364,4364,4364,4364,4364,
6794,6795,6794,6795,6794,6795,6794,6778,4167,4364,4364,4364,4364,4364,4364,4364,
6762,6763,6762,6763,6762,6763,6762,6794,4167,4364,4364,4364,4364,4364,4364,4364,
6778,6779,6778,6779,6778,6779,6778,6762,4167,4364,4364,4364,4364,4364,4364,4364,
6794,6795,6794,6795,6794,6795,6794,6778,4167,4364,4364,4364,4364,4364,4364,4364
</chunk>
      <chunk x="128" y="240" width="16" height="16">
4364,4364,4364,4364,4364,4364,4364,4364,4364,4364,4364,4364,4364,4364,4364,4364,
4364,4364,4364,4364,4364,4364,4364,4364,4364,4364,4364,4364,4364,4364,4364,4364,
4364,4364,4364,4364,4364,4364,4364,4364,4364,4364,4364,4364,4364,4364,4364,4364,
4364,4364,4364,4364,4364,4364,4364,4364,4364,4364,4364,4364,4364,4364,4364,4364,
4364,4364,4364,4364,4364,4364,4364,4364,4364,4364,4364,4364,4364,4364,4364,4364,
4364,4364,4364,4364,4364,4364,4364,4364,4364,4364,4364,4364,4364,4364,4364,4364,
4364,4364,4364,4364,4364,4364,4364,4364,4364,4364,4364,4364,4364,4364,4364,4364,
4364,4364,4364,4364,4364,4364,4364,4364,4364,4364,4364,4364,4364,4364,4364,4364,
4364,4364,4364,4364,4364,4364,4364,4364,4364,4364,4364,4364,4364,4364,4364,4364,
4364,4364,4364,4364,4364,4364,4364,4364,4364,4364,4364,4364,4364,4364,4364,4364,
4364,4364,4364,4364,4364,4364,4364,4364,4364,4364,4364,4364,4364,4364,4364,4364,
4364,4364,4364,4364,4364,4364,4364,4364,4364,4364,4364,4364,4364,4364,4364,4364,
4364,4364,4364,4364,4364,4364,4364,4364,4364,4364,4364,4364,4364,4364,4364,4364,
4364,4364,4364,4364,4364,4364,4364,4364,4364,4364,4364,4364,4364,4364,4364,4364,
4364,4364,4364,4364,4364,4364,4364,4364,4364,4364,4364,4364,4364,4364,4364,4364,
4364,4364,4364,4364,4364,4364,4364,4364,4364,4364,4364,4364,4364,4364,4364,4364
</chunk>
      <chunk x="144" y="240" width="16" height="16">
4364,4364,4364,4364,4364,4364,4364,4364,4364,8694,8842,8842,8698,4364,4364,4364,
4364,4364,4364,4364,4364,4364,4364,4364,4364,8694,8842,8842,8698,4364,4364,4364,
4364,4364,4364,4364,4364,4364,4364,4364,4364,8694,8842,8842,8698,4364,4364,4364,
4364,4364,4364,4364,4364,4364,4364,4364,4364,8694,8842,8842,8698,4364,4364,4364,
4364,4364,4364,4364,4364,4364,4364,4364,4364,8694,8842,8842,8698,4364,4364,4364,
4364,4364,4364,4364,4364,4364,4364,4364,4364,8694,8842,8842,8698,4364,4364,4364,
4364,4364,4364,4364,4364,4364,4364,4364,4364,8694,8842,8842,8698,4364,4364,4364,
4364,4364,4364,4364,4364,4364,4364,4364,4364,8694,8842,8842,8698,4364,4364,4364,
4364,4364,4364,4364,4364,4364,4364,4364,4364,8694,8842,8842,8698,4364,4364,4364,
4364,4364,4364,4364,4364,4364,4364,4364,4364,8694,8842,8842,8698,4364,4364,4364,
4364,4364,4364,4364,4364,4364,4364,4364,4364,8694,8842,8842,8698,4364,4364,4364,
4364,4364,4364,4364,4364,4364,4364,4364,4364,8694,8842,8842,8698,4364,4364,4364,
4364,4364,4364,4364,4364,4364,4364,4364,4364,8694,8842,8842,8698,4364,4364,4364,
4364,4364,4364,4364,4364,4364,4364,4364,4364,8694,8842,8842,8698,4364,4364,4364,
4364,4364,4364,4364,4364,4364,4364,4364,4364,8694,8842,8842,8698,4364,4364,4364,
4364,4364,4364,4364,4364,4364,4364,4364,4364,8694,8842,8842,8698,4364,4364,4364
</chunk>
      <chunk x="160" y="240" width="16" height="16">
4364,4364,4364,4364,4364,4364,4364,4364,4364,4364,4364,4364,4364,4364,4364,4364,
4364,4364,4364,4364,4364,4364,4364,4364,4364,4364,4364,4364,4364,4364,4364,4364,
4364,4364,4364,4364,4364,4364,4364,4364,4364,4364,4364,4364,4364,4364,4364,4364,
4364,4364,4364,4364,4364,4364,4364,4364,4364,4364,4364,4364,4364,4364,4364,4364,
4364,4364,4364,4364,4364,4364,4364,4364,4364,4364,4364,4364,4364,4364,4364,4364,
4364,4364,4364,4364,4364,4364,4364,4364,4364,4364,4364,4364,4364,4364,4364,4364,
4364,4364,4364,4364,4364,4364,4364,4364,4364,4364,4364,4364,4364,4364,4364,4364,
4364,4364,4364,4364,4364,4364,4364,4364,4364,4364,4364,4364,4364,4364,4364,4364,
4364,4364,4364,4364,4364,4364,4364,4364,4364,4364,4364,4364,4364,4364,4364,4364,
4364,4364,4364,4364,4364,4364,4364,4364,4364,4364,4364,4364,4364,4364,4364,4364,
4364,4364,4364,4364,4364,4364,4364,4364,4364,4364,4364,4364,4364,4364,4364,4364,
4364,4364,4364,4364,4364,4364,4364,4364,4364,4364,4364,4364,4364,4364,4364,4364,
4364,4364,4364,4364,4364,4364,4364,4364,4364,4364,4364,4364,4364,4364,4364,4364,
4364,4364,4364,4364,4364,4364,4364,4364,4364,4364,4364,4364,4364,4364,4364,4364,
4364,4364,4364,4364,4364,4364,4364,4364,4364,4364,4364,4364,4364,4364,4364,4364,
4364,4364,4364,4364,4364,4364,4364,4364,4364,4364,4364,4364,4364,4364,4364,4364
</chunk>
      <chunk x="176" y="240" width="16" height="16">
4364,4364,4364,4364,4364,4364,4364,4364,4364,4364,4364,4364,4364,4171,6778,6795,
4364,4364,4364,4364,4364,4364,4364,4364,4364,4364,4364,4364,4364,4171,6794,6763,
4364,4364,4364,4364,4364,4364,4364,4364,4364,4364,4364,4364,4364,4171,6762,6779,
4364,4364,4364,4364,4364,4364,4364,4364,4364,4364,4364,4364,4364,4171,6778,6795,
4364,4364,4364,4364,4364,4364,4364,4364,4364,4364,4364,4364,4364,4171,6794,6763,
4364,4364,4364,4364,4364,4364,4364,4364,4364,4364,4364,4364,4364,4171,6762,6779,
4364,4364,4364,4364,4364,4364,4364,4364,4364,4364,4364,4364,4364,4171,6778,6795,
4364,4364,4364,4364,4364,4364,4364,4364,4364,4364,4364,4364,4364,4171,6794,6763,
4364,4364,4364,4364,4364,4364,4364,4364,4364,4364,4364,4364,4364,4171,6762,6779,
4364,4364,4364,4364,4364,4364,4364,4364,4364,4364,4364,4364,4364,4171,6778,6795,
4364,4364,4364,4364,4364,4364,4364,4364,4364,4364,4364,4364,4364,4171,6794,6763,
4364,4364,4364,4364,4364,4364,4364,4364,4364,4364,4364,4364,4364,4171,6762,6779,
4364,4364,4364,4364,4364,4364,4364,4364,4364,4364,4364,4364,4364,4171,6778,6795,
4364,4364,4364,4364,4364,4364,4364,4364,4364,4364,4364,4364,4364,4171,6794,6763,
4364,4364,4364,4364,4364,4364,4364,4364,4364,4364,4364,4364,4364,4171,6762,6779,
4364,4364,4364,4364,4364,4364,4364,4364,4364,4364,4364,4364,4364,4171,6778,6795
</chunk>
      <chunk x="192" y="240" width="16" height="16">
6794,6795,6794,6795,6794,6795,6794,6795,6794,6795,6794,6795,6794,6795,6794,6795,
6762,6763,6762,6763,6762,6763,6762,6763,6762,6763,6762,6763,6762,6763,6762,6763,
6778,6779,6778,6779,6778,6779,6778,6779,6778,6779,6778,6779,6778,6779,6778,6779,
6794,6795,6794,6795,6794,6795,6794,6795,6794,6795,6794,6795,6794,6795,6794,6795,
6762,6763,6762,6763,6762,6763,6762,6763,6762,6763,6762,6763,6762,6763,6762,6763,
6778,6779,6778,6779,6778,6779,6778,6779,6778,6779,6778,6779,6778,6779,6778,6779,
6794,6795,6794,6795,6794,6795,6794,6795,6794,6795,6794,6795,6794,6795,6794,6795,
6762,6763,6762,6763,6762,6763,6762,6763,6762,6763,6762,6763,6762,6763,6762,6763,
6778,6779,6778,6779,6778,6779,6778,6779,6778,6779,6778,6779,6778,6779,6778,6779,
6794,6795,6794,6795,6794,6795,6794,6795,6794,6795,6794,6795,6794,6795,6794,6795,
6762,6763,6762,6763,6762,6763,6762,6763,6762,6763,6762,6763,6762,6763,6762,6763,
6778,6779,6778,6779,6778,6779,6778,6779,6778,6779,6778,6779,6778,6779,6778,6779,
6794,6795,6794,6795,6794,6795,6794,6795,6794,6795,6794,6795,6794,6795,6794,6795,
6762,6763,6762,6763,6762,6763,6762,6763,6762,6763,6762,6763,6762,6763,6762,6763,
6778,6779,6778,6779,6778,6779,6778,6779,6778,6779,6778,6779,6778,6779,6778,6779,
6794,6795,6794,6795,6794,6795,6794,6795,6794,6795,6794,6795,6794,6795,6794,6795
</chunk>
      <chunk x="208" y="240" width="16" height="16">
6794,6795,0,0,0,0,0,0,0,0,0,0,0,0,0,0,
6762,6763,0,0,0,0,0,0,0,0,0,0,0,0,0,0,
6778,6779,0,0,0,0,0,0,0,0,0,0,0,0,0,0,
6794,6795,0,0,0,0,0,0,0,0,0,0,0,0,0,0,
6762,6763,0,0,0,0,0,0,0,0,0,0,0,0,0,0,
6778,6779,0,0,0,0,0,0,0,0,0,0,0,0,0,0,
6794,6795,0,0,0,0,0,0,0,0,0,0,0,0,0,0,
6762,6763,0,0,0,0,0,0,0,0,0,0,0,0,0,0,
6778,6779,0,0,0,0,0,0,0,0,0,0,0,0,0,0,
6794,6795,0,0,0,0,0,0,0,0,0,0,0,0,0,0,
6762,6763,0,0,0,0,0,0,0,0,0,0,0,0,0,0,
6778,6779,0,0,0,0,0,0,0,0,0,0,0,0,0,0,
6794,6795,0,0,0,0,0,0,0,0,0,0,0,0,0,0,
6762,6763,0,0,0,0,0,0,0,0,0,0,0,0,0,0,
6778,6779,0,0,0,0,0,0,0,0,0,0,0,0,0,0,
6794,6795,0,0,0,0,0,0,0,0,0,0,0,0,0,0
</chunk>
      <chunk x="96" y="256" width="16" height="16">
0,0,0,0,6762,6763,6762,6763,6762,6763,6762,6763,6762,6763,6762,6763,
0,0,0,0,6778,6779,6778,6779,6778,6779,6778,6779,6778,6779,6778,6779,
0,0,0,0,6794,6795,6794,6795,6794,6795,6794,6795,6794,6795,6794,6795,
0,0,0,0,6762,6763,6762,6763,6762,6763,6762,6763,6762,6763,6762,6763,
0,0,0,0,6778,6779,6778,6779,6778,6779,6778,6779,6778,6779,6778,6779,
0,0,0,0,6794,6795,6794,6795,6794,6795,6794,6795,6794,6795,6794,6795,
0,0,0,0,6762,6763,6762,6763,6762,6763,6762,6763,6762,6763,6762,6763,
0,0,0,0,6778,6779,6778,6779,6778,6779,6778,6779,6778,6779,6778,6779,
0,0,0,0,6794,6795,6794,6795,6794,6795,6794,6795,6794,6795,6794,6795,
0,0,0,0,6762,6763,6762,6763,6762,6763,6762,6763,6762,6763,6762,6763,
0,0,0,0,6778,6779,6778,6779,6778,6779,6778,6779,6778,6779,6778,6779,
0,0,0,0,6794,6795,6794,6795,6794,6795,6794,6795,6794,6795,6794,6795,
0,0,0,0,6762,6763,6762,6763,6762,6763,6762,6763,6762,6763,6762,6763,
0,0,0,0,6778,6779,6778,6779,6778,6779,6778,6779,6778,6779,6778,6779,
0,0,0,0,6794,6795,6794,6795,6794,6795,6794,6795,6794,6795,6794,6795,
0,0,0,0,6762,6763,6762,6763,6762,6763,6762,6763,6762,6763,6762,6763
</chunk>
      <chunk x="112" y="256" width="16" height="16">
6762,6763,6762,6763,6762,6763,6762,6794,4167,4364,4364,4364,4364,4364,4364,4364,
6778,6779,6778,6779,6778,6779,6778,6762,4167,4364,4364,4364,4364,4364,4364,4364,
6794,6795,6794,6795,6794,6795,6794,6778,4167,4364,4364,4364,4364,4364,4364,4364,
6762,6763,6762,6763,6762,6763,6762,6794,4167,4364,4364,4364,4364,4364,4364,4364,
6778,6779,6778,6779,6778,6779,6778,6762,4167,4364,4364,4364,4364,4364,4364,4364,
6794,6795,6794,6795,6794,6795,6794,6778,4167,4364,4364,4364,4364,4364,4364,4364,
6762,6763,6762,6763,6762,6763,6762,6794,4167,4364,4364,4364,4364,4364,4364,4364,
6778,6779,6778,6779,6778,6779,6778,6762,4167,4364,4364,4364,4364,4364,4364,4364,
6794,6795,6794,6795,6794,6795,6794,6778,4167,4364,4364,4364,4364,4364,4364,4364,
6762,6763,6762,6763,6762,6763,6762,6794,4167,4364,4364,4364,4364,4364,4364,4364,
6778,6779,6778,6779,6778,6779,6778,6762,4167,4364,4364,4364,4364,4364,4364,4364,
6794,6795,6794,6795,6794,6795,6794,6778,4167,4364,4364,4364,4364,4364,4364,4364,
6762,6763,6762,6763,6762,6763,6762,6794,4167,4364,4364,4364,4364,4364,4364,4364,
6778,6779,6778,6779,6778,6779,6778,6762,4167,4364,4364,4364,4364,4364,4364,4364,
6794,6795,6794,6795,6794,6795,6794,6778,4167,4364,4364,4364,4364,4364,4364,4364,
6762,6763,6762,6763,6762,6763,6762,6794,4167,4364,4364,4364,4364,4364,4364,4364
</chunk>
      <chunk x="128" y="256" width="16" height="16">
4364,4364,4364,4364,4364,4364,4364,4364,4364,4364,4364,4364,4364,4364,4364,4364,
4364,4364,4364,4364,4364,4364,4364,4364,4364,4364,4364,4364,4364,4364,4364,4364,
4364,4364,4364,4364,4364,4364,4364,4364,4364,4364,4364,4364,4364,4364,4364,4364,
4364,4364,4364,4364,4364,4364,4364,4364,4364,4364,4364,4364,4364,4364,4364,4364,
4364,4364,4364,4364,4364,4364,4364,4364,4364,4364,4364,4364,4364,4364,4364,4364,
4364,4364,4364,4364,4364,4364,4364,4364,4364,4364,4364,4364,4364,4364,4364,4364,
4364,4364,4364,4364,4364,4364,4364,4364,4364,4364,4364,4364,4364,4364,4364,4364,
4364,4364,4364,4364,4364,4364,4364,4364,4364,4364,4364,4364,4364,4364,4364,4364,
4364,4364,4364,4364,4364,4364,4364,4364,4364,4364,4364,4364,4364,4364,4364,4364,
4364,4364,4364,4364,4364,4364,4364,4364,4364,4364,4364,4364,4364,4364,4364,4364,
4364,4364,4364,4364,4364,4364,4364,4364,4364,4364,4364,4364,4364,4364,4364,4364,
4364,4364,4364,4364,4364,4364,4364,4364,4364,4364,4364,4364,4364,4364,4364,4364,
4364,4364,4364,4364,4364,4364,4364,4364,4364,4364,4364,4364,4364,4364,4364,4364,
4364,4364,4364,4364,4364,4364,4364,4364,4364,4364,4364,4364,4364,4364,4364,4364,
4364,4364,4364,4364,4364,4364,4364,4364,4364,4364,4364,4364,4364,4364,4364,4364,
4364,4364,4364,4364,4364,4364,4364,4364,4364,4364,4364,4364,4364,4364,4364,4364
</chunk>
      <chunk x="144" y="256" width="16" height="16">
4364,4364,4364,4364,4364,4364,4364,4364,4364,8694,8842,8842,8698,4364,4364,4364,
4364,4364,4364,4364,4364,4364,4364,4364,4364,8694,8842,8842,8698,4364,4364,4364,
4364,4364,4364,4364,4364,4364,4364,4364,4364,8694,8842,8842,8698,4364,4364,4364,
4364,4364,4364,4364,4364,4364,4364,4364,4364,8694,8842,8842,8698,4364,4364,4364,
4364,4364,4364,4364,4364,4364,4364,4364,4364,8694,8842,8842,8698,4364,4364,4364,
4364,4364,4364,4364,4364,4364,4364,4364,4364,8694,8842,8842,8698,4364,4364,4364,
4364,4364,4364,4364,4364,4364,4364,4364,4364,8694,8842,8842,8698,4364,4364,4364,
4364,4364,4364,4364,4364,4364,4364,4364,4364,8694,8842,8842,8698,4364,4364,4364,
4364,4364,4364,4364,4364,4364,4364,4364,4364,8694,8842,8842,8698,4364,4364,4364,
4364,4364,4364,4364,4364,4364,4364,4364,4364,8694,8842,8842,8698,4364,4364,4364,
4364,4364,4364,4364,4364,4364,4364,4364,4364,8694,8842,8842,8698,4364,4364,4364,
4364,4364,4364,4364,4364,4364,4364,4364,4364,8694,8842,8842,8698,4364,4364,4364,
4364,4364,4364,4364,4364,4364,4364,4364,4364,8694,8842,8842,8698,4364,4364,4364,
4364,4364,4364,4364,4364,4364,4364,4364,4364,8743,8745,8745,8747,4364,4364,4364,
4364,4364,4364,4364,4364,4364,4364,4364,4364,4364,4364,4364,4364,4364,4364,4364,
4364,4364,4364,4364,4364,4364,4364,4364,4364,4364,4364,4364,4364,4364,4364,4364
</chunk>
      <chunk x="160" y="256" width="16" height="16">
4364,4364,4364,4364,4364,4364,4364,4364,4364,4364,4364,4364,4364,4364,4364,4364,
4364,4364,4364,4364,4364,4364,4364,4364,4364,4364,4364,4364,4364,4364,4364,4364,
4364,4364,4364,4364,4364,4364,4364,4364,4364,4364,4364,4364,4364,4364,4364,4364,
4364,4364,4364,4364,4364,4364,4364,4364,4364,4364,4364,4364,4364,4364,4364,4364,
4364,4364,4364,4364,4364,4364,4364,4364,4364,4364,4364,4364,4364,4364,4364,4364,
4364,4364,4364,4364,4364,4364,4364,4364,4364,4364,4364,4364,4364,4364,4364,4364,
4364,4364,4364,4364,4364,4364,4364,4364,4364,4364,4364,4364,4364,4364,4364,4364,
4364,4364,4364,4364,4364,4364,4364,4364,4364,4364,4364,4364,4364,4364,4364,4364,
4364,4364,4364,4364,4364,4364,4364,4364,4364,4364,4364,4364,4364,4364,4364,4364,
4364,4364,4364,4364,4364,4364,4364,4364,4364,4364,4364,4364,4364,4364,4364,4364,
4364,4364,4364,4364,4364,4364,4364,4364,4364,4364,4364,4364,4364,4364,4364,4364,
4364,4364,4364,4364,4364,4364,4364,4364,4364,4364,4364,4364,4364,4364,4364,4364,
4364,4364,4364,4364,4364,4364,4364,4364,4364,4364,4364,4364,4364,4364,4364,4364,
4364,4364,4364,4364,4364,4364,4364,4364,4364,4364,4364,4364,4364,4364,4364,4364,
4364,4364,4364,4364,4364,4364,4364,4364,4364,4364,4364,4364,4364,4364,4364,4364,
4364,4364,4364,4364,4364,4364,4364,4364,4364,4364,4364,4364,4364,4364,4364,4364
</chunk>
      <chunk x="176" y="256" width="16" height="16">
4364,4364,4364,4364,4364,4364,4364,4364,4364,4364,4364,4364,4364,4171,6794,6763,
4364,4364,4364,4364,4364,4364,4364,4364,4364,4364,4364,4364,4364,4171,6762,6779,
4364,4364,4364,4364,4364,4364,4364,4364,4364,4364,4364,4364,4364,4171,6778,6795,
4364,4364,4364,4364,4364,4364,4364,4364,4364,4364,4364,4364,4364,4171,6794,6763,
4364,4364,4364,4364,4364,4364,4364,4364,4364,4364,4364,4364,4364,4171,6762,6779,
4364,4364,4364,4364,4364,4364,4364,4364,4364,4364,4364,4364,4364,4171,6778,6795,
4364,4364,4364,4364,4364,4364,4364,4364,4364,4364,4364,4364,4364,4171,6794,6763,
4364,4364,4364,4364,4364,4364,4364,4364,4364,4364,4364,4364,4364,4171,6762,6779,
4364,4364,4364,4364,4364,4364,4364,4364,4364,4364,4364,4364,4364,4171,6778,6795,
4364,4364,4364,4364,4364,4364,4364,4364,4364,4364,4364,4364,4364,4171,6794,6763,
4364,4364,4364,4364,4364,4364,4364,4364,4364,4364,4364,4364,4364,4171,6762,6779,
4364,4364,4364,4364,4364,4364,4364,4364,4364,4364,4364,4364,4364,4171,6778,6795,
4364,4364,4364,4364,4364,4364,4364,4364,4364,4364,4364,4364,4364,4171,6794,6763,
4364,4364,4364,4364,4364,4364,4364,4364,4364,4364,4364,4364,4364,4171,6762,6779,
4364,4364,4364,4364,4364,4364,4364,4364,4364,4364,4364,4364,4364,4171,6778,6795,
4364,4364,4364,4364,4364,4364,4364,4364,4364,4364,4364,4364,4364,4171,6794,6763
</chunk>
      <chunk x="192" y="256" width="16" height="16">
6762,6763,6762,6763,6762,6763,6762,6763,6762,6763,6762,6763,6762,6763,6762,6763,
6778,6779,6778,6779,6778,6779,6778,6779,6778,6779,6778,6779,6778,6779,6778,6779,
6794,6795,6794,6795,6794,6795,6794,6795,6794,6795,6794,6795,6794,6795,6794,6795,
6762,6763,6762,6763,6762,6763,6762,6763,6762,6763,6762,6763,6762,6763,6762,6763,
6778,6779,6778,6779,6778,6779,6778,6779,6778,6779,6778,6779,6778,6779,6778,6779,
6794,6795,6794,6795,6794,6795,6794,6795,6794,6795,6794,6795,6794,6795,6794,6795,
6762,6763,6762,6763,6762,6763,6762,6763,6762,6763,6762,6763,6762,6763,6762,6763,
6778,6779,6778,6779,6778,6779,6778,6779,6778,6779,6778,6779,6778,6779,6778,6779,
6794,6795,6794,6795,6794,6795,6794,6795,6794,6795,6794,6795,6794,6795,6794,6795,
6762,6763,6762,6763,6762,6763,6762,6763,6762,6763,6762,6763,6762,6763,6762,6763,
6778,6779,6778,6779,6778,6779,6778,6779,6778,6779,6778,6779,6778,6779,6778,6779,
6794,6795,6794,6795,6794,6795,6794,6795,6794,6795,6794,6795,6794,6795,6794,6795,
6762,6763,6762,6763,6762,6763,6762,6763,6762,6763,6762,6763,6762,6763,6762,6763,
6778,6779,6778,6779,6778,6779,6778,6779,6778,6779,6778,6779,6778,6779,6778,6779,
6794,6795,6794,6795,6794,6795,6794,6795,6794,6795,6794,6795,6794,6795,6794,6795,
6762,6763,6762,6763,6762,6763,6762,6763,6762,6763,6762,6763,6762,6763,6762,6763
</chunk>
      <chunk x="208" y="256" width="16" height="16">
6762,6763,0,0,0,0,0,0,0,0,0,0,0,0,0,0,
6778,6779,0,0,0,0,0,0,0,0,0,0,0,0,0,0,
6794,6795,0,0,0,0,0,0,0,0,0,0,0,0,0,0,
6762,6763,0,0,0,0,0,0,0,0,0,0,0,0,0,0,
6778,6779,0,0,0,0,0,0,0,0,0,0,0,0,0,0,
6794,6795,0,0,0,0,0,0,0,0,0,0,0,0,0,0,
6762,6763,0,0,0,0,0,0,0,0,0,0,0,0,0,0,
6778,6779,0,0,0,0,0,0,0,0,0,0,0,0,0,0,
6794,6795,0,0,0,0,0,0,0,0,0,0,0,0,0,0,
6762,6763,0,0,0,0,0,0,0,0,0,0,0,0,0,0,
6778,6779,0,0,0,0,0,0,0,0,0,0,0,0,0,0,
6794,6795,0,0,0,0,0,0,0,0,0,0,0,0,0,0,
6762,6763,0,0,0,0,0,0,0,0,0,0,0,0,0,0,
6778,6779,0,0,0,0,0,0,0,0,0,0,0,0,0,0,
6794,6795,0,0,0,0,0,0,0,0,0,0,0,0,0,0,
6762,6763,0,0,0,0,0,0,0,0,0,0,0,0,0,0
</chunk>
      <chunk x="96" y="272" width="16" height="16">
0,0,0,0,6778,6779,6778,6779,6778,6779,6778,6779,6778,6779,6778,6779,
0,0,0,0,6794,6795,6794,6795,6794,6795,6794,6795,6794,6795,6794,6795,
0,0,0,0,6762,6763,6762,6763,6762,6763,6762,6763,6762,6763,6762,6763,
0,0,0,0,6778,6779,6778,6779,6778,6779,6778,6779,6778,6779,6778,6779,
0,0,0,0,6794,6795,6794,6795,6794,6795,6794,6795,6794,6795,6794,6795,
0,0,0,0,6762,6763,6762,6763,6762,6763,6762,6763,6762,6763,6762,6763,
0,0,0,0,6778,6779,6778,6779,6778,6779,6778,6779,6778,6779,6778,6779,
0,0,0,0,6794,6795,6794,6795,6794,6795,6794,6795,6794,6795,6794,6795,
0,0,0,0,6762,6763,6762,6763,6762,6763,6762,6763,6762,6763,6762,6763,
0,0,0,0,6778,6779,6778,6779,6778,6779,6778,6779,6778,6779,6778,6779,
0,0,0,0,6794,6795,6794,6795,6794,6795,6794,6795,6794,6795,6794,6795,
0,0,0,0,6762,6763,6762,6763,6762,6763,6762,6763,6762,6763,6762,6763,
0,0,0,0,6778,6779,6778,6779,6778,6779,6778,6779,6778,6779,6778,6779,
0,0,0,0,6794,6795,6794,6795,6794,6795,6794,6795,6794,6795,6794,6795,
0,0,0,0,6762,6763,6762,6763,6762,6763,6762,6763,6762,6763,6762,6763,
0,0,0,0,6778,6779,6778,6779,6778,6779,6778,6779,6778,6779,6778,6779
</chunk>
      <chunk x="112" y="272" width="16" height="16">
6778,6779,6778,6779,6778,6779,6778,6762,4167,4364,4364,4364,4364,4364,4364,4364,
6794,6795,6794,6795,6794,6795,6794,6778,4167,4364,4364,4364,4364,4364,4364,4364,
6762,6763,6762,6763,6762,6763,6762,6794,4167,4364,4364,4364,4364,4364,4364,4364,
6778,6779,6778,6779,6778,6779,6778,6762,4167,4364,4364,4364,4364,4364,4364,4364,
6794,6795,6794,6795,6794,6795,6794,6778,4167,4364,4364,4364,4364,4364,4364,4364,
6762,6763,6762,6763,6762,6763,6762,6794,4167,4364,4364,4364,4364,4364,4364,4364,
6778,6779,6778,6779,6778,6779,6778,6762,4167,4364,4364,4364,4364,4364,4364,4364,
6794,6795,6794,6795,6794,6795,6794,6778,4265,4267,4267,4267,4267,4267,4267,4267,
6762,6763,6762,6763,6762,6763,6762,6794,6762,6762,6762,6762,6762,6762,6762,6762,
6778,6779,6778,6779,6778,6779,6778,6762,6762,6762,6762,6762,6762,6762,6762,6762,
6794,6795,6794,6795,6794,6795,6794,6778,6778,6778,6778,6778,6778,6778,6778,6778,
6762,6763,6762,6763,6762,6763,6762,6794,6794,6794,6794,6794,6794,6794,6794,6794,
6778,6779,6778,6779,6778,6779,6778,6762,6762,6762,6762,6762,6762,6762,6762,6762,
6794,6795,6794,6795,6794,6795,6794,6778,6778,6778,6778,6778,6778,6778,6778,6778,
6762,6763,6762,6763,6762,6763,6762,6763,6762,6763,6762,6763,6762,6763,6762,6763,
6778,6779,6778,6779,6778,6779,6778,6779,6778,6779,6778,6779,6778,6779,6778,6779
</chunk>
      <chunk x="128" y="272" width="16" height="16">
4364,4364,4364,4364,4364,4364,4364,4364,4364,4364,4364,4364,4364,4364,4364,4364,
4364,4364,4364,4364,4364,4364,4364,4364,4364,4364,4364,4364,4364,4364,4364,4364,
4364,4364,4364,4364,4364,4364,4364,4364,4364,4364,4364,4364,4364,4364,4364,4364,
4364,4364,4364,4364,4364,4364,4364,4364,4364,4364,4364,4364,4364,4364,4364,4364,
4364,4364,4364,4364,4364,4364,4364,4364,4364,4364,4364,4364,4364,4364,4364,4364,
4364,4364,4364,4364,4364,4364,4364,4364,4364,4364,4364,4364,4364,4364,4364,4364,
4364,4364,4364,4364,4364,4364,4364,4364,4364,4364,4364,4364,4364,4364,4364,4364,
4267,4267,4267,4267,4267,4267,4267,4267,4267,4267,4267,4267,4267,4267,4267,4267,
6762,6762,6762,6762,6762,6762,6762,6762,6762,6762,6762,6762,6762,6762,6762,6762,
6762,6762,6762,6762,6762,6762,6762,6762,6762,6762,6762,6762,6762,6762,6762,6762,
6778,6778,6778,6778,6778,6778,6778,6778,6778,6778,6778,6778,6778,6778,6778,6778,
6794,6794,6794,6794,6794,6794,6794,6794,6794,6794,6794,6794,6794,6794,6794,6794,
6762,6762,6762,6762,6762,6762,6762,6762,6762,6762,6762,6762,6762,6762,6762,6762,
6778,6778,6778,6778,6778,6778,6778,6778,6778,6778,6778,6778,6778,6778,6778,6778,
6762,6763,6762,6763,6762,6763,6762,6763,6762,6763,6762,6763,6762,6763,6762,6763,
6778,6779,6778,6779,6778,6779,6778,6779,6778,6779,6778,6779,6778,6779,6778,6779
</chunk>
      <chunk x="144" y="272" width="16" height="16">
4364,4364,4364,4364,4364,4364,4364,4364,4364,4364,4364,4364,4364,4364,4364,4364,
4364,4364,4364,4364,4364,4364,4364,4364,4364,4364,4364,4364,4364,4364,4364,4364,
4364,4364,4364,4364,4364,4364,4364,4364,4364,4364,4364,4364,4364,4364,4364,4364,
4364,4364,4364,4364,4364,4364,4364,4364,4364,4364,4364,4364,4364,4364,4364,4364,
4364,4364,4364,4364,4364,4364,4364,4364,4364,4364,4364,4364,4364,4364,4364,4364,
4364,4364,4364,4364,4364,4364,4364,4364,4364,4364,4364,4364,4364,4364,4364,4364,
4364,4364,4364,4364,4364,4364,4364,4364,4364,4364,4364,4364,4364,4364,4364,4364,
4267,4267,4267,4267,4267,4267,4267,4267,4267,4267,4267,4267,4267,4267,4267,4267,
6762,6762,6762,6762,6762,6762,6762,6762,6762,6762,6762,6762,6762,6762,6762,6762,
6762,6762,6762,6762,6762,6762,6762,6762,6762,6762,6762,6762,6762,6762,6762,6762,
6778,6778,6778,6778,6778,6778,6778,6778,6778,6778,6778,6778,6778,6778,6778,6778,
6794,6794,6794,6794,6794,6794,6794,6794,6794,6794,6794,6794,6794,6794,6794,6794,
6762,6762,6762,6762,6762,6762,6762,6762,6762,6762,6762,6762,6762,6762,6762,6762,
6778,6778,6778,6778,6778,6778,6778,6778,6778,6778,6778,6778,6778,6778,6778,6778,
6762,6763,6762,6763,6762,6763,6762,6763,6762,6763,6762,6763,6762,6763,6762,6763,
6778,6779,6778,6779,6778,6779,6778,6779,6778,6779,6778,6779,6778,6779,6778,6779
</chunk>
      <chunk x="160" y="272" width="16" height="16">
4364,4364,4364,4364,4364,4364,4364,4364,4364,4364,4364,4364,4364,4364,4364,4364,
4364,4364,4364,4364,4364,4364,4364,4364,4364,4364,4364,4364,4364,4364,4364,4364,
4364,4364,4364,4364,4364,4364,4364,4364,4364,4364,4364,4364,4364,4364,4364,4364,
4364,4364,4364,4364,4364,4364,4364,4364,4364,4364,4364,4364,4364,4364,4364,4364,
4364,4364,4364,4364,4364,4364,4364,4364,4364,4364,4364,4364,4364,4364,4364,4364,
4364,4364,4364,4364,4364,4364,4364,4364,4364,4364,4364,4364,4364,4364,4364,4364,
4364,4364,4364,4364,4364,4364,4364,4364,4364,4364,4364,4364,4364,4364,4364,4364,
4267,4267,4267,4267,4267,4267,4267,4267,4267,4267,4267,4267,4267,4267,4267,4267,
6762,6762,6762,6762,6762,6762,6762,6762,6762,6762,6762,6762,6762,6762,6762,6762,
6762,6762,6762,6762,6762,6762,6762,6762,6762,6762,6762,6762,6762,6762,6762,6762,
6778,6778,6778,6778,6778,6778,6778,6778,6778,6778,6778,6778,6778,6778,6778,6778,
6794,6794,6794,6794,6794,6794,6794,6794,6794,6794,6794,6794,6794,6794,6794,6794,
6762,6762,6762,6762,6762,6762,6762,6762,6762,6762,6762,6762,6762,6762,6762,6762,
6778,6778,6778,6778,6778,6778,6778,6778,6778,6778,6778,6778,6778,6778,6778,6778,
6762,6763,6762,6763,6762,6763,6762,6763,6762,6763,6762,6763,6762,6763,6762,6763,
6778,6779,6778,6779,6778,6779,6778,6779,6778,6779,6778,6779,6778,6779,6778,6779
</chunk>
      <chunk x="176" y="272" width="16" height="16">
4364,4364,4364,4364,4364,4364,4364,4364,4364,4364,4364,4364,4364,4171,6762,6779,
4364,4364,4364,4364,4364,4364,4364,4364,4364,4364,4364,4364,4364,4171,6778,6795,
4364,4364,4364,4364,4364,4364,4364,4364,4364,4364,4364,4364,4364,4171,6794,6763,
4364,4364,4364,4364,4364,4364,4364,4364,4364,4364,4364,4364,4364,4171,6762,6779,
4364,4364,4364,4364,4364,4364,4364,4364,4364,4364,4364,4364,4364,4171,6778,6795,
4364,4364,4364,4364,4364,4364,4364,4364,4364,4364,4364,4364,4364,4171,6794,6763,
4364,4364,4364,4364,4364,4364,4364,4364,4364,4364,4364,4364,4364,4171,6762,6779,
4267,4267,4267,4267,4267,4267,4267,4267,4267,4267,4267,4267,4267,4269,6778,6795,
6762,6762,6762,6762,6762,6762,6762,6762,6762,6762,6762,6762,6762,6762,6794,6763,
6762,6762,6762,6762,6762,6762,6762,6762,6762,6762,6762,6762,6762,6762,6762,6779,
6778,6778,6778,6778,6778,6778,6778,6778,6778,6778,6778,6778,6778,6778,6778,6795,
6794,6794,6794,6794,6794,6794,6794,6794,6794,6794,6794,6794,6794,6794,6794,6763,
6762,6762,6762,6762,6762,6762,6762,6762,6762,6762,6762,6762,6762,6762,6762,6779,
6778,6778,6778,6778,6778,6778,6778,6778,6778,6778,6778,6778,6778,6778,6778,6795,
6762,6763,6762,6763,6762,6763,6762,6763,6762,6763,6762,6763,6762,6763,6762,6763,
6778,6779,6778,6779,6778,6779,6778,6779,6778,6779,6778,6779,6778,6779,6778,6779
</chunk>
      <chunk x="192" y="272" width="16" height="16">
6778,6779,6778,6779,6778,6779,6778,6779,6778,6779,6778,6779,6778,6779,6778,6779,
6794,6795,6794,6795,6794,6795,6794,6795,6794,6795,6794,6795,6794,6795,6794,6795,
6762,6763,6762,6763,6762,6763,6762,6763,6762,6763,6762,6763,6762,6763,6762,6763,
6778,6779,6778,6779,6778,6779,6778,6779,6778,6779,6778,6779,6778,6779,6778,6779,
6794,6795,6794,6795,6794,6795,6794,6795,6794,6795,6794,6795,6794,6795,6794,6795,
6762,6763,6762,6763,6762,6763,6762,6763,6762,6763,6762,6763,6762,6763,6762,6763,
6778,6779,6778,6779,6778,6779,6778,6779,6778,6779,6778,6779,6778,6779,6778,6779,
6794,6795,6794,6795,6794,6795,6794,6795,6794,6795,6794,6795,6794,6795,6794,6795,
6762,6763,6762,6763,6762,6763,6762,6763,6762,6763,6762,6763,6762,6763,6762,6763,
6778,6779,6778,6779,6778,6779,6778,6779,6778,6779,6778,6779,6778,6779,6778,6779,
6794,6795,6794,6795,6794,6795,6794,6795,6794,6795,6794,6795,6794,6795,6794,6795,
6762,6763,6762,6763,6762,6763,6762,6763,6762,6763,6762,6763,6762,6763,6762,6763,
6778,6779,6778,6779,6778,6779,6778,6779,6778,6779,6778,6779,6778,6779,6778,6779,
6794,6795,6794,6795,6794,6795,6794,6795,6794,6795,6794,6795,6794,6795,6794,6795,
6762,6763,6762,6763,6762,6763,6762,6763,6762,6763,6762,6763,6762,6763,6762,6763,
6778,6779,6778,6779,6778,6779,6778,6779,6778,6779,6778,6779,6778,6779,6778,6779
</chunk>
      <chunk x="208" y="272" width="16" height="16">
6778,6779,0,0,0,0,0,0,0,0,0,0,0,0,0,0,
6794,6795,0,0,0,0,0,0,0,0,0,0,0,0,0,0,
6762,6763,0,0,0,0,0,0,0,0,0,0,0,0,0,0,
6778,6779,0,0,0,0,0,0,0,0,0,0,0,0,0,0,
6794,6795,0,0,0,0,0,0,0,0,0,0,0,0,0,0,
6762,6763,0,0,0,0,0,0,0,0,0,0,0,0,0,0,
6778,6779,0,0,0,0,0,0,0,0,0,0,0,0,0,0,
6794,6795,0,0,0,0,0,0,0,0,0,0,0,0,0,0,
6762,6763,0,0,0,0,0,0,0,0,0,0,0,0,0,0,
6778,6779,0,0,0,0,0,0,0,0,0,0,0,0,0,0,
6794,6795,0,0,0,0,0,0,0,0,0,0,0,0,0,0,
6762,6763,0,0,0,0,0,0,0,0,0,0,0,0,0,0,
6778,6779,0,0,0,0,0,0,0,0,0,0,0,0,0,0,
6794,6795,0,0,0,0,0,0,0,0,0,0,0,0,0,0,
6762,6763,0,0,0,0,0,0,0,0,0,0,0,0,0,0,
6778,6779,0,0,0,0,0,0,0,0,0,0,0,0,0,0
</chunk>
      <chunk x="96" y="288" width="16" height="16">
0,0,0,0,6794,6795,6794,6795,6794,6795,6794,6795,6794,6795,6794,6795,
0,0,0,0,6762,6763,6762,6763,6762,6763,6762,6763,6762,6763,6762,6763,
0,0,0,0,6778,6779,6778,6779,6778,6779,6778,6779,6778,6779,6778,6779,
0,0,0,0,6794,6795,6794,6795,6794,6795,6794,6795,6794,6795,6794,6795,
0,0,0,0,6762,6763,6762,6763,6762,6763,6762,6763,6762,6763,6762,6763,
0,0,0,0,6778,6779,6778,6779,6778,6779,6778,6779,6778,6779,6778,6779,
0,0,0,0,6794,6795,6794,6795,6794,6795,6794,6795,6794,6795,6794,6795,
0,0,0,0,6762,6763,6762,6763,6762,6763,6762,6763,6762,6763,6762,6763,
0,0,0,0,6778,6779,6778,6779,6778,6779,6778,6779,6778,6779,6778,6779,
0,0,0,0,6794,6795,6794,6795,6794,6795,6794,6795,6794,6795,6794,6795,
0,0,0,0,6762,6763,6762,6763,6762,6763,6762,6763,6762,6763,6762,6763,
0,0,0,0,6778,6779,6778,6779,6778,6779,6778,6779,6778,6779,6778,6779,
0,0,0,0,0,0,0,0,0,0,0,0,0,0,0,0,
0,0,0,0,0,0,0,0,0,0,0,0,0,0,0,0,
0,0,0,0,0,0,0,0,0,0,0,0,0,0,0,0,
0,0,0,0,0,0,0,0,0,0,0,0,0,0,0,0
</chunk>
      <chunk x="112" y="288" width="16" height="16">
6794,6795,6794,6795,6794,6795,6794,6795,6794,6795,6794,6795,6794,6795,6794,6795,
6762,6763,6762,6763,6762,6763,6762,6763,6762,6763,6762,6763,6762,6763,6762,6763,
6778,6779,6778,6779,6778,6779,6778,6779,6778,6779,6778,6779,6778,6779,6778,6779,
6794,6795,6794,6795,6794,6795,6794,6795,6794,6795,6794,6795,6794,6795,6794,6795,
6762,6763,6762,6763,6762,6763,6762,6763,6762,6763,6762,6763,6762,6763,6762,6763,
6778,6779,6778,6779,6778,6779,6778,6779,6778,6779,6778,6779,6778,6779,6778,6779,
6794,6795,6794,6795,6794,6795,6794,6795,6794,6795,6794,6795,6794,6795,6794,6795,
6762,6763,6762,6763,6762,6763,6762,6763,6762,6763,6762,6763,6762,6763,6762,6763,
6778,6779,6778,6779,6778,6779,6778,6779,6778,6779,6778,6779,6778,6779,6778,6779,
6794,6795,6794,6795,6794,6795,6794,6795,6794,6795,6794,6795,6794,6795,6794,6795,
6762,6763,6762,6763,6762,6763,6762,6763,6762,6763,6762,6763,6762,6763,6762,6763,
6778,6779,6778,6779,6778,6779,6778,6779,6778,6779,6778,6779,6778,6779,6778,6779,
0,0,0,0,0,0,0,0,0,0,0,0,0,0,0,0,
0,0,0,0,0,0,0,0,0,0,0,0,0,0,0,0,
0,0,0,0,0,0,0,0,0,0,0,0,0,0,0,0,
0,0,0,0,0,0,0,0,0,0,0,0,0,0,0,0
</chunk>
      <chunk x="128" y="288" width="16" height="16">
6794,6795,6794,6795,6794,6795,6794,6795,6794,6795,6794,6795,6794,6795,6794,6795,
6762,6763,6762,6763,6762,6763,6762,6763,6762,6763,6762,6763,6762,6763,6762,6763,
6778,6779,6778,6779,6778,6779,6778,6779,6778,6779,6778,6779,6778,6779,6778,6779,
6794,6795,6794,6795,6794,6795,6794,6795,6794,6795,6794,6795,6794,6795,6794,6795,
6762,6763,6762,6763,6762,6763,6762,6763,6762,6763,6762,6763,6762,6763,6762,6763,
6778,6779,6778,6779,6778,6779,6778,6779,6778,6779,6778,6779,6778,6779,6778,6779,
6794,6795,6794,6795,6794,6795,6794,6795,6794,6795,6794,6795,6794,6795,6794,6795,
6762,6763,6762,6763,6762,6763,6762,6763,6762,6763,6762,6763,6762,6763,6762,6763,
6778,6779,6778,6779,6778,6779,6778,6779,6778,6779,6778,6779,6778,6779,6778,6779,
6794,6795,6794,6795,6794,6795,6794,6795,6794,6795,6794,6795,6794,6795,6794,6795,
6762,6763,6762,6763,6762,6763,6762,6763,6762,6763,6762,6763,6762,6763,6762,6763,
6778,6779,6778,6779,6778,6779,6778,6779,6778,6779,6778,6779,6778,6779,6778,6779,
0,0,0,0,0,0,0,0,0,0,0,0,0,0,0,0,
0,0,0,0,0,0,0,0,0,0,0,0,0,0,0,0,
0,0,0,0,0,0,0,0,0,0,0,0,0,0,0,0,
0,0,0,0,0,0,0,0,0,0,0,0,0,0,0,0
</chunk>
      <chunk x="144" y="288" width="16" height="16">
6794,6795,6794,6795,6794,6795,6794,6795,6794,6795,6794,6795,6794,6795,6794,6795,
6762,6763,6762,6763,6762,6763,6762,6763,6762,6763,6762,6763,6762,6763,6762,6763,
6778,6779,6778,6779,6778,6779,6778,6779,6778,6779,6778,6779,6778,6779,6778,6779,
6794,6795,6794,6795,6794,6795,6794,6795,6794,6795,6794,6795,6794,6795,6794,6795,
6762,6763,6762,6763,6762,6763,6762,6763,6762,6763,6762,6763,6762,6763,6762,6763,
6778,6779,6778,6779,6778,6779,6778,6779,6778,6779,6778,6779,6778,6779,6778,6779,
6794,6795,6794,6795,6794,6795,6794,6795,6794,6795,6794,6795,6794,6795,6794,6795,
6762,6763,6762,6763,6762,6763,6762,6763,6762,6763,6762,6763,6762,6763,6762,6763,
6778,6779,6778,6779,6778,6779,6778,6779,6778,6779,6778,6779,6778,6779,6778,6779,
6794,6795,6794,6795,6794,6795,6794,6795,6794,6795,6794,6795,6794,6795,6794,6795,
6762,6763,6762,6763,6762,6763,6762,6763,6762,6763,6762,6763,6762,6763,6762,6763,
6778,6779,6778,6779,6778,6779,6778,6779,6778,6779,6778,6779,6778,6779,6778,6779,
0,0,0,0,0,0,0,0,0,0,0,0,0,0,0,0,
0,0,0,0,0,0,0,0,0,0,0,0,0,0,0,0,
0,0,0,0,0,0,0,0,0,0,0,0,0,0,0,0,
0,0,0,0,0,0,0,0,0,0,0,0,0,0,0,0
</chunk>
      <chunk x="160" y="288" width="16" height="16">
6794,6795,6794,6795,6794,6795,6794,6795,6794,6795,6794,6795,6794,6795,6794,6795,
6762,6763,6762,6763,6762,6763,6762,6763,6762,6763,6762,6763,6762,6763,6762,6763,
6778,6779,6778,6779,6778,6779,6778,6779,6778,6779,6778,6779,6778,6779,6778,6779,
6794,6795,6794,6795,6794,6795,6794,6795,6794,6795,6794,6795,6794,6795,6794,6795,
6762,6763,6762,6763,6762,6763,6762,6763,6762,6763,6762,6763,6762,6763,6762,6763,
6778,6779,6778,6779,6778,6779,6778,6779,6778,6779,6778,6779,6778,6779,6778,6779,
6794,6795,6794,6795,6794,6795,6794,6795,6794,6795,6794,6795,6794,6795,6794,6795,
6762,6763,6762,6763,6762,6763,6762,6763,6762,6763,6762,6763,6762,6763,6762,6763,
6778,6779,6778,6779,6778,6779,6778,6779,6778,6779,6778,6779,6778,6779,6778,6779,
6794,6795,6794,6795,6794,6795,6794,6795,6794,6795,6794,6795,6794,6795,6794,6795,
6762,6763,6762,6763,6762,6763,6762,6763,6762,6763,6762,6763,6762,6763,6762,6763,
6778,6779,6778,6779,6778,6779,6778,6779,6778,6779,6778,6779,6778,6779,6778,6779,
0,0,0,0,0,0,0,0,0,0,0,0,0,0,0,0,
0,0,0,0,0,0,0,0,0,0,0,0,0,0,0,0,
0,0,0,0,0,0,0,0,0,0,0,0,0,0,0,0,
0,0,0,0,0,0,0,0,0,0,0,0,0,0,0,0
</chunk>
      <chunk x="176" y="288" width="16" height="16">
6794,6795,6794,6795,6794,6795,6794,6795,6794,6795,6794,6795,6794,6795,6794,6795,
6762,6763,6762,6763,6762,6763,6762,6763,6762,6763,6762,6763,6762,6763,6762,6763,
6778,6779,6778,6779,6778,6779,6778,6779,6778,6779,6778,6779,6778,6779,6778,6779,
6794,6795,6794,6795,6794,6795,6794,6795,6794,6795,6794,6795,6794,6795,6794,6795,
6762,6763,6762,6763,6762,6763,6762,6763,6762,6763,6762,6763,6762,6763,6762,6763,
6778,6779,6778,6779,6778,6779,6778,6779,6778,6779,6778,6779,6778,6779,6778,6779,
6794,6795,6794,6795,6794,6795,6794,6795,6794,6795,6794,6795,6794,6795,6794,6795,
6762,6763,6762,6763,6762,6763,6762,6763,6762,6763,6762,6763,6762,6763,6762,6763,
6778,6779,6778,6779,6778,6779,6778,6779,6778,6779,6778,6779,6778,6779,6778,6779,
6794,6795,6794,6795,6794,6795,6794,6795,6794,6795,6794,6795,6794,6795,6794,6795,
6762,6763,6762,6763,6762,6763,6762,6763,6762,6763,6762,6763,6762,6763,6762,6763,
6778,6779,6778,6779,6778,6779,6778,6779,6778,6779,6778,6779,6778,6779,6778,6779,
0,0,0,0,0,0,0,0,0,0,0,0,0,0,0,0,
0,0,0,0,0,0,0,0,0,0,0,0,0,0,0,0,
0,0,0,0,0,0,0,0,0,0,0,0,0,0,0,0,
0,0,0,0,0,0,0,0,0,0,0,0,0,0,0,0
</chunk>
      <chunk x="192" y="288" width="16" height="16">
6794,6795,6794,6795,6794,6795,6794,6795,6794,6795,6794,6795,6794,6795,6794,6795,
6762,6763,6762,6763,6762,6763,6762,6763,6762,6763,6762,6763,6762,6763,6762,6763,
6778,6779,6778,6779,6778,6779,6778,6779,6778,6779,6778,6779,6778,6779,6778,6779,
6794,6795,6794,6795,6794,6795,6794,6795,6794,6795,6794,6795,6794,6795,6794,6795,
6762,6763,6762,6763,6762,6763,6762,6763,6762,6763,6762,6763,6762,6763,6762,6763,
6778,6779,6778,6779,6778,6779,6778,6779,6778,6779,6778,6779,6778,6779,6778,6779,
6794,6795,6794,6795,6794,6795,6794,6795,6794,6795,6794,6795,6794,6795,6794,6795,
6762,6763,6762,6763,6762,6763,6762,6763,6762,6763,6762,6763,6762,6763,6762,6763,
6778,6779,6778,6779,6778,6779,6778,6779,6778,6779,6778,6779,6778,6779,6778,6779,
6794,6795,6794,6795,6794,6795,6794,6795,6794,6795,6794,6795,6794,6795,6794,6795,
6762,6763,6762,6763,6762,6763,6762,6763,6762,6763,6762,6763,6762,6763,6762,6763,
6778,6779,6778,6779,6778,6779,6778,6779,6778,6779,6778,6779,6778,6779,6778,6779,
0,0,0,0,0,0,0,0,0,0,0,0,0,0,0,0,
0,0,0,0,0,0,0,0,0,0,0,0,0,0,0,0,
0,0,0,0,0,0,0,0,0,0,0,0,0,0,0,0,
0,0,0,0,0,0,0,0,0,0,0,0,0,0,0,0
</chunk>
      <chunk x="208" y="288" width="16" height="16">
6794,6795,0,0,0,0,0,0,0,0,0,0,0,0,0,0,
6762,6763,0,0,0,0,0,0,0,0,0,0,0,0,0,0,
6778,6779,0,0,0,0,0,0,0,0,0,0,0,0,0,0,
6794,6795,0,0,0,0,0,0,0,0,0,0,0,0,0,0,
6762,6763,0,0,0,0,0,0,0,0,0,0,0,0,0,0,
6778,6779,0,0,0,0,0,0,0,0,0,0,0,0,0,0,
6794,6795,0,0,0,0,0,0,0,0,0,0,0,0,0,0,
6762,6763,0,0,0,0,0,0,0,0,0,0,0,0,0,0,
6778,6779,0,0,0,0,0,0,0,0,0,0,0,0,0,0,
6794,6795,0,0,0,0,0,0,0,0,0,0,0,0,0,0,
6762,6763,0,0,0,0,0,0,0,0,0,0,0,0,0,0,
6778,6779,0,0,0,0,0,0,0,0,0,0,0,0,0,0,
0,0,0,0,0,0,0,0,0,0,0,0,0,0,0,0,
0,0,0,0,0,0,0,0,0,0,0,0,0,0,0,0,
0,0,0,0,0,0,0,0,0,0,0,0,0,0,0,0,
0,0,0,0,0,0,0,0,0,0,0,0,0,0,0,0
</chunk>
    </data>
  </layer>
  <layer id="8" name="Offset carpet" width="30" height="20" offsetx="-0.666667" offsety="-13">
    <data encoding="csv">
      <chunk x="128" y="-96" width="16" height="16">
0,0,0,0,0,0,0,0,0,0,0,0,0,0,0,0,
0,0,0,0,0,0,0,0,0,0,0,0,0,0,0,0,
0,0,0,0,0,0,0,0,0,0,0,0,0,0,0,0,
0,0,0,0,0,0,0,0,0,0,0,0,0,0,0,0,
0,0,0,0,0,0,0,0,0,0,0,0,0,0,0,0,
0,0,4364,4364,4364,4364,4364,4364,4364,4364,4364,4364,4364,4364,4364,4364,
0,0,4364,4364,4364,4364,4364,4364,4364,4364,4364,4364,4364,4364,4364,4364,
0,0,8804,8805,8805,8805,8805,8805,8805,8805,8805,8805,8805,8805,8805,8805,
0,0,8853,8869,8817,8817,8817,8817,8817,8817,8817,8817,8817,8817,8817,8817,
0,0,8902,8805,8805,8805,8805,8805,8805,8805,8805,8805,8805,8805,8805,8805,
0,0,4364,4364,4364,4364,4364,4364,4364,4364,4364,4364,4364,4364,4364,4364,
0,0,4364,4364,4364,4364,4364,4364,4364,4364,4364,4364,4364,4364,4364,4364,
0,0,8804,8805,8805,8805,8805,8805,8805,8805,8805,8805,8805,8805,8805,8805,
0,0,8853,8869,8817,8817,8817,8817,8817,8817,8817,8817,8817,8817,8817,8817,
0,0,8902,8805,8805,8805,8805,8805,8805,8805,8805,8805,8805,8805,8805,8805,
0,0,4364,4364,4364,4364,4364,4364,4364,4364,4364,4364,4364,4364,4364,4364
</chunk>
      <chunk x="144" y="-96" width="16" height="16">
0,0,0,0,0,0,0,0,0,0,0,0,0,0,0,0,
0,0,0,0,0,0,0,0,0,0,0,0,0,0,0,0,
0,0,0,0,0,0,0,0,0,0,0,0,0,0,0,0,
0,0,0,0,0,0,0,0,0,0,0,0,0,0,0,0,
0,0,0,0,0,0,0,0,0,0,0,0,0,0,0,0,
4364,4364,4364,4364,4364,4364,4364,0,0,0,0,0,0,0,0,0,
4364,4364,4364,4364,4364,4364,4364,0,0,0,0,0,0,0,0,0,
8805,8805,8805,8805,8805,8805,8806,0,0,0,0,0,0,0,0,8804,
8817,8817,8817,8817,8817,8820,8855,0,0,0,0,0,0,0,0,8853,
8805,8805,8805,8805,8805,8805,8904,0,0,0,0,0,0,0,0,8902,
4364,4364,4364,4364,4364,4364,4364,0,0,0,0,0,0,0,0,4364,
4364,4364,4364,4364,4364,4364,4364,0,0,0,0,0,0,0,0,4364,
8805,8805,8805,8805,8805,8805,8806,0,0,0,0,0,0,0,0,8804,
8817,8817,8817,8817,8817,8820,8855,0,0,0,0,0,0,0,0,8853,
8805,8805,8805,8805,8805,8805,8904,0,0,0,0,0,0,0,0,8902,
4364,4364,4364,4364,4364,4364,4364,0,0,0,0,0,0,0,0,4364
</chunk>
      <chunk x="160" y="-96" width="16" height="16">
0,0,0,0,0,0,0,0,0,0,0,0,0,0,0,0,
0,0,0,0,0,0,0,0,0,0,0,0,0,0,0,0,
0,0,0,0,0,0,0,0,0,0,0,0,0,0,0,0,
0,0,0,0,0,0,0,0,0,0,0,0,0,0,0,0,
0,0,0,0,0,0,0,0,0,0,0,0,0,0,0,0,
0,0,0,0,0,0,0,0,0,0,0,0,0,0,0,0,
0,0,0,0,0,0,0,0,0,0,0,0,0,0,0,0,
8805,8805,8805,8805,8805,8805,8805,8805,8805,8805,8805,8805,8805,8805,8805,8805,
8869,8817,8817,8817,8817,8817,8817,8817,8817,8817,8817,8817,8817,8817,8817,8817,
8805,8805,8805,8805,8805,8805,8805,8805,8805,8805,8805,8805,8805,8805,8805,8805,
4364,4364,4364,4364,4364,4364,4364,4364,4364,4364,4364,4364,4364,4364,4364,4364,
4364,4364,4364,4364,4364,4364,4364,4364,4364,4364,4364,4364,4364,4364,4364,4364,
8805,8805,8805,8805,8805,8805,8805,8805,8805,8805,8805,8805,8805,8805,8805,8805,
8869,8817,8817,8817,8817,8817,8817,8817,8817,8817,8817,8817,8817,8817,8817,8817,
8805,8805,8805,8805,8805,8805,8805,8805,8805,8805,8805,8805,8805,8805,8805,8805,
4364,4364,4364,4364,4364,4364,4364,4364,4364,4364,4364,4364,4364,4364,4364,4364
</chunk>
      <chunk x="176" y="-96" width="16" height="16">
0,0,0,0,0,0,0,0,0,0,0,0,0,0,0,0,
0,0,0,0,0,0,0,0,0,0,0,0,0,0,0,0,
0,0,0,0,0,0,0,0,0,0,0,0,0,0,0,0,
0,0,0,0,0,0,0,0,0,0,0,0,0,0,0,0,
0,0,0,0,0,0,0,0,0,0,0,0,0,0,0,0,
0,0,0,0,0,0,0,0,0,0,0,0,0,0,0,0,
0,0,0,0,0,0,0,0,0,0,0,0,0,0,0,0,
8805,8805,8805,8806,0,0,0,0,0,0,0,0,0,0,0,0,
8817,8817,8820,8855,0,0,0,0,0,0,0,0,0,0,0,0,
8805,8805,8805,8904,0,0,0,0,0,0,0,0,0,0,0,0,
4364,4364,4364,4364,0,0,0,0,0,0,0,0,0,0,0,0,
4364,4364,4364,4364,0,0,0,0,0,0,0,0,0,0,0,0,
8805,8805,8805,8806,0,0,0,0,0,0,0,0,0,0,0,0,
8817,8817,8820,8855,0,0,0,0,0,0,0,0,0,0,0,0,
8805,8805,8805,8904,0,0,0,0,0,0,0,0,0,0,0,0,
4364,4364,4364,4364,0,0,0,0,0,0,0,0,0,0,0,0
</chunk>
      <chunk x="128" y="-80" width="16" height="16">
0,0,4364,4364,4364,4364,4364,4364,4364,4364,4364,4364,4364,4364,4364,4364,
0,0,8804,8805,8805,8805,8805,8805,8805,8805,8805,8805,8805,8805,8805,8805,
0,0,8853,8869,8817,8817,8817,8817,8817,8817,8817,8817,8817,8817,8817,8817,
0,0,8902,8805,8805,8805,8805,8805,8805,8805,8805,8805,8805,8805,8805,8805,
0,0,4364,4364,4364,4364,4364,4364,4364,4364,4364,4364,4364,4364,4364,4364,
0,0,4364,4364,4364,4364,4364,4364,4364,4364,4364,4364,4364,4364,4364,4364,
0,0,8804,8805,8805,8805,8805,8805,8805,8805,8805,8805,8805,8805,8805,8805,
0,0,8853,8869,8817,8817,8817,8817,8817,8817,8817,8817,8817,8817,8817,8817,
0,0,8902,8805,8805,8805,8805,8805,8805,8805,8805,8805,8805,8805,8805,8805,
0,0,4364,4364,4364,4364,4364,4364,4364,4364,4364,4364,4364,4364,4364,4364,
0,0,4364,4364,4364,4364,4364,4364,4364,4364,4364,4364,4364,4364,4364,4364,
0,0,8804,8805,8805,8805,8805,8805,8805,8805,8805,8805,8805,8805,8805,8805,
0,0,8853,8869,8817,8817,8817,8817,8817,8817,8817,8817,8817,8817,8817,8817,
0,0,8902,8805,8805,8805,8805,8805,8805,8805,8805,8805,8805,8805,8805,8805,
0,0,0,0,0,0,0,0,0,0,0,0,0,0,0,0,
0,0,0,0,0,0,0,0,0,0,0,0,0,0,0,0
</chunk>
      <chunk x="144" y="-80" width="16" height="16">
4364,4364,4364,4364,4364,4364,4364,0,0,0,0,0,0,0,0,4364,
8805,8805,8805,8805,8805,8805,8806,0,0,0,0,0,0,0,0,8804,
8817,8817,8817,8817,8817,8820,8855,0,0,0,0,0,0,0,0,8853,
8805,8805,8805,8805,8805,8805,8904,0,0,0,0,0,0,0,0,8902,
4364,4364,4364,4364,4364,4364,4364,0,0,0,0,0,0,0,0,4364,
4364,4364,4364,4364,4364,4364,4364,0,0,0,0,0,0,0,0,4364,
8805,8805,8805,8805,8805,8805,8806,0,0,0,0,0,0,0,0,8804,
8817,8817,8817,8817,8817,8820,8855,0,0,0,0,0,0,0,0,8853,
8805,8805,8805,8805,8805,8805,8904,0,0,0,0,0,0,0,0,8902,
4364,4364,4364,4364,4364,4364,4364,0,0,0,0,0,0,0,0,4364,
4364,4364,4364,4364,4364,4364,4364,0,0,0,0,0,0,0,0,4364,
8805,8805,8805,8805,8805,8805,8806,0,0,0,0,0,0,0,0,8804,
8817,8817,8817,8817,8817,8820,8855,0,0,0,0,0,0,0,0,8853,
8805,8805,8805,8805,8805,8805,8904,0,0,0,0,0,0,0,0,8902,
0,0,0,0,0,0,0,0,0,0,0,0,0,0,0,4364,
0,0,0,0,0,0,0,0,0,0,0,0,0,0,0,4364
</chunk>
      <chunk x="160" y="-80" width="16" height="16">
4364,4364,4364,4364,4364,4364,4364,4364,4364,4364,4364,4364,4364,4364,4364,4364,
8805,8805,8805,8805,8805,8805,8805,8805,8805,8805,8805,8805,8805,8805,8805,8805,
8869,8817,8817,8817,8817,8817,8817,8817,8817,8817,8817,8817,8817,8817,8817,8817,
8805,8805,8805,8805,8805,8805,8805,8805,8805,8805,8805,8805,8805,8805,8805,8805,
4364,4364,4364,4364,4364,4364,4364,4364,4364,4364,4364,4364,4364,4364,4364,4364,
4364,4364,4364,4364,4364,4364,4364,4364,4364,4364,4364,4364,4364,4364,4364,4364,
8805,8805,8805,8805,8805,8805,8805,8805,8805,8805,8805,8805,8805,8805,8805,8805,
8869,8817,8817,8817,8817,8817,8817,8817,8817,8817,8817,8817,8817,8817,8817,8817,
8805,8805,8805,8805,8805,8805,8805,8805,8805,8805,8805,8805,8805,8805,8805,8805,
4364,4364,4364,4364,4364,4364,4364,4364,4364,4364,4364,4364,4364,4364,4364,4364,
4364,4364,4364,4364,4364,4364,4364,4364,4364,4364,4364,4364,4364,4364,4364,4364,
8805,8805,8805,8805,8805,8805,8805,8805,8805,8805,8805,8805,8805,8805,8805,8805,
8869,8817,8817,8817,8817,8817,8817,8817,8817,8817,8817,8817,8817,8817,8817,8817,
8805,8805,8805,8805,8805,8805,8805,8805,8805,8805,8805,8805,8805,8805,8805,8805,
4364,4364,4364,4364,4364,4364,4364,4364,4364,4364,4364,4364,4364,4364,4364,4364,
4364,4364,4364,4364,4364,4364,4364,4364,4364,4364,4364,4364,4364,4364,4364,4364
</chunk>
      <chunk x="176" y="-80" width="16" height="16">
4364,4364,4364,4364,0,0,0,0,0,0,0,0,0,0,0,0,
8805,8805,8805,8806,0,0,0,0,0,0,0,0,0,0,0,0,
8817,8817,8820,8855,0,0,0,0,0,0,0,0,0,0,0,0,
8805,8805,8805,8904,0,0,0,0,0,0,0,0,0,0,0,0,
4364,4364,4364,4364,0,0,0,0,0,0,0,0,0,0,0,0,
4364,4364,4364,4364,0,0,0,0,0,0,0,0,0,0,0,0,
8805,8805,8805,8806,0,0,0,0,0,0,0,0,0,0,0,0,
8817,8817,8820,8855,0,0,0,0,0,0,0,0,0,0,0,0,
8805,8805,8805,8904,0,0,0,0,0,0,0,0,0,0,0,0,
4364,4364,4364,4364,0,0,0,0,0,0,0,0,0,0,0,0,
4364,4364,4364,4364,0,0,0,0,0,0,0,0,0,0,0,0,
8805,8805,8805,8806,0,0,0,0,0,0,0,0,0,0,0,0,
8817,8817,8820,8855,0,0,0,0,0,0,0,0,0,0,0,0,
8805,8805,8805,8904,0,0,0,0,0,0,0,0,0,0,0,0,
4364,4364,4364,4364,0,0,0,0,0,0,0,0,0,0,0,0,
4364,4364,4364,4364,0,0,0,0,0,0,0,0,0,0,0,0
</chunk>
      <chunk x="128" y="-64" width="16" height="16">
0,0,8804,8805,8805,8805,8805,8805,8805,8805,8805,8805,8805,8805,8805,8805,
0,0,8853,8869,8817,8817,8817,8817,8817,8817,8817,8817,8817,8817,8817,8817,
0,0,8902,8805,8805,8805,8805,8805,8805,8805,8805,8805,8805,8805,8805,8805,
0,0,0,0,0,0,0,0,0,0,0,0,0,0,0,0,
0,0,0,0,0,0,0,0,0,0,0,0,0,0,0,0,
0,0,0,0,0,0,0,0,0,0,0,0,0,0,0,0,
0,0,0,0,0,0,0,0,0,0,0,0,0,0,0,0,
0,0,0,0,0,0,0,0,0,0,0,0,0,0,0,0,
0,0,0,0,0,0,0,0,0,0,0,0,0,0,0,0,
0,0,0,0,0,0,0,0,0,0,0,0,0,0,0,0,
0,0,0,0,0,0,0,0,0,0,0,0,0,0,0,0,
0,0,0,0,0,0,0,0,0,0,0,0,0,0,0,0,
0,0,0,0,0,0,0,0,0,0,0,0,0,0,0,0,
0,0,0,0,0,0,0,0,0,0,0,0,0,0,0,0,
0,0,0,0,0,0,0,0,0,0,0,0,0,0,0,0,
0,0,0,0,0,0,0,0,0,0,0,0,0,0,0,0
</chunk>
      <chunk x="144" y="-64" width="16" height="16">
8805,8805,8805,8805,8805,8805,8806,0,0,0,0,0,0,0,0,8804,
8817,8817,8817,8817,8817,8820,8855,0,0,0,0,0,0,0,0,8853,
8805,8805,8805,8805,8805,8805,8904,0,0,0,0,0,0,0,0,8902,
0,0,0,0,0,0,0,0,0,0,0,0,0,0,0,0,
0,0,0,0,0,0,0,0,0,0,0,0,0,0,0,0,
0,0,0,0,0,0,0,0,0,0,0,0,0,0,0,0,
0,0,0,0,0,0,0,0,0,0,0,0,0,0,0,0,
0,0,0,0,0,0,0,0,0,0,0,0,0,0,0,0,
0,0,0,0,0,0,0,0,0,0,0,0,0,0,0,0,
0,0,0,0,0,0,0,0,0,0,0,0,0,0,0,0,
0,0,0,0,0,0,0,0,0,0,0,0,0,0,0,0,
0,0,0,0,0,0,0,0,0,0,0,0,0,0,0,0,
0,0,0,0,0,0,0,0,0,0,0,0,0,0,0,0,
0,0,0,0,0,0,0,0,0,0,0,0,0,0,0,0,
0,0,0,0,0,0,0,0,0,0,0,0,0,0,0,0,
0,0,0,0,0,0,0,0,0,0,0,0,0,0,0,0
</chunk>
      <chunk x="160" y="-64" width="16" height="16">
8805,8805,8805,8805,8805,8805,8805,8805,8805,8805,8805,8805,8805,8805,8805,8805,
8869,8817,8817,8817,8817,8817,8817,8817,8817,8817,8817,8817,8817,8817,8817,8817,
8805,8805,8805,8805,8805,8805,8805,8805,8805,8805,8805,8805,8805,8805,8805,8805,
0,0,0,0,0,0,0,0,0,0,0,0,0,0,0,0,
0,0,0,0,0,0,0,0,0,0,0,0,0,0,0,0,
0,0,0,0,0,0,0,0,0,0,0,0,0,0,0,0,
0,0,0,0,0,0,0,0,0,0,0,0,0,0,0,0,
0,0,0,0,0,0,0,0,0,0,0,0,0,0,0,0,
0,0,0,0,0,0,0,0,0,0,0,0,0,0,0,0,
0,0,0,0,0,0,0,0,0,0,0,0,0,0,0,0,
0,0,0,0,0,0,0,0,0,0,0,0,0,0,0,0,
0,0,0,0,0,0,0,0,0,0,0,0,0,0,0,0,
0,0,0,0,0,0,0,0,0,0,0,0,0,0,0,0,
0,0,0,0,0,0,0,0,0,0,0,0,0,0,0,0,
0,0,0,0,0,0,0,0,0,0,0,0,0,0,0,0,
0,0,0,0,0,0,0,0,0,0,0,0,0,0,0,0
</chunk>
      <chunk x="176" y="-64" width="16" height="16">
8805,8805,8805,8806,0,0,0,0,0,0,0,0,0,0,0,0,
8817,8817,8820,8855,0,0,0,0,0,0,0,0,0,0,0,0,
8805,8805,8805,8904,0,0,0,0,0,0,0,0,0,0,0,0,
0,0,0,0,0,0,0,0,0,0,0,0,0,0,0,0,
0,0,0,0,0,0,0,0,0,0,0,0,0,0,0,0,
0,0,0,0,0,0,0,0,0,0,0,0,0,0,0,0,
0,0,0,0,0,0,0,0,0,0,0,0,0,0,0,0,
0,0,0,0,0,0,0,0,0,0,0,0,0,0,0,0,
0,0,0,0,0,0,0,0,0,0,0,0,0,0,0,0,
0,0,0,0,0,0,0,0,0,0,0,0,0,0,0,0,
0,0,0,0,0,0,0,0,0,0,0,0,0,0,0,0,
0,0,0,0,0,0,0,0,0,0,0,0,0,0,0,0,
0,0,0,0,0,0,0,0,0,0,0,0,0,0,0,0,
0,0,0,0,0,0,0,0,0,0,0,0,0,0,0,0,
0,0,0,0,0,0,0,0,0,0,0,0,0,0,0,0,
0,0,0,0,0,0,0,0,0,0,0,0,0,0,0,0
</chunk>
      <chunk x="80" y="16" width="16" height="16">
0,0,0,0,0,0,0,0,0,0,0,0,0,0,0,0,
0,0,0,0,0,0,0,0,0,0,0,0,0,0,0,0,
0,0,0,0,0,0,0,0,0,0,0,0,0,0,0,0,
0,0,0,0,0,0,0,0,0,0,0,0,0,0,0,0,
0,0,0,0,0,0,0,0,0,0,0,0,0,0,0,0,
0,0,0,0,0,0,0,0,0,0,0,0,0,0,0,0,
0,0,0,0,0,0,0,0,0,0,0,0,0,0,0,0,
0,0,0,0,0,0,0,0,0,0,0,0,0,0,0,0,
0,0,0,0,0,0,0,0,0,0,0,0,0,0,0,0,
0,0,0,0,0,0,0,0,0,0,0,0,0,0,0,0,
0,0,0,0,0,0,0,0,0,0,0,0,0,0,0,0,
0,0,0,0,0,0,0,0,0,0,0,0,0,0,0,0,
0,0,0,0,0,0,0,0,0,0,0,0,0,0,0,0,
0,0,0,0,0,0,0,0,0,0,0,0,0,0,0,0,
0,0,0,0,0,0,0,0,0,0,0,0,0,0,0,0,
0,0,5670,0,0,0,0,5670,0,0,0,0,0,0,0,0
</chunk>
      <chunk x="208" y="16" width="16" height="16">
0,0,0,0,0,0,0,0,0,0,0,0,0,0,0,0,
0,0,0,0,0,0,0,0,0,0,0,0,0,0,0,0,
0,0,0,0,0,0,0,0,0,0,0,0,0,0,0,0,
0,0,0,0,0,0,0,0,0,0,0,0,0,0,0,0,
0,0,0,0,0,0,0,0,0,0,0,0,0,0,0,0,
0,0,0,0,0,0,0,0,0,0,0,0,0,0,0,0,
0,0,0,0,0,0,0,0,0,0,0,0,0,0,0,0,
0,0,0,0,0,0,0,0,0,0,0,0,0,0,0,0,
0,0,0,0,0,0,0,0,0,0,0,0,0,0,0,0,
0,0,0,0,0,0,0,0,0,0,0,0,0,0,0,0,
0,0,0,0,0,0,0,0,0,0,0,0,0,0,0,0,
0,0,0,0,0,0,0,0,0,0,0,0,0,0,0,0,
0,0,0,0,0,0,0,0,0,0,0,0,0,0,0,0,
0,0,0,0,0,0,0,0,0,0,0,0,0,0,0,0,
0,0,0,0,0,0,0,0,0,0,0,0,0,0,0,0,
0,0,0,0,0,0,0,0,0,0,0,0,0,0,4967,0
</chunk>
      <chunk x="224" y="16" width="16" height="16">
0,0,0,0,0,0,0,0,0,0,0,0,0,0,0,0,
0,0,0,0,0,0,0,0,0,0,0,0,0,0,0,0,
0,0,0,0,0,0,0,0,0,0,0,0,0,0,0,0,
0,0,0,0,0,0,0,0,0,0,0,0,0,0,0,0,
0,0,0,0,0,0,0,0,0,0,0,0,0,0,0,0,
0,0,0,0,0,0,0,0,0,0,0,0,0,0,0,0,
0,0,0,0,0,0,0,0,0,0,0,0,0,0,0,0,
0,0,0,0,0,0,0,0,0,0,0,0,0,0,0,0,
0,0,0,0,0,0,0,0,0,0,0,0,0,0,0,0,
0,0,0,0,0,0,0,0,0,0,0,0,0,0,0,0,
0,0,0,0,0,0,0,0,0,0,0,0,0,0,0,0,
0,0,0,0,0,0,0,0,0,0,0,0,0,0,0,0,
0,0,0,0,0,0,0,0,0,0,0,0,0,0,0,0,
0,0,0,0,0,0,0,0,0,0,0,0,0,0,0,0,
0,0,0,0,0,0,0,0,0,0,0,0,0,0,0,0,
0,0,0,5311,0,0,0,0,0,0,0,0,0,0,0,0
</chunk>
      <chunk x="80" y="32" width="16" height="16">
0,5572,5523,0,0,0,0,0,5667,0,0,0,0,0,0,0,
0,0,0,0,0,0,0,0,5619,0,0,0,0,0,0,0,
0,0,0,0,0,0,0,0,0,0,0,0,0,0,0,0,
0,0,0,0,0,0,0,0,0,0,0,0,0,0,0,0,
0,0,0,0,0,0,0,0,0,0,0,0,0,0,0,0,
0,5670,0,0,0,0,0,0,5667,0,0,0,0,0,0,0,
5667,0,5670,0,0,0,0,5620,0,0,0,0,0,0,0,0,
0,0,0,0,0,0,0,5670,0,0,0,0,0,0,0,0,
0,0,0,0,0,0,0,0,0,0,0,0,0,0,0,0,
0,0,0,0,0,0,0,0,0,0,0,0,0,0,0,0,
0,0,0,0,0,0,0,0,0,0,0,0,0,0,0,0,
0,0,0,0,0,0,0,0,0,0,0,0,0,0,0,0,
0,0,0,0,0,0,0,0,0,0,0,0,0,0,0,0,
0,0,0,0,0,0,0,0,0,0,0,0,0,0,0,0,
0,0,0,0,0,0,0,0,0,0,0,0,0,0,0,0,
0,0,0,0,0,0,0,0,0,0,0,0,0,0,0,0
</chunk>
      <chunk x="208" y="32" width="16" height="16">
0,0,0,0,0,0,0,0,0,0,0,0,0,0,5017,0,
0,0,0,0,0,0,0,0,0,0,0,0,5311,0,0,0,
0,0,0,0,0,0,0,0,0,0,0,0,0,0,0,0,
0,0,0,0,0,0,0,0,0,0,0,0,0,0,0,0,
0,0,0,0,0,0,0,0,0,0,0,0,0,0,0,0,
0,0,0,0,0,0,0,0,0,0,0,0,5213,0,0,0,
0,0,0,0,0,0,0,0,0,0,0,0,5070,5164,5164,0,
0,0,0,0,0,0,0,0,0,0,0,5213,5212,0,0,0,
0,0,0,0,0,0,0,0,0,0,0,0,0,0,0,0,
0,0,0,0,0,0,0,0,0,0,0,0,0,0,0,0,
0,0,0,0,0,0,0,0,0,0,0,0,0,0,0,0,
0,0,0,0,0,0,0,0,0,0,0,0,0,0,0,0,
0,0,0,0,0,0,0,0,0,0,0,0,0,0,0,0,
0,0,0,0,0,0,0,0,0,0,0,0,0,0,0,0,
0,0,0,0,0,0,0,0,0,0,0,0,0,0,0,0,
0,0,0,0,0,0,0,0,0,0,0,0,0,0,0,0
</chunk>
      <chunk x="224" y="32" width="16" height="16">
0,0,5108,0,0,5214,0,0,0,0,0,0,0,0,0,0,
0,0,0,0,5017,0,0,0,0,0,0,0,0,0,0,0,
0,5108,0,0,0,0,0,0,0,0,0,0,0,0,0,0,
0,0,0,0,0,0,0,0,0,0,0,0,0,0,0,0,
0,0,0,0,0,0,0,0,0,0,0,0,0,0,0,0,
0,0,0,5164,0,0,0,0,0,0,0,0,0,0,0,0,
0,0,0,0,0,0,0,0,0,0,0,0,0,0,0,0,
0,0,0,5214,0,0,0,0,0,0,0,0,0,0,0,0,
0,0,0,0,0,0,0,0,0,0,0,0,0,0,0,0,
0,0,0,0,0,0,0,0,0,0,0,0,0,0,0,0,
0,0,0,0,0,0,0,0,0,0,0,0,0,0,0,0,
0,0,0,0,0,0,0,0,0,0,0,0,0,0,0,0,
0,0,0,0,0,0,0,0,0,0,0,0,0,0,0,0,
0,0,0,0,0,0,0,0,0,0,0,0,0,0,0,0,
0,0,0,0,0,0,0,0,0,0,0,0,0,0,0,0,
0,0,0,0,0,0,0,0,0,0,0,0,0,0,0,0
</chunk>
      <chunk x="48" y="48" width="16" height="16">
0,0,0,0,0,0,0,0,0,0,0,0,0,0,0,0,
5667,2147489123,2147489315,5622,0,0,0,0,0,0,0,0,0,0,0,0,
5517,5516,5615,5670,0,0,0,0,0,0,0,0,0,0,0,0,
0,0,0,0,0,0,0,0,0,0,0,0,0,0,0,0,
0,0,0,0,0,0,0,0,0,0,0,0,0,0,0,0,
0,0,0,0,0,0,0,0,0,0,0,0,0,0,0,0,
0,0,0,0,0,0,0,0,0,0,0,0,0,0,0,0,
0,0,0,0,0,0,0,0,0,0,0,0,0,0,0,0,
0,0,0,0,0,0,0,0,0,0,0,0,0,0,0,0,
0,0,0,0,0,0,0,0,0,0,0,0,0,0,0,0,
0,0,0,0,0,0,0,0,0,0,0,0,0,0,0,0,
0,0,0,0,0,0,0,0,0,0,0,0,0,0,0,0,
0,0,0,0,0,0,0,0,0,0,0,0,0,0,0,0,
0,0,0,0,0,0,0,0,0,0,0,0,0,0,0,0,
0,0,0,0,0,0,0,0,0,0,0,0,0,0,0,0,
0,0,0,0,0,0,0,0,0,0,0,0,0,0,0,0
</chunk>
      <chunk x="256" y="48" width="16" height="16">
0,0,0,0,0,0,0,0,0,0,0,0,0,0,0,0,
0,0,5214,5070,2147488718,5169,0,0,0,0,0,0,0,0,0,0,
0,0,5166,5311,5316,5070,0,0,0,0,0,0,0,0,0,0,
0,0,0,0,0,0,0,0,0,0,0,0,0,0,0,0,
0,0,0,0,0,0,0,0,0,0,0,0,0,0,0,0,
0,0,0,0,0,0,0,0,0,0,0,0,0,0,0,0,
0,0,0,0,0,0,0,0,0,0,0,0,0,0,0,0,
0,0,0,0,0,0,0,0,0,0,0,0,0,0,0,0,
0,0,0,0,0,0,0,0,0,0,0,0,0,0,0,0,
0,0,0,0,0,0,0,0,0,0,0,0,0,0,0,0,
0,0,0,0,0,0,0,0,0,0,0,0,0,0,0,0,
0,0,0,0,0,0,0,0,0,0,0,0,0,0,0,0,
0,0,0,0,0,0,0,0,0,0,0,0,0,0,0,0,
0,0,0,0,0,0,0,0,0,0,0,0,0,0,0,0,
0,0,0,0,0,0,0,0,0,0,0,0,0,0,0,0,
0,0,0,0,0,0,0,0,0,0,0,0,0,0,0,0
</chunk>
    </data>
  </layer>
  <layer id="6" name="Tile Layer 5" width="30" height="20">
    <data encoding="csv">
      <chunk x="144" y="-112" width="16" height="16">
0,0,0,0,0,0,0,0,0,0,0,0,0,0,0,0,
0,0,0,0,0,0,0,0,0,0,0,0,0,0,0,0,
0,0,0,0,0,0,0,0,0,0,0,0,0,0,0,0,
0,0,0,0,0,0,0,0,0,0,0,0,0,0,0,0,
0,0,0,0,0,0,0,0,0,0,0,0,0,0,0,0,
0,0,0,0,0,0,0,0,0,0,0,0,0,0,0,0,
0,0,0,0,0,0,0,0,0,0,0,0,0,0,0,0,
0,0,0,0,0,0,0,0,0,0,0,0,0,0,0,0,
0,0,0,0,0,0,0,0,0,0,0,0,0,0,0,0,
0,0,0,0,0,0,0,0,0,0,0,0,0,0,0,0,
0,0,0,0,0,0,0,0,0,0,0,0,0,0,0,0,
0,0,0,0,0,0,0,0,0,0,0,0,0,0,0,0,
0,0,0,0,0,0,0,0,11339,0,0,0,0,11339,0,0,
0,0,0,0,0,0,0,0,0,0,0,0,0,0,0,0,
0,0,0,0,0,0,0,0,0,0,0,0,0,0,0,0,
0,0,0,0,0,0,0,0,0,0,0,0,0,0,0,0
</chunk>
      <chunk x="128" y="-96" width="16" height="16">
0,0,0,0,0,0,0,0,0,0,0,0,0,0,0,0,
0,0,0,0,0,0,0,0,0,0,0,0,0,0,0,0,
0,0,0,0,0,0,0,0,0,0,0,0,0,0,0,0,
0,0,0,0,0,0,0,0,0,0,0,0,0,0,0,0,
0,0,0,0,0,0,0,0,0,0,0,0,0,0,0,0,
0,0,0,0,0,0,0,0,0,0,0,0,0,0,0,0,
0,0,0,0,0,11371,11371,11371,11371,11371,11371,11371,11371,11371,11371,11371,
0,0,4020,0,0,11371,11371,11371,11371,11371,11371,11371,11371,11371,11371,11371,
0,0,4020,0,0,11371,11371,11371,11371,11371,11371,11371,11371,11371,11371,11371,
0,0,4020,0,0,11371,11371,11371,11371,11371,11371,11371,11371,11371,11371,11371,
0,0,4020,0,0,11371,11371,11371,11371,11371,11371,11371,11371,11371,11371,11371,
0,0,4020,0,0,11371,11371,11371,11371,11371,11371,11371,11371,11371,11371,11371,
0,0,4020,0,0,11371,11371,11371,11371,11371,11371,11371,11371,11371,11371,11371,
0,0,4020,0,0,11371,11371,11371,11371,11371,11371,11371,11371,11371,11371,11371,
0,0,4020,0,0,11371,11371,11371,11371,11371,11371,11371,11371,11371,11371,11371,
0,0,4020,0,0,11371,11371,11371,11371,11371,11371,11371,11371,11371,11371,11371
</chunk>
      <chunk x="144" y="-96" width="16" height="16">
0,0,0,0,0,0,0,0,0,11262,11262,11262,11262,11262,0,0,
0,0,0,0,0,0,0,0,0,0,11262,11262,11262,11262,11262,0,
0,0,0,0,0,0,0,0,0,0,0,0,0,0,0,0,
0,0,0,0,0,0,0,0,0,0,0,0,0,0,0,0,
0,0,0,0,0,0,0,0,0,0,0,0,0,0,0,0,
0,0,0,0,0,0,0,0,0,0,0,0,0,0,0,0,
11371,11371,11371,0,0,0,0,11262,0,0,0,0,0,0,11262,11371,
11371,11371,11371,0,11371,11371,11371,11262,0,0,0,0,0,0,11262,11371,
11371,11371,11371,0,11371,11371,11371,11262,0,0,0,0,0,0,11262,11371,
11371,11371,11371,11371,11371,11371,11371,11371,0,0,0,0,0,0,11262,11371,
11371,11371,11371,11371,11371,11371,11371,11371,0,0,0,0,0,0,11262,11371,
11371,11371,11371,11371,11371,11371,11371,11371,0,0,0,0,0,0,11262,11371,
11371,11371,11371,11371,11371,11371,11371,11371,0,0,0,0,0,0,11262,11371,
11371,11371,11371,11371,11371,11371,11371,11371,0,0,0,0,0,0,11262,11371,
11371,11371,11371,11371,11371,11371,11371,11371,0,0,0,0,0,0,11262,11371,
11371,11371,11371,11371,11371,11371,11371,11371,0,0,0,0,0,0,11262,11371
</chunk>
      <chunk x="160" y="-96" width="16" height="16">
0,0,0,0,0,0,0,0,0,0,0,0,0,0,0,0,
0,0,0,0,0,0,0,0,0,0,0,0,0,0,0,0,
0,0,0,0,0,0,0,0,0,0,0,0,0,0,0,0,
0,0,0,0,0,0,0,0,0,0,0,0,0,0,0,0,
0,0,0,0,0,0,0,0,0,0,0,0,0,0,0,0,
0,0,0,0,0,0,0,0,0,0,0,0,0,0,0,0,
11371,11371,11371,11371,11371,11371,11371,11371,11371,11371,11371,11371,11371,11371,11371,11371,
11371,11371,11371,11371,11371,11371,11371,11371,11371,11371,11371,11371,11371,11371,11371,11371,
11371,11371,11371,11371,11371,11371,11371,11371,11371,11371,11371,11371,11371,11371,11371,11371,
11371,11371,11371,11371,11371,11371,11371,11371,11371,11371,11371,11371,11371,11371,11371,11371,
11371,11371,11371,11371,11371,11371,11371,11371,11371,11371,11371,11371,11371,11371,11371,11371,
11371,11371,11371,11371,11371,11371,11371,11371,11371,11371,11371,11371,11371,11371,11371,11371,
11371,11371,11371,11371,11371,11371,11371,11371,11371,11371,11371,11371,11371,11371,11371,11371,
11371,11371,11371,11371,11371,11371,11371,11371,11371,11371,11371,11371,11371,11371,11371,11371,
11371,11371,11371,11371,11371,11371,11371,11371,11371,11371,11371,11371,11371,11371,11371,11371,
11371,11371,11371,11371,11371,11371,11371,11371,11371,11371,11371,11371,11371,11371,11371,11371
</chunk>
      <chunk x="176" y="-96" width="16" height="16">
0,0,0,0,0,0,0,0,0,0,0,0,0,0,0,0,
0,0,0,0,0,0,0,0,0,0,0,0,0,0,0,0,
0,0,0,0,0,0,0,0,0,0,0,0,0,0,0,0,
0,0,0,0,0,0,0,0,0,0,0,0,0,0,0,0,
0,0,0,0,0,0,0,0,0,0,0,0,0,0,0,0,
0,0,0,0,0,0,0,0,0,0,0,0,0,0,0,0,
11371,11371,0,0,0,0,0,0,0,0,0,0,0,0,0,0,
11371,11371,0,4020,0,0,0,0,0,0,0,0,0,0,0,0,
11371,11371,0,4020,0,0,0,0,0,0,0,0,0,0,0,0,
11371,11371,0,4020,4020,0,0,0,0,0,0,0,0,0,0,0,
11371,11371,0,0,4020,0,0,0,0,0,0,0,0,0,0,0,
11371,11371,0,0,4020,0,0,0,0,0,0,0,0,0,0,0,
11371,11371,0,4020,4020,0,0,0,0,0,0,0,0,0,0,0,
11371,11371,0,4020,0,0,0,0,0,0,0,0,0,0,0,0,
11371,11371,0,4020,0,0,0,0,0,0,0,0,0,0,0,0,
11371,11371,0,0,0,0,0,0,0,0,0,0,0,0,0,0
</chunk>
      <chunk x="128" y="-80" width="16" height="16">
0,0,0,0,0,11371,11371,11371,11371,11371,11371,11371,11371,11371,11371,11371,
0,0,4020,11371,11371,11371,11371,11371,11371,11371,11371,11371,11371,11371,11371,11371,
0,4020,4020,11371,11371,11371,11371,11371,11371,11371,11371,11371,11371,11371,11371,11371,
0,4020,4020,11371,11371,11371,11371,11371,11371,11371,11371,11371,11371,11371,11371,11371,
0,4020,4020,11371,11371,11371,11371,11371,11371,11371,11371,11371,11371,11371,11371,11371,
0,0,4020,11371,11371,11371,11371,11371,11371,11371,11371,11371,11371,11371,11371,11371,
0,0,4020,11371,11371,11371,11371,11371,11371,11371,11371,11371,11371,11371,11371,11371,
0,0,4020,11371,11371,11371,11371,11371,11371,11371,11371,11371,11371,11371,11371,11371,
0,0,4020,11371,11371,11371,11371,11371,11371,11371,11371,11371,11371,11371,11371,11371,
0,0,4020,11371,11371,11371,11371,11371,11371,11371,11371,11371,11371,11371,11371,11371,
0,0,0,11371,11371,11371,11371,11371,11371,11371,11371,11371,11371,11371,11371,11371,
0,0,4020,11371,11371,11371,11371,11371,11371,11371,11371,11371,11371,11371,11371,11371,
0,0,4020,11371,11371,11371,11371,11371,11371,11371,11371,11371,11371,11371,11371,11371,
0,0,4020,11371,11371,11371,11371,11371,11371,11371,11371,11371,11371,11371,11371,11371,
0,0,4020,11371,11371,11371,11371,11371,11371,11371,11371,11371,11371,11371,11371,11371,
0,4020,0,11371,11371,11371,11371,11371,11371,11371,11371,11371,11371,11371,11371,11371
</chunk>
      <chunk x="144" y="-80" width="16" height="16">
11371,11371,11371,11371,11371,11371,11371,11371,0,0,0,0,0,0,11262,11371,
11371,11371,11371,11371,11371,11371,11371,11371,0,0,0,0,0,0,11262,11371,
11371,11371,11371,11371,11371,11371,11371,11371,0,0,0,0,0,0,11262,11371,
11371,11371,11371,11371,11371,11371,11371,11371,0,0,0,0,0,0,11262,11371,
11371,11371,11371,11371,11371,11371,11371,11371,0,0,0,0,0,0,11262,11371,
11371,11371,11371,11371,11371,11371,11371,11371,11371,0,0,0,0,0,11262,11371,
11371,11371,11371,11371,11371,11371,11371,11371,11371,0,0,0,0,0,11262,11371,
11371,11371,11371,11371,11371,11371,11371,11371,11371,0,0,0,0,0,11262,11371,
11371,11371,11371,11371,11371,11371,11371,11371,11371,0,0,0,0,0,11262,11371,
11371,11371,11371,11371,11371,11371,11371,11371,11371,0,0,0,0,0,11262,11371,
11371,11371,11371,11371,11371,11371,11371,11371,11371,0,0,0,0,0,11262,11371,
11371,11371,11371,11371,11371,11371,11371,11371,11371,0,0,0,0,0,11262,11371,
11371,11371,11371,11371,11371,11371,11371,11371,11371,0,0,0,0,0,11262,11371,
11371,11371,11371,11371,11371,11371,11371,11371,11371,0,0,0,0,0,11262,11371,
11371,11371,11371,11371,11371,11371,11371,11371,11371,0,0,0,0,0,11262,11371,
11371,11371,11371,11371,11371,11371,11371,11371,11371,0,0,0,0,0,11262,11371
</chunk>
      <chunk x="160" y="-80" width="16" height="16">
11371,11371,11371,11371,11371,11371,11371,11371,11371,11371,11371,11371,11371,11371,11371,11371,
11371,11371,11371,11371,11371,11371,11371,11371,11371,11371,11371,11371,11371,11371,11371,11371,
11371,11371,11371,11371,11371,11371,11371,11371,11371,11371,11371,11371,11371,11371,11371,11371,
11371,11371,11371,11371,11371,11371,11371,11371,11371,11371,11371,11371,11371,11371,11371,11371,
11371,11371,11371,11371,11371,11371,11371,11371,11371,11371,11371,11371,11371,11371,11371,11371,
11371,11371,11371,11371,11371,11371,11371,11371,11371,11371,11371,11371,11371,11371,11371,11371,
11371,11371,11371,11371,11371,11371,11371,11371,11371,11371,11371,11371,11371,11371,11371,11371,
11371,11371,11371,11371,11371,11371,11371,11371,11371,11371,11371,11371,11371,11371,11371,11371,
11371,11371,11371,11371,11371,11371,11371,11371,11371,11371,11371,11371,11371,11371,11371,11371,
11371,11371,11371,11371,11371,11371,11371,11371,11371,11371,11371,11371,11371,11371,11371,11371,
11371,11371,11371,11371,11371,11371,11371,11371,11371,11371,11371,11371,11371,11371,11371,11371,
11371,11371,11371,11371,11371,11371,11371,11371,11371,11371,11371,11371,11371,11371,11371,11371,
11371,11371,11371,11371,11371,11371,11371,11371,11371,11371,11371,11371,11371,11371,11371,11371,
11371,11371,11371,11371,11371,11371,11371,11371,11371,11371,11371,11371,11371,11371,11371,11371,
11371,11371,11371,11371,11371,11371,11371,11371,11371,11371,11371,11371,11371,11371,11371,11371,
11371,11371,11371,11371,11371,11371,11371,11371,11371,11371,11371,11371,11371,11371,11371,11371
</chunk>
      <chunk x="176" y="-80" width="16" height="16">
11371,11371,0,0,0,0,0,0,0,0,0,0,0,0,0,0,
11371,11371,0,4020,0,0,0,0,0,0,0,0,0,0,0,0,
11371,11371,0,4020,0,0,0,0,0,0,0,0,0,0,0,0,
11371,11371,0,4020,0,0,0,0,0,0,0,0,0,0,0,0,
11371,11371,0,4020,0,0,0,0,0,0,0,0,0,0,0,0,
11371,11371,0,4020,0,0,0,0,0,0,0,0,0,0,0,0,
11371,11371,0,4020,0,0,0,0,0,0,0,0,0,0,0,0,
11371,11371,0,4020,0,0,0,0,0,0,0,0,0,0,0,0,
11371,11371,0,4020,0,0,0,0,0,0,0,0,0,0,0,0,
11371,11371,0,4020,0,0,0,0,0,0,0,0,0,0,0,0,
11371,11371,0,0,0,0,0,0,0,0,0,0,0,0,0,0,
11371,11371,0,4020,0,0,0,0,0,0,0,0,0,0,0,0,
11371,11371,0,4020,0,0,0,0,0,0,0,0,0,0,0,0,
11371,11371,0,4020,0,0,0,0,0,0,0,0,0,0,0,0,
11371,11371,0,4020,0,0,0,0,0,0,0,0,0,0,0,0,
11371,11371,0,4020,0,0,0,0,0,0,0,0,0,0,0,0
</chunk>
      <chunk x="128" y="-64" width="16" height="16">
0,4020,4020,11371,11371,11371,11371,11371,11371,11371,11371,11371,11371,11371,11371,11371,
0,0,4020,11371,11371,11371,11371,11371,11371,11371,11371,11371,11371,11371,11371,11371,
0,0,4020,11371,11371,11371,11371,11371,11371,11371,11371,11371,11371,11371,11371,11371,
0,0,0,11371,11371,11371,11371,11371,11371,11371,11371,11371,11371,11371,11371,11371,
0,0,0,11371,11371,11371,11371,11371,11371,11371,11371,11371,11371,11371,11371,11371,
0,0,0,11371,11371,11371,11371,11371,11371,11371,11371,11371,0,0,0,0,
0,0,0,0,0,0,0,0,0,0,0,0,0,0,0,0,
0,0,0,0,0,0,0,0,0,0,0,0,0,0,0,0,
0,0,0,0,0,0,0,0,0,0,0,0,0,0,0,0,
0,0,0,0,0,0,0,0,0,0,0,0,0,0,0,0,
0,0,0,0,0,0,0,0,0,0,0,0,0,0,0,0,
0,0,0,0,0,0,0,0,0,0,0,0,0,0,0,0,
0,0,0,0,0,0,0,0,0,0,0,0,0,0,0,0,
0,0,0,0,0,0,0,0,0,0,0,0,0,0,0,0,
0,0,0,0,0,0,0,0,0,0,0,0,0,0,0,0,
0,0,0,0,0,0,0,0,0,0,0,0,0,0,0,0
</chunk>
      <chunk x="144" y="-64" width="16" height="16">
11371,11371,11371,11371,11371,11371,11371,11371,11371,0,0,0,0,0,11262,11371,
11371,11371,11371,11371,11371,11371,11371,11371,11371,0,0,0,0,0,11262,11371,
11371,11371,11371,11371,11371,11371,11371,11371,11371,0,0,0,0,0,11262,11371,
11371,11371,11371,11371,11371,11371,11371,11371,11371,0,0,0,0,0,11262,11371,
11371,11371,11371,11371,11371,11371,11371,11371,11371,0,0,0,0,0,0,11371,
0,0,0,0,0,0,0,0,0,0,0,0,0,0,0,0,
0,0,0,0,0,0,0,0,0,0,0,0,0,0,0,0,
0,0,0,0,0,0,0,0,0,0,0,0,0,0,0,0,
0,0,0,0,0,0,0,0,0,0,0,0,0,0,0,0,
0,0,0,0,0,0,0,0,0,0,0,0,0,0,0,0,
0,0,0,0,0,0,0,0,0,0,0,0,0,0,0,0,
0,0,0,0,0,0,0,0,0,0,0,0,0,0,0,0,
0,0,0,0,0,0,0,0,0,0,0,0,0,0,0,0,
0,0,0,0,0,0,0,0,0,0,0,0,0,0,0,0,
0,0,0,0,0,0,0,0,0,0,0,0,0,0,0,0,
0,0,0,0,0,0,0,0,0,0,0,0,0,0,0,0
</chunk>
      <chunk x="160" y="-64" width="16" height="16">
11371,11371,11371,11371,11371,11371,11371,11371,11371,11371,11371,11371,11371,11371,11371,11371,
11371,11371,11371,11371,11371,11371,11371,11371,11371,11371,11371,11371,11371,11371,11371,11371,
11371,11371,11371,11371,11371,11371,11371,11371,11371,11371,11371,11371,11371,11371,11371,11371,
11371,11371,11371,11371,11371,11371,11371,11371,11371,11371,11371,11371,11371,11371,11371,11371,
11371,11371,11371,11371,11371,11371,11371,11371,11371,11371,11371,11371,11371,11371,11371,11371,
0,0,0,0,0,0,0,0,0,0,0,0,0,0,0,0,
0,0,0,0,0,0,0,0,0,0,0,0,0,0,0,0,
0,0,0,0,0,0,0,0,0,0,0,0,0,0,0,0,
0,0,0,0,0,0,0,0,0,0,0,0,0,0,0,0,
0,0,0,0,0,0,0,0,0,0,0,0,0,0,0,0,
0,0,0,0,0,0,0,0,0,0,0,0,0,0,0,0,
0,0,0,0,0,0,0,0,0,0,0,0,0,0,0,0,
0,0,0,0,0,0,0,0,0,0,0,0,0,0,0,0,
0,0,0,0,0,0,0,0,0,0,0,0,0,0,0,0,
0,0,0,0,0,0,0,0,0,0,0,0,0,0,0,0,
0,0,0,0,0,0,0,0,0,0,0,0,0,0,0,0
</chunk>
      <chunk x="176" y="-64" width="16" height="16">
11371,11371,0,4020,0,0,0,0,0,0,0,0,0,0,0,0,
11371,11371,0,4020,0,0,0,0,0,0,0,0,0,0,0,0,
11371,11371,0,4020,4020,0,0,0,0,0,0,0,0,0,0,0,
11371,11371,0,4020,0,0,0,0,0,0,0,0,0,0,0,0,
11371,11371,0,0,0,0,0,0,0,0,0,0,0,0,0,0,
0,0,0,0,0,0,0,0,0,0,0,0,0,0,0,0,
0,0,0,0,0,0,0,0,0,0,0,0,0,0,0,0,
0,0,0,0,0,0,0,0,0,0,0,0,0,0,0,0,
0,0,0,0,0,0,0,0,0,0,0,0,0,0,0,0,
0,0,0,0,0,0,0,0,0,0,0,0,0,0,0,0,
0,0,0,0,0,0,0,0,0,0,0,0,0,0,0,0,
0,0,0,0,0,0,0,0,0,0,0,0,0,0,0,0,
0,0,0,0,0,0,0,0,0,0,0,0,0,0,0,0,
0,0,0,0,0,0,0,0,0,0,0,0,0,0,0,0,
0,0,0,0,0,0,0,0,0,0,0,0,0,0,0,0,
0,0,0,0,0,0,0,0,0,0,0,0,0,0,0,0
</chunk>
      <chunk x="64" y="16" width="16" height="16">
0,0,0,0,0,0,0,0,0,0,0,0,0,0,0,0,
0,0,0,0,0,0,0,0,0,0,0,0,0,0,0,0,
0,0,0,0,0,0,0,0,0,0,0,0,0,0,0,0,
0,0,0,0,0,0,0,0,0,0,0,0,0,0,0,0,
0,0,0,0,0,0,0,0,0,0,0,0,0,0,0,0,
0,0,0,0,0,0,0,0,0,0,0,0,0,0,0,0,
0,0,0,0,0,0,0,0,0,0,0,0,0,0,0,0,
0,0,0,0,0,0,0,0,0,0,0,0,0,0,0,0,
0,0,0,0,0,0,0,0,0,0,0,0,0,0,0,0,
0,0,0,0,0,0,0,0,0,0,0,0,0,0,0,0,
0,0,0,0,0,0,0,0,0,0,0,0,0,0,0,0,
0,0,0,0,0,0,0,0,0,0,0,0,0,11648,11648,11648,
0,0,0,0,0,0,0,0,0,0,0,0,0,11648,11648,11648,
0,0,0,0,0,0,0,0,0,0,0,0,0,11648,11648,11648,
0,0,0,0,0,0,0,0,0,0,0,0,0,11648,11648,11648,
0,0,0,0,0,0,0,0,0,0,0,0,0,11648,11648,11648
</chunk>
      <chunk x="80" y="16" width="16" height="16">
0,0,0,0,0,0,0,0,0,0,0,0,0,0,0,0,
0,0,0,0,0,0,0,0,0,0,0,0,0,0,0,0,
0,0,0,0,0,0,0,0,0,0,0,0,0,0,0,0,
0,0,0,0,0,0,0,0,0,0,0,0,0,0,0,0,
0,0,0,0,0,0,0,0,0,0,0,0,0,0,0,0,
0,0,0,0,0,0,0,0,0,0,0,0,0,0,0,0,
0,0,0,0,0,0,0,0,0,0,0,0,0,0,0,0,
0,0,0,0,0,0,0,0,0,0,0,0,0,0,0,0,
0,0,0,0,0,0,0,0,0,0,0,0,0,0,0,0,
0,0,0,0,0,0,0,0,0,0,0,0,0,0,0,0,
0,0,0,0,0,0,0,0,0,0,0,0,0,0,0,0,
11648,11648,11648,11648,11648,11648,11648,11648,11648,11648,0,0,0,0,0,0,
11648,11648,11648,11648,11648,11648,11648,11648,11648,11648,0,0,0,0,0,0,
11648,11648,11648,11648,11648,11648,11648,11648,11648,11648,0,0,0,0,0,0,
11648,11648,11648,11648,11648,11648,11648,11648,11648,11648,0,0,0,0,0,0,
11648,11648,11648,11648,11648,11648,11648,11648,11648,11648,0,0,0,0,0,0
</chunk>
      <chunk x="144" y="16" width="16" height="16">
0,0,0,0,0,0,0,0,0,0,0,0,0,0,0,0,
0,0,0,0,0,0,0,0,0,0,0,0,0,0,0,0,
0,0,0,0,0,0,0,0,0,0,0,0,0,0,0,0,
0,0,0,0,0,0,0,0,0,0,0,0,0,0,0,0,
0,0,0,0,0,0,0,0,0,0,0,0,0,0,0,0,
0,0,0,0,0,0,0,0,0,0,0,0,0,0,0,0,
0,0,0,0,0,0,0,0,0,0,0,0,0,0,0,0,
0,0,0,0,0,0,0,0,0,0,0,0,0,0,0,0,
0,0,0,0,0,0,0,0,0,0,0,0,0,0,0,0,
0,0,0,0,0,0,0,0,0,0,0,0,0,0,0,0,
0,0,0,0,0,0,0,0,0,0,0,0,0,0,0,0,
0,0,0,0,0,0,0,0,0,0,0,0,0,0,0,0,
0,0,0,0,0,0,0,0,0,0,0,0,0,0,0,0,
0,0,0,0,0,0,0,0,0,0,0,0,0,0,0,0,
0,0,0,0,11648,11648,0,0,0,0,0,0,0,0,0,0,
0,0,0,0,11648,11648,0,0,0,0,0,0,0,0,0,0
</chunk>
      <chunk x="160" y="16" width="16" height="16">
0,0,0,0,0,0,0,0,0,0,0,0,0,0,0,0,
0,0,0,0,0,0,0,0,0,0,0,0,0,0,0,0,
0,0,0,0,0,0,0,0,0,0,0,0,0,0,0,0,
0,0,0,0,0,0,0,0,0,0,0,0,0,0,0,0,
0,0,0,0,0,0,0,0,0,0,0,0,0,0,0,0,
0,0,0,0,0,0,0,0,0,0,0,0,0,0,0,0,
0,0,0,0,0,0,0,0,0,0,0,0,0,0,0,0,
0,0,0,0,0,0,0,0,0,0,0,0,0,0,0,0,
0,0,0,0,0,0,0,0,0,0,0,0,0,0,0,0,
0,0,0,0,0,0,0,0,0,0,0,0,0,0,0,0,
0,0,0,0,0,0,0,0,0,0,0,0,0,0,0,0,
0,0,0,0,0,0,0,0,0,0,0,0,0,0,0,0,
0,0,0,0,0,0,0,0,0,0,0,0,0,0,0,0,
0,11648,11648,0,0,0,0,0,0,0,0,0,0,0,0,0,
0,11648,11648,0,0,0,0,0,0,0,0,0,0,0,0,0,
0,11648,11648,0,0,0,0,0,0,0,0,0,0,0,0,0
</chunk>
      <chunk x="208" y="16" width="16" height="16">
0,0,0,0,0,0,0,0,0,0,0,0,0,0,0,0,
0,0,0,0,0,0,0,0,0,0,0,0,0,0,0,0,
0,0,0,0,0,0,0,0,0,0,0,0,0,0,0,0,
0,0,0,0,0,0,0,0,0,0,0,0,0,0,0,0,
0,0,0,0,0,0,0,0,0,0,0,0,0,0,0,0,
0,0,0,0,0,0,0,0,0,0,0,0,0,0,0,0,
0,0,0,0,0,0,0,0,0,0,0,0,0,0,0,0,
0,0,0,0,0,0,0,0,0,0,0,0,0,0,0,0,
0,0,0,0,0,0,0,0,0,0,0,0,0,0,0,0,
0,0,0,0,0,0,0,0,0,0,0,0,0,0,0,0,
0,0,0,0,0,0,0,0,0,0,0,0,0,0,0,0,
0,0,0,0,0,0,0,0,0,0,0,11648,11648,11648,11648,11648,
0,0,0,0,0,0,0,0,0,0,0,11648,11648,11648,11648,11648,
0,0,0,0,0,0,0,0,0,0,0,11648,11648,11648,11648,11648,
0,0,0,0,0,0,0,0,0,0,0,11648,11648,11648,11648,11648,
0,0,0,0,0,0,0,0,0,0,0,11648,11648,11648,11648,11648
</chunk>
      <chunk x="224" y="16" width="16" height="16">
0,0,0,0,0,0,0,0,0,0,0,0,0,0,0,0,
0,0,0,0,0,0,0,0,0,0,0,0,0,0,0,0,
0,0,0,0,0,0,0,0,0,0,0,0,0,0,0,0,
0,0,0,0,0,0,0,0,0,0,0,0,0,0,0,0,
0,0,0,0,0,0,0,0,0,0,0,0,0,0,0,0,
0,0,0,0,0,0,0,0,0,0,0,0,0,0,0,0,
0,0,0,0,0,0,0,0,0,0,0,0,0,0,0,0,
0,0,0,0,0,0,0,0,0,0,0,0,0,0,0,0,
0,0,0,0,0,0,0,0,0,0,0,0,0,0,0,0,
0,0,0,0,0,0,0,0,0,0,0,0,0,0,0,0,
0,0,0,0,0,0,0,0,0,0,0,0,0,0,0,0,
11648,11648,11648,11648,11648,11648,11648,11648,11648,0,0,0,0,0,0,0,
11648,11648,11648,11648,11648,11648,11648,11648,11648,0,0,0,0,0,0,0,
11648,11648,11648,11648,11648,11648,11648,11648,11648,0,0,0,0,0,0,0,
11648,11648,11648,11648,11648,11648,11648,11648,11648,0,0,0,0,0,0,0,
11648,11648,11648,11648,11648,11648,11648,11648,11648,0,0,0,0,0,0,0
</chunk>
      <chunk x="32" y="32" width="16" height="16">
0,0,0,0,0,0,0,0,0,0,0,0,0,0,0,0,
0,0,0,0,0,0,0,0,0,0,0,0,0,0,0,0,
0,0,0,0,0,0,0,0,0,0,0,0,0,0,0,0,
0,0,0,0,0,0,0,0,0,0,0,0,0,0,0,0,
0,0,0,0,0,0,0,0,0,0,0,0,0,0,0,0,
0,0,0,0,0,0,0,0,0,0,0,0,0,0,0,0,
0,0,0,0,0,0,0,0,0,0,0,0,0,0,0,0,
0,0,0,0,0,0,0,0,0,0,0,0,0,0,0,0,
0,0,0,0,0,0,0,0,0,0,0,0,0,0,0,0,
0,0,0,0,0,0,0,0,0,0,0,0,0,0,0,0,
0,0,0,0,0,0,0,0,0,0,0,0,0,0,0,0,
0,0,0,0,0,0,0,0,0,0,14064,14066,14066,14066,14066,14066,
0,0,0,0,0,0,0,0,0,0,14192,14449,14449,14449,14449,14449,
0,0,0,0,0,0,0,0,0,0,14192,14449,14449,14449,14449,14449,
0,0,0,0,0,0,0,0,0,0,14192,14449,14449,14449,14449,14449,
0,0,0,0,0,0,0,0,0,0,14192,14449,14449,14449,14129,14130
</chunk>
      <chunk x="48" y="32" width="16" height="16">
0,0,0,0,0,0,0,0,0,0,0,0,0,0,0,0,
0,0,0,0,0,0,0,0,0,0,0,0,0,0,0,0,
0,0,0,0,0,0,0,0,0,0,0,0,0,0,0,0,
0,0,0,0,0,0,0,0,0,0,0,0,0,0,0,0,
0,0,0,0,0,0,0,0,0,0,0,0,0,0,0,0,
0,0,0,0,0,0,0,0,0,0,0,0,0,0,0,0,
0,0,0,0,0,0,0,0,0,0,0,0,0,0,0,0,
0,0,0,0,0,0,0,0,0,0,0,0,0,0,0,0,
0,0,0,0,0,0,0,0,0,0,0,0,0,0,0,0,
0,0,0,0,0,0,0,0,0,0,0,0,0,0,0,0,
0,0,0,0,0,0,0,0,0,0,0,0,0,0,0,0,
14066,14066,14066,14066,14066,14066,14066,14066,14066,14068,0,0,0,0,0,0,
14449,14449,14449,14449,14449,14449,14449,14449,14449,14132,0,0,0,0,0,0,
14449,14449,14449,14449,14449,14449,14449,14449,14449,14132,0,0,0,0,0,0,
14449,14449,14449,14449,14449,14449,14449,14449,14449,14132,0,0,0,0,0,0,
14130,14130,14130,14130,14130,14131,14449,14449,14449,14132,0,0,0,0,0,0
</chunk>
      <chunk x="64" y="32" width="16" height="16">
0,0,0,0,0,0,0,0,0,0,0,0,0,11648,11648,11648,
0,0,0,0,0,0,0,0,0,0,0,0,0,11648,11648,11648,
0,0,0,0,0,0,0,0,0,0,0,0,0,11648,11648,11648,
0,0,0,0,0,0,0,0,0,0,0,0,0,11648,11648,11648,
0,0,0,0,0,0,0,0,0,0,0,0,0,11648,11648,11648,
0,0,0,0,0,0,0,0,0,0,0,0,0,11648,11648,11648,
0,0,0,0,0,0,0,0,0,0,0,0,0,11648,11648,11648,
0,0,0,0,0,0,0,0,0,0,0,0,0,11648,11648,11648,
0,0,0,0,0,0,0,0,0,0,0,0,0,0,0,0,
0,0,0,0,0,0,0,0,0,0,0,0,0,0,0,0,
0,0,0,0,0,0,0,0,0,0,0,0,0,0,0,0,
0,0,0,0,0,0,0,0,0,0,0,0,0,0,0,0,
0,0,0,0,0,0,0,0,0,0,0,0,0,0,0,0,
0,0,0,0,0,0,0,0,0,0,0,0,0,0,0,0,
0,0,0,0,0,0,0,0,0,0,0,0,0,0,0,0,
0,0,0,0,0,0,0,0,0,0,0,0,0,0,0,0
</chunk>
      <chunk x="80" y="32" width="16" height="16">
11648,11648,11648,11648,11648,11648,11648,11648,11648,11648,0,0,0,0,0,0,
11648,11648,11648,11648,11648,11648,11648,11648,11648,11648,0,0,0,0,0,0,
11648,11648,11648,11648,11648,11648,11648,11648,11648,11648,0,0,0,0,0,0,
11648,11648,11648,11648,11648,11648,11648,11648,11648,11648,0,0,0,0,0,0,
11648,11648,11648,11648,11648,11648,11648,11648,11648,11648,0,0,0,0,0,0,
11648,11648,11648,11648,11648,11648,11648,11648,11648,11648,0,0,0,0,0,0,
11648,11648,11648,11648,11648,11648,11648,11648,11648,11648,0,0,0,0,0,0,
11648,11648,11648,11648,11648,11648,11648,11648,11648,11648,0,0,0,0,0,0,
0,0,0,0,0,0,0,0,0,0,0,0,0,0,0,0,
0,0,0,0,0,0,0,0,0,0,0,0,0,0,0,0,
0,0,0,0,0,0,0,0,0,0,0,0,0,0,0,0,
0,0,0,0,0,0,0,0,0,0,0,0,0,0,0,0,
0,0,0,0,0,0,0,0,0,0,0,0,0,0,0,0,
0,0,0,0,0,0,0,0,0,0,0,0,0,0,0,0,
0,0,0,0,0,0,0,0,0,0,0,0,0,0,0,0,
0,0,0,0,0,0,0,0,0,0,0,0,0,0,0,0
</chunk>
      <chunk x="144" y="32" width="16" height="16">
0,0,0,0,0,0,0,0,0,0,0,0,0,0,0,0,
0,0,0,0,0,0,0,0,0,0,0,0,0,0,0,0,
0,0,0,0,0,0,0,0,0,0,0,0,0,0,0,0,
0,0,0,0,0,0,0,0,0,0,0,0,0,0,0,0,
0,0,0,0,0,0,0,0,0,0,0,0,0,0,0,0,
0,0,0,0,11648,11648,0,0,0,0,0,0,0,0,0,0,
0,0,0,0,11648,11648,0,0,0,0,0,0,0,0,0,0,
0,0,0,0,11648,11648,0,0,0,0,0,0,0,0,0,0,
0,0,0,0,0,0,0,0,0,0,0,0,0,0,0,0,
0,0,0,0,0,0,0,0,0,0,0,0,0,0,0,0,
0,0,0,0,0,0,0,0,0,0,0,0,0,0,0,0,
0,0,0,0,0,0,0,0,0,0,0,0,0,0,0,0,
0,0,0,0,0,0,0,0,0,0,0,0,0,0,0,0,
0,0,0,0,0,0,0,0,0,0,0,0,0,0,0,0,
0,0,0,0,0,0,0,0,0,0,0,0,0,0,0,0,
0,0,0,0,0,0,0,0,0,0,0,0,0,0,0,0
</chunk>
      <chunk x="160" y="32" width="16" height="16">
0,0,0,0,0,0,0,0,0,0,0,0,0,0,0,0,
0,0,0,0,0,0,0,0,0,0,0,0,0,0,0,0,
0,0,0,0,0,0,0,0,0,0,0,0,0,0,0,0,
0,0,0,0,0,0,0,0,0,0,0,0,0,0,0,0,
0,0,0,0,0,0,0,0,0,0,0,0,0,0,0,0,
11648,11648,11648,0,0,0,0,0,0,0,0,0,0,0,0,0,
11648,11648,11648,0,0,0,0,0,0,0,0,0,0,0,0,0,
11648,11648,11648,0,0,0,0,0,0,0,0,0,0,0,0,0,
0,0,0,0,0,0,0,0,0,0,0,0,0,0,0,0,
0,0,0,0,0,0,0,0,0,0,0,0,0,0,0,0,
0,0,0,0,0,0,0,0,0,0,0,0,0,0,0,0,
0,0,0,0,0,0,0,0,0,0,0,0,0,0,0,0,
0,0,0,0,0,0,0,0,0,0,0,0,0,0,0,0,
0,0,0,0,0,0,0,0,0,0,0,0,0,0,0,0,
0,0,0,0,0,0,0,0,0,0,0,0,0,0,0,0,
0,0,0,0,0,0,0,0,0,0,0,0,0,0,0,0
</chunk>
      <chunk x="208" y="32" width="16" height="16">
0,0,0,0,0,0,0,0,0,0,0,11648,11648,11648,11648,11648,
0,0,0,0,0,0,0,0,0,0,0,11648,11648,11648,11648,11648,
0,0,0,0,0,0,0,0,0,0,0,11648,11648,11648,11648,11648,
0,0,0,0,0,0,0,0,0,0,0,11648,11648,11648,11648,11648,
0,0,0,0,0,0,0,0,0,0,0,11648,11648,11648,11648,11648,
0,0,0,0,0,0,0,0,0,0,0,11648,11648,11648,11648,11648,
0,0,0,0,0,0,0,0,0,0,0,11648,11648,11648,11648,11648,
0,0,0,0,0,0,0,0,0,0,0,11648,11648,11648,11648,11648,
0,0,0,0,0,0,0,0,0,0,0,11648,11648,11648,11648,11648,
0,0,0,0,0,0,0,0,0,0,0,11648,11648,11648,11648,11648,
0,0,0,0,0,0,0,0,0,0,0,11648,11648,11648,11648,11648,
0,0,0,0,0,0,0,0,0,0,0,11648,11648,11648,11648,11648,
0,0,0,0,0,0,0,0,0,0,0,0,0,0,0,0,
0,0,0,0,0,0,0,0,0,0,0,0,0,0,0,0,
0,0,0,0,0,0,0,0,0,0,0,0,0,0,0,0,
0,0,0,0,0,0,0,0,0,0,0,0,0,0,0,0
</chunk>
      <chunk x="224" y="32" width="16" height="16">
11648,11648,11648,11648,11648,11648,11648,11648,11648,0,0,0,0,0,0,0,
11648,11648,11648,11648,11648,11648,11648,11648,11648,0,0,0,0,0,0,0,
11648,11648,11648,11648,11648,11648,11648,11648,11648,0,0,0,0,0,0,0,
11648,11648,11648,11648,11648,11648,11648,11648,11648,0,0,0,0,0,0,0,
11648,11648,11648,11648,11648,11648,11648,11648,11648,0,0,0,0,0,0,0,
11648,11648,11648,11648,11648,11648,11648,11648,11648,0,0,0,0,0,0,0,
11648,11648,11648,11648,11648,11648,11648,11648,11648,0,0,0,0,0,0,0,
11648,11648,11648,11648,11648,11648,11648,11648,11648,0,0,0,0,0,0,0,
11648,11648,11648,11648,11648,11648,11648,11648,11648,0,0,0,0,0,0,0,
11648,11648,11648,11648,11648,11648,11648,11648,11648,0,0,0,0,0,0,0,
11648,11648,11648,11648,11648,11648,11648,11648,11648,0,0,0,0,0,0,0,
11648,11648,11648,11648,11648,11648,11648,11648,11648,0,0,0,0,0,0,0,
0,0,0,0,0,0,0,0,0,0,0,0,0,0,0,0,
0,0,0,0,0,0,0,0,0,0,0,0,0,0,0,0,
0,0,0,0,0,0,0,0,0,0,0,0,0,0,0,0,
0,0,0,0,0,0,0,0,0,0,0,0,0,0,0,0
</chunk>
      <chunk x="240" y="32" width="16" height="16">
0,0,0,0,0,0,0,0,0,0,0,0,0,0,0,0,
0,0,0,0,0,0,0,0,0,0,0,0,0,0,0,0,
0,0,0,0,0,0,0,0,0,0,0,0,0,0,0,0,
0,0,0,0,0,0,0,0,0,0,0,0,0,0,0,0,
0,0,0,0,0,0,0,0,0,0,0,0,0,0,0,0,
0,0,0,0,0,0,0,0,0,0,0,0,0,0,0,0,
0,0,0,0,0,0,0,0,0,0,0,0,0,0,0,0,
0,0,0,0,0,0,0,0,0,0,0,0,0,0,0,0,
0,0,0,0,0,0,0,0,0,0,0,0,0,0,0,0,
0,0,0,0,0,0,0,0,0,0,0,0,0,0,0,0,
0,0,0,0,0,0,0,0,0,0,0,0,0,0,0,0,
0,0,0,0,0,0,0,0,0,0,14583,14583,14064,14066,14066,14066,
0,0,0,0,0,0,0,0,0,0,14583,14583,14192,14449,14449,14449,
0,0,0,0,0,0,0,0,0,0,14583,14583,14192,14449,14449,14449,
0,0,0,0,0,0,0,0,0,0,14583,14583,14192,14449,14449,14449,
0,0,0,0,0,0,0,0,0,0,14583,14583,14192,14449,14449,14449
</chunk>
      <chunk x="256" y="32" width="16" height="16">
0,0,0,0,0,0,0,0,0,0,0,0,0,0,0,0,
0,0,0,0,0,0,0,0,0,0,0,0,0,0,0,0,
0,0,0,0,0,0,0,0,0,0,0,0,0,0,0,0,
0,0,0,0,0,0,0,0,0,0,0,0,0,0,0,0,
0,0,0,0,0,0,0,0,0,0,0,0,0,0,0,0,
0,0,0,0,0,0,0,0,0,0,0,0,0,0,0,0,
0,0,0,0,0,0,0,0,0,0,0,0,0,0,0,0,
0,0,0,0,0,0,0,0,0,0,0,0,0,0,0,0,
0,0,0,0,0,0,0,0,0,0,0,0,0,0,0,0,
0,0,0,0,0,0,0,0,0,0,0,0,0,0,0,0,
0,0,0,0,0,0,0,0,0,0,0,0,0,0,0,0,
14066,14066,14066,14066,14066,14066,14066,14066,14066,14066,14066,14068,14199,14199,14199,0,
14449,14449,14449,14449,14449,14449,14449,14449,14449,14449,14449,14132,0,0,0,0,
14449,14449,14449,14449,14449,14449,14449,14449,14449,14449,14449,14132,0,0,0,0,
14449,14449,14449,14449,14449,14449,14449,14449,14449,14449,14449,14132,0,0,0,0,
14129,14130,14130,14130,14130,14130,14130,14131,14449,14449,14449,14132,0,0,0,0
</chunk>
      <chunk x="32" y="48" width="16" height="16">
0,0,0,0,0,0,0,0,0,0,14192,14449,14449,14449,14193,511,
0,0,0,0,0,0,0,0,0,0,14192,14449,14449,14449,14193,511,
0,0,0,0,0,0,0,0,0,0,14192,14449,14449,14449,14193,511,
0,0,0,0,0,0,0,0,0,0,14192,14449,14449,14449,14193,511,
0,0,0,0,0,0,0,0,0,0,14192,14449,14449,14449,14257,14258,
0,0,0,0,0,0,0,0,0,0,14192,14449,14449,14449,14449,14449,
0,0,0,0,0,0,0,0,0,0,14192,14449,14449,14449,14449,14449,
0,0,0,0,0,0,0,0,0,0,14192,14449,14449,14449,14449,14449,
0,0,0,0,0,0,0,0,0,0,14320,14323,14323,14323,14323,14323,
0,0,0,0,0,0,0,0,0,0,0,0,0,0,0,0,
0,0,0,0,0,0,0,0,0,0,0,0,0,0,0,0,
0,0,0,0,0,0,0,0,0,0,0,0,0,0,0,0,
0,0,0,0,0,0,0,0,0,0,0,0,0,0,0,0,
0,0,0,0,0,0,0,0,0,0,0,0,0,0,0,0,
0,0,0,0,0,0,0,0,0,0,0,0,0,0,0,0,
0,0,0,0,0,0,0,0,0,0,0,0,0,0,0,0
</chunk>
      <chunk x="48" y="48" width="16" height="16">
511,0,0,0,0,14195,14449,14449,14449,14132,0,0,0,0,0,0,
511,0,0,0,0,14195,14449,14449,14449,14132,0,0,0,0,0,0,
511,0,0,0,0,14195,14449,14449,14449,14132,0,0,0,0,0,0,
511,0,0,0,0,14195,14449,14449,14449,14132,0,0,0,0,0,0,
14258,14258,14258,14258,14258,14259,14449,14449,14449,14132,0,0,0,0,0,0,
14449,14449,14449,14449,14449,14449,14449,14449,14449,14132,0,0,0,0,0,0,
14449,14449,14449,14449,14449,14449,14449,14449,14449,14132,0,0,0,0,0,0,
14449,14449,14449,14449,14449,14449,14449,14449,14449,14132,0,0,0,0,0,0,
14323,14323,14323,14323,14323,14323,14323,14323,14323,14324,0,0,0,0,0,0,
0,0,0,0,0,0,0,0,0,0,0,0,0,0,0,0,
0,0,0,0,0,0,0,0,0,0,0,0,0,0,0,0,
0,0,0,0,0,0,0,0,0,0,0,0,0,0,0,0,
0,0,0,0,0,0,0,0,0,0,0,0,0,0,0,0,
0,0,0,0,0,0,0,0,0,0,0,0,0,0,0,0,
0,0,0,0,0,0,0,0,0,0,0,0,0,0,0,0,
0,0,0,0,0,0,0,0,0,0,0,0,0,0,0,0
</chunk>
      <chunk x="240" y="48" width="16" height="16">
0,0,0,0,511,511,511,511,511,511,14583,14583,14192,14449,14449,14449,
0,0,0,0,511,511,511,511,511,511,14583,14583,14192,14449,14449,14449,
0,0,0,0,511,511,511,511,511,511,511,511,14192,14449,14449,14449,
0,0,0,0,511,511,511,511,511,511,511,511,14192,14449,14449,14449,
0,0,0,0,511,511,511,511,511,511,511,511,14192,14449,14449,14449,
0,0,0,0,511,511,511,511,511,511,511,511,14192,14449,14449,14449,
0,0,0,0,511,511,511,511,511,511,511,511,14192,14449,14449,14449,
0,0,0,0,511,511,511,511,511,511,511,511,14192,14449,14449,14449,
0,0,0,0,511,511,511,511,511,511,511,511,14320,14323,14323,14323,
0,0,0,0,0,0,0,0,0,0,0,0,0,0,0,0,
0,0,0,0,0,0,0,0,0,0,0,0,0,0,0,0,
0,0,0,0,0,0,0,0,0,0,0,0,0,0,0,0,
0,0,0,0,0,0,0,0,0,0,0,0,0,0,0,0,
0,0,0,0,0,0,0,0,0,0,0,0,0,0,0,0,
0,0,0,0,0,0,0,0,0,0,0,0,0,0,0,0,
0,0,0,0,0,0,0,0,0,0,0,0,0,0,0,0
</chunk>
      <chunk x="256" y="48" width="16" height="16">
14193,511,511,0,0,0,0,14195,14449,14449,14449,14132,0,0,0,0,
14193,511,511,0,0,0,0,14195,14449,14449,14449,14132,0,0,0,0,
14193,511,511,0,0,0,0,14195,14449,14449,14449,14132,0,0,0,0,
14193,511,511,0,0,0,0,14195,14449,14449,14449,14132,0,0,0,0,
14257,14258,14258,14258,14258,14258,14258,14259,14449,14449,14449,14132,0,0,0,0,
14449,14449,14449,14449,14449,14449,14449,14449,14449,14449,14449,14132,0,0,0,0,
14449,14449,14449,14449,14449,14449,14449,14449,14449,14449,14449,14132,0,0,0,0,
14449,14449,14449,14449,14449,14449,14449,14449,14449,14449,14449,14132,0,0,0,0,
14323,14323,14323,14323,14323,14323,14323,14323,14323,14323,14323,14324,0,0,0,0,
0,0,0,0,0,0,0,0,0,0,0,0,0,0,0,0,
0,0,0,0,0,0,0,0,0,0,0,0,0,0,0,0,
0,0,0,0,0,0,0,0,0,0,0,0,0,0,0,0,
0,0,0,0,0,0,0,0,0,0,0,0,0,0,0,0,
0,0,0,0,511,0,0,0,0,0,0,0,0,0,0,0,
0,0,0,0,0,0,0,0,0,0,0,0,0,0,0,0,
0,0,0,0,0,0,0,0,0,0,0,0,0,0,0,0
</chunk>
      <chunk x="112" y="128" width="16" height="16">
0,0,0,0,0,0,0,0,0,0,0,0,0,0,0,0,
0,0,0,0,0,0,0,0,0,0,0,0,0,0,0,0,
0,0,0,0,0,0,0,0,0,0,0,0,0,0,0,0,
0,0,0,0,0,0,0,0,0,0,0,0,0,0,0,0,
0,0,0,0,0,0,0,0,0,0,0,0,0,0,0,0,
0,0,0,0,0,0,0,0,0,0,0,0,0,0,0,0,
0,0,0,0,0,0,0,0,0,0,0,0,0,0,0,0,
0,0,0,0,0,0,0,0,0,0,0,0,0,0,0,0,
0,0,0,0,0,0,0,0,0,0,0,0,0,0,0,0,
0,0,0,0,0,0,0,0,0,0,0,0,0,0,0,0,
0,0,0,0,0,0,0,0,0,0,0,0,0,0,0,0,
0,0,0,11599,11599,11599,11599,0,0,0,0,0,0,0,0,0,
0,0,0,11599,11599,11599,11599,0,0,0,0,0,0,0,0,0,
0,0,0,0,0,0,0,0,0,0,0,0,0,0,0,0,
0,0,0,0,0,0,0,0,0,0,0,0,0,0,0,0,
0,0,0,0,0,0,0,0,0,0,0,0,0,0,0,0
</chunk>
    </data>
  </layer>
  <objectgroup draworder="index" id="13" name="Object Layer 3">
    <object id="1052" gid="6993" x="10925.1" y="1824.28" width="48" height="48" />
    <object id="63" gid="6925" x="7203.56" y="-4235.75" width="48" height="48" />
    <object id="64" gid="6924" x="7155.58" y="-4235.75" width="48" height="48" />
    <object id="65" gid="6923" x="7107.89" y="-4235.75" width="48" height="48" />
    <object id="66" gid="6925" x="7203.56" y="-4132" width="48" height="48" />
    <object id="67" gid="6924" x="7155.58" y="-4132" width="48" height="48" />
    <object id="68" gid="6923" x="7107.89" y="-4132" width="48" height="48" />
    <object id="69" gid="6925" x="6961.55" y="-4132" width="48" height="48" />
    <object id="70" gid="6924" x="6913.57" y="-4132" width="48" height="48" />
    <object id="71" gid="6923" x="6865.88" y="-4132" width="48" height="48" />
    <object id="72" gid="6925" x="6961.55" y="-4235.75" width="48" height="48" />
    <object id="73" gid="6924" x="6913.57" y="-4235.75" width="48" height="48" />
    <object id="74" gid="6923" x="6865.88" y="-4235.75" width="48" height="48" />
    <object id="75" gid="6925" x="6721.3" y="-4235.75" width="48" height="48" />
    <object id="76" gid="6924" x="6673.32" y="-4235.75" width="48" height="48" />
    <object id="77" gid="6923" x="6625.63" y="-4235.75" width="48" height="48" />
    <object id="78" gid="6925" x="6721.3" y="-4132" width="48" height="48" />
    <object id="79" gid="6924" x="6673.32" y="-4132" width="48" height="48" />
    <object id="80" gid="6923" x="6625.63" y="-4132" width="48" height="48" />
    <object id="81" gid="6925" x="6474.05" y="-4235.75" width="48" height="48" />
    <object id="82" gid="6924" x="6426.07" y="-4235.75" width="48" height="48" />
    <object id="83" gid="6923" x="6378.38" y="-4235.75" width="48" height="48" />
    <object id="84" gid="6925" x="6474.05" y="-4132" width="48" height="48" />
    <object id="85" gid="6924" x="6426.07" y="-4132" width="48" height="48" />
    <object id="86" gid="6923" x="6378.38" y="-4132" width="48" height="48" />
    <object id="135" gid="6925" x="7203.56" y="-3995.75" width="48" height="48" />
    <object id="136" gid="6924" x="7155.58" y="-3995.75" width="48" height="48" />
    <object id="137" gid="6923" x="7107.89" y="-3995.75" width="48" height="48" />
    <object id="138" gid="6925" x="7203.56" y="-3892" width="48" height="48" />
    <object id="139" gid="6924" x="7155.58" y="-3892" width="48" height="48" />
    <object id="140" gid="6923" x="7107.89" y="-3892" width="48" height="48" />
    <object id="141" gid="6925" x="6961.55" y="-3892" width="48" height="48" />
    <object id="142" gid="6924" x="6913.57" y="-3892" width="48" height="48" />
    <object id="143" gid="6923" x="6865.88" y="-3892" width="48" height="48" />
    <object id="144" gid="6925" x="6961.55" y="-3995.75" width="48" height="48" />
    <object id="145" gid="6924" x="6913.57" y="-3995.75" width="48" height="48" />
    <object id="146" gid="6923" x="6865.88" y="-3995.75" width="48" height="48" />
    <object id="147" gid="6925" x="6721.3" y="-3995.75" width="48" height="48" />
    <object id="148" gid="6924" x="6673.32" y="-3995.75" width="48" height="48" />
    <object id="149" gid="6923" x="6625.63" y="-3995.75" width="48" height="48" />
    <object id="150" gid="6925" x="6721.3" y="-3892" width="48" height="48" />
    <object id="151" gid="6924" x="6673.32" y="-3892" width="48" height="48" />
    <object id="152" gid="6923" x="6625.63" y="-3892" width="48" height="48" />
    <object id="153" gid="6925" x="6474.05" y="-3995.75" width="48" height="48" />
    <object id="154" gid="6924" x="6426.07" y="-3995.75" width="48" height="48" />
    <object id="155" gid="6923" x="6378.38" y="-3995.75" width="48" height="48" />
    <object id="156" gid="6925" x="6474.05" y="-3892" width="48" height="48" />
    <object id="157" gid="6924" x="6426.07" y="-3892" width="48" height="48" />
    <object id="158" gid="6923" x="6378.38" y="-3892" width="48" height="48" />
    <object id="159" gid="6925" x="7203.56" y="-3755.75" width="48" height="48" />
    <object id="160" gid="6924" x="7155.58" y="-3755.75" width="48" height="48" />
    <object id="161" gid="6923" x="7107.89" y="-3755.75" width="48" height="48" />
    <object id="162" gid="6925" x="7203.56" y="-3652" width="48" height="48" />
    <object id="163" gid="6924" x="7155.58" y="-3652" width="48" height="48" />
    <object id="164" gid="6923" x="7107.89" y="-3652" width="48" height="48" />
    <object id="165" gid="6925" x="6961.55" y="-3652" width="48" height="48" />
    <object id="166" gid="6924" x="6913.57" y="-3652" width="48" height="48" />
    <object id="167" gid="6923" x="6865.88" y="-3652" width="48" height="48" />
    <object id="168" gid="6925" x="6961.55" y="-3755.75" width="48" height="48" />
    <object id="169" gid="6924" x="6913.57" y="-3755.75" width="48" height="48" />
    <object id="170" gid="6923" x="6865.88" y="-3755.75" width="48" height="48" />
    <object id="171" gid="6925" x="6721.3" y="-3755.75" width="48" height="48" />
    <object id="172" gid="6924" x="6673.32" y="-3755.75" width="48" height="48" />
    <object id="173" gid="6923" x="6625.63" y="-3755.75" width="48" height="48" />
    <object id="174" gid="6925" x="6721.3" y="-3652" width="48" height="48" />
    <object id="175" gid="6924" x="6673.32" y="-3652" width="48" height="48" />
    <object id="176" gid="6923" x="6625.63" y="-3652" width="48" height="48" />
    <object id="177" gid="6925" x="6474.05" y="-3755.75" width="48" height="48" />
    <object id="178" gid="6924" x="6426.07" y="-3755.75" width="48" height="48" />
    <object id="179" gid="6923" x="6378.38" y="-3755.75" width="48" height="48" />
    <object id="180" gid="6925" x="6474.05" y="-3652" width="48" height="48" />
    <object id="181" gid="6924" x="6426.07" y="-3652" width="48" height="48" />
    <object id="182" gid="6923" x="6378.38" y="-3652" width="48" height="48" />
    <object id="183" gid="6925" x="7203.56" y="-3515.75" width="48" height="48" />
    <object id="184" gid="6924" x="7155.58" y="-3515.75" width="48" height="48" />
    <object id="185" gid="6923" x="7107.89" y="-3515.75" width="48" height="48" />
    <object id="186" gid="6925" x="7203.56" y="-3412" width="48" height="48" />
    <object id="187" gid="6924" x="7155.58" y="-3412" width="48" height="48" />
    <object id="188" gid="6923" x="7107.89" y="-3412" width="48" height="48" />
    <object id="189" gid="6925" x="6961.55" y="-3412" width="48" height="48" />
    <object id="190" gid="6924" x="6913.57" y="-3412" width="48" height="48" />
    <object id="191" gid="6923" x="6865.88" y="-3412" width="48" height="48" />
    <object id="192" gid="6925" x="6961.55" y="-3515.75" width="48" height="48" />
    <object id="193" gid="6924" x="6913.57" y="-3515.75" width="48" height="48" />
    <object id="194" gid="6923" x="6865.88" y="-3515.75" width="48" height="48" />
    <object id="195" gid="6925" x="6721.3" y="-3515.75" width="48" height="48" />
    <object id="196" gid="6924" x="6673.32" y="-3515.75" width="48" height="48" />
    <object id="197" gid="6923" x="6625.63" y="-3515.75" width="48" height="48" />
    <object id="198" gid="6925" x="6721.3" y="-3412" width="48" height="48" />
    <object id="199" gid="6924" x="6673.32" y="-3412" width="48" height="48" />
    <object id="200" gid="6923" x="6625.63" y="-3412" width="48" height="48" />
    <object id="201" gid="6925" x="6474.05" y="-3515.75" width="48" height="48" />
    <object id="202" gid="6924" x="6426.07" y="-3515.75" width="48" height="48" />
    <object id="203" gid="6923" x="6378.38" y="-3515.75" width="48" height="48" />
    <object id="204" gid="6925" x="6474.05" y="-3412" width="48" height="48" />
    <object id="205" gid="6924" x="6426.07" y="-3412" width="48" height="48" />
    <object id="206" gid="6923" x="6378.38" y="-3412" width="48" height="48" />
    <object id="207" gid="6925" x="7203.56" y="-3275.75" width="48" height="48" />
    <object id="208" gid="6924" x="7155.58" y="-3275.75" width="48" height="48" />
    <object id="209" gid="6923" x="7107.89" y="-3275.75" width="48" height="48" />
    <object id="210" gid="6925" x="7203.56" y="-3172" width="48" height="48" />
    <object id="211" gid="6924" x="7155.58" y="-3172" width="48" height="48" />
    <object id="212" gid="6923" x="7107.89" y="-3172" width="48" height="48" />
    <object id="213" gid="6925" x="6961.55" y="-3172" width="48" height="48" />
    <object id="214" gid="6924" x="6913.57" y="-3172" width="48" height="48" />
    <object id="215" gid="6923" x="6865.88" y="-3172" width="48" height="48" />
    <object id="216" gid="6925" x="6961.55" y="-3275.75" width="48" height="48" />
    <object id="217" gid="6924" x="6913.57" y="-3275.75" width="48" height="48" />
    <object id="218" gid="6923" x="6865.88" y="-3275.75" width="48" height="48" />
    <object id="219" gid="6925" x="6721.3" y="-3275.75" width="48" height="48" />
    <object id="220" gid="6924" x="6673.32" y="-3275.75" width="48" height="48" />
    <object id="221" gid="6923" x="6625.63" y="-3275.75" width="48" height="48" />
    <object id="222" gid="6925" x="6721.3" y="-3172" width="48" height="48" />
    <object id="223" gid="6924" x="6673.32" y="-3172" width="48" height="48" />
    <object id="224" gid="6923" x="6625.63" y="-3172" width="48" height="48" />
    <object id="225" gid="6925" x="6474.05" y="-3275.75" width="48" height="48" />
    <object id="226" gid="6924" x="6426.07" y="-3275.75" width="48" height="48" />
    <object id="227" gid="6923" x="6378.38" y="-3275.75" width="48" height="48" />
    <object id="228" gid="6925" x="6474.05" y="-3172" width="48" height="48" />
    <object id="229" gid="6924" x="6426.07" y="-3172" width="48" height="48" />
    <object id="230" gid="6923" x="6378.38" y="-3172" width="48" height="48" />
    <object id="231" gid="6925" x="7203.56" y="-3035.75" width="48" height="48" />
    <object id="232" gid="6924" x="7155.58" y="-3035.75" width="48" height="48" />
    <object id="233" gid="6923" x="7107.89" y="-3035.75" width="48" height="48" />
    <object id="234" gid="6925" x="7203.56" y="-2932" width="48" height="48" />
    <object id="235" gid="6924" x="7155.58" y="-2932" width="48" height="48" />
    <object id="236" gid="6923" x="7107.89" y="-2932" width="48" height="48" />
    <object id="237" gid="6925" x="6961.55" y="-2932" width="48" height="48" />
    <object id="238" gid="6924" x="6913.57" y="-2932" width="48" height="48" />
    <object id="239" gid="6923" x="6865.88" y="-2932" width="48" height="48" />
    <object id="240" gid="6925" x="6961.55" y="-3035.75" width="48" height="48" />
    <object id="241" gid="6924" x="6913.57" y="-3035.75" width="48" height="48" />
    <object id="242" gid="6923" x="6865.88" y="-3035.75" width="48" height="48" />
    <object id="243" gid="6925" x="6721.3" y="-3035.75" width="48" height="48" />
    <object id="244" gid="6924" x="6673.32" y="-3035.75" width="48" height="48" />
    <object id="245" gid="6923" x="6625.63" y="-3035.75" width="48" height="48" />
    <object id="246" gid="6925" x="6721.3" y="-2932" width="48" height="48" />
    <object id="247" gid="6924" x="6673.32" y="-2932" width="48" height="48" />
    <object id="248" gid="6923" x="6625.63" y="-2932" width="48" height="48" />
    <object id="249" gid="6925" x="6474.05" y="-3035.75" width="48" height="48" />
    <object id="250" gid="6924" x="6426.07" y="-3035.75" width="48" height="48" />
    <object id="251" gid="6923" x="6378.38" y="-3035.75" width="48" height="48" />
    <object id="252" gid="6925" x="6474.05" y="-2932" width="48" height="48" />
    <object id="253" gid="6924" x="6426.07" y="-2932" width="48" height="48" />
    <object id="254" gid="6923" x="6378.38" y="-2932" width="48" height="48" />
    <object id="444" gid="6925" x="8452.37" y="-4235.74" width="48" height="48" />
    <object id="445" gid="6924" x="8404.39" y="-4235.74" width="48" height="48" />
    <object id="446" gid="6923" x="8356.7" y="-4235.74" width="48" height="48" />
    <object id="447" gid="6925" x="8452.37" y="-4131.99" width="48" height="48" />
    <object id="448" gid="6924" x="8404.39" y="-4131.99" width="48" height="48" />
    <object id="449" gid="6923" x="8356.7" y="-4131.99" width="48" height="48" />
    <object id="450" gid="6925" x="8210.36" y="-4131.99" width="48" height="48" />
    <object id="451" gid="6924" x="8162.38" y="-4131.99" width="48" height="48" />
    <object id="452" gid="6923" x="8114.69" y="-4131.99" width="48" height="48" />
    <object id="453" gid="6925" x="8210.36" y="-4235.74" width="48" height="48" />
    <object id="454" gid="6924" x="8162.38" y="-4235.74" width="48" height="48" />
    <object id="455" gid="6923" x="8114.69" y="-4235.74" width="48" height="48" />
    <object id="456" gid="6925" x="7970.11" y="-4235.74" width="48" height="48" />
    <object id="457" gid="6924" x="7922.13" y="-4235.74" width="48" height="48" />
    <object id="458" gid="6923" x="7874.44" y="-4235.74" width="48" height="48" />
    <object id="459" gid="6925" x="7970.11" y="-4131.99" width="48" height="48" />
    <object id="460" gid="6924" x="7922.13" y="-4131.99" width="48" height="48" />
    <object id="461" gid="6923" x="7874.44" y="-4131.99" width="48" height="48" />
    <object id="462" gid="6925" x="7722.86" y="-4235.74" width="48" height="48" />
    <object id="463" gid="6924" x="7674.88" y="-4235.74" width="48" height="48" />
    <object id="464" gid="6923" x="7627.19" y="-4235.74" width="48" height="48" />
    <object id="465" gid="6925" x="7722.86" y="-4131.99" width="48" height="48" />
    <object id="466" gid="6924" x="7674.88" y="-4131.99" width="48" height="48" />
    <object id="467" gid="6923" x="7627.19" y="-4131.99" width="48" height="48" />
    <object id="468" gid="6925" x="8452.37" y="-3995.74" width="48" height="48" />
    <object id="469" gid="6924" x="8404.39" y="-3995.74" width="48" height="48" />
    <object id="470" gid="6923" x="8356.7" y="-3995.74" width="48" height="48" />
    <object id="471" gid="6925" x="8452.37" y="-3891.99" width="48" height="48" />
    <object id="472" gid="6924" x="8404.39" y="-3891.99" width="48" height="48" />
    <object id="473" gid="6923" x="8356.7" y="-3891.99" width="48" height="48" />
    <object id="474" gid="6925" x="8210.36" y="-3891.99" width="48" height="48" />
    <object id="475" gid="6924" x="8162.38" y="-3891.99" width="48" height="48" />
    <object id="476" gid="6923" x="8114.69" y="-3891.99" width="48" height="48" />
    <object id="477" gid="6925" x="8210.36" y="-3995.74" width="48" height="48" />
    <object id="478" gid="6924" x="8162.38" y="-3995.74" width="48" height="48" />
    <object id="479" gid="6923" x="8114.69" y="-3995.74" width="48" height="48" />
    <object id="480" gid="6925" x="7970.11" y="-3995.74" width="48" height="48" />
    <object id="481" gid="6924" x="7922.13" y="-3995.74" width="48" height="48" />
    <object id="482" gid="6923" x="7874.44" y="-3995.74" width="48" height="48" />
    <object id="483" gid="6925" x="7970.11" y="-3891.99" width="48" height="48" />
    <object id="484" gid="6924" x="7922.13" y="-3891.99" width="48" height="48" />
    <object id="485" gid="6923" x="7874.44" y="-3891.99" width="48" height="48" />
    <object id="486" gid="6925" x="7722.86" y="-3995.74" width="48" height="48" />
    <object id="487" gid="6924" x="7674.88" y="-3995.74" width="48" height="48" />
    <object id="488" gid="6923" x="7627.19" y="-3995.74" width="48" height="48" />
    <object id="489" gid="6925" x="7722.86" y="-3891.99" width="48" height="48" />
    <object id="490" gid="6924" x="7674.88" y="-3891.99" width="48" height="48" />
    <object id="491" gid="6923" x="7627.19" y="-3891.99" width="48" height="48" />
    <object id="492" gid="6925" x="8452.37" y="-3755.74" width="48" height="48" />
    <object id="493" gid="6924" x="8404.39" y="-3755.74" width="48" height="48" />
    <object id="494" gid="6923" x="8356.7" y="-3755.74" width="48" height="48" />
    <object id="495" gid="6925" x="8452.37" y="-3651.99" width="48" height="48" />
    <object id="496" gid="6924" x="8404.39" y="-3651.99" width="48" height="48" />
    <object id="497" gid="6923" x="8356.7" y="-3651.99" width="48" height="48" />
    <object id="498" gid="6925" x="8210.36" y="-3651.99" width="48" height="48" />
    <object id="499" gid="6924" x="8162.38" y="-3651.99" width="48" height="48" />
    <object id="500" gid="6923" x="8114.69" y="-3651.99" width="48" height="48" />
    <object id="501" gid="6925" x="8210.36" y="-3755.74" width="48" height="48" />
    <object id="502" gid="6924" x="8162.38" y="-3755.74" width="48" height="48" />
    <object id="503" gid="6923" x="8114.69" y="-3755.74" width="48" height="48" />
    <object id="504" gid="6925" x="7970.11" y="-3755.74" width="48" height="48" />
    <object id="505" gid="6924" x="7922.13" y="-3755.74" width="48" height="48" />
    <object id="506" gid="6923" x="7874.44" y="-3755.74" width="48" height="48" />
    <object id="507" gid="6925" x="7970.11" y="-3651.99" width="48" height="48" />
    <object id="508" gid="6924" x="7922.13" y="-3651.99" width="48" height="48" />
    <object id="509" gid="6923" x="7874.44" y="-3651.99" width="48" height="48" />
    <object id="510" gid="6925" x="7722.86" y="-3755.74" width="48" height="48" />
    <object id="511" gid="6924" x="7674.88" y="-3755.74" width="48" height="48" />
    <object id="512" gid="6923" x="7627.19" y="-3755.74" width="48" height="48" />
    <object id="513" gid="6925" x="7722.86" y="-3651.99" width="48" height="48" />
    <object id="514" gid="6924" x="7674.88" y="-3651.99" width="48" height="48" />
    <object id="515" gid="6923" x="7627.19" y="-3651.99" width="48" height="48" />
    <object id="516" gid="6925" x="8452.37" y="-3515.74" width="48" height="48" />
    <object id="517" gid="6924" x="8404.39" y="-3515.74" width="48" height="48" />
    <object id="518" gid="6923" x="8356.7" y="-3515.74" width="48" height="48" />
    <object id="519" gid="6925" x="8452.37" y="-3411.99" width="48" height="48" />
    <object id="520" gid="6924" x="8404.39" y="-3411.99" width="48" height="48" />
    <object id="521" gid="6923" x="8356.7" y="-3411.99" width="48" height="48" />
    <object id="522" gid="6925" x="8210.36" y="-3411.99" width="48" height="48" />
    <object id="523" gid="6924" x="8162.38" y="-3411.99" width="48" height="48" />
    <object id="524" gid="6923" x="8114.69" y="-3411.99" width="48" height="48" />
    <object id="525" gid="6925" x="8210.36" y="-3515.74" width="48" height="48" />
    <object id="526" gid="6924" x="8162.38" y="-3515.74" width="48" height="48" />
    <object id="527" gid="6923" x="8114.69" y="-3515.74" width="48" height="48" />
    <object id="528" gid="6925" x="7970.11" y="-3515.74" width="48" height="48" />
    <object id="529" gid="6924" x="7922.13" y="-3515.74" width="48" height="48" />
    <object id="530" gid="6923" x="7874.44" y="-3515.74" width="48" height="48" />
    <object id="531" gid="6925" x="7970.11" y="-3411.99" width="48" height="48" />
    <object id="532" gid="6924" x="7922.13" y="-3411.99" width="48" height="48" />
    <object id="533" gid="6923" x="7874.44" y="-3411.99" width="48" height="48" />
    <object id="534" gid="6925" x="7722.86" y="-3515.74" width="48" height="48" />
    <object id="535" gid="6924" x="7674.88" y="-3515.74" width="48" height="48" />
    <object id="536" gid="6923" x="7627.19" y="-3515.74" width="48" height="48" />
    <object id="537" gid="6925" x="7722.86" y="-3411.99" width="48" height="48" />
    <object id="538" gid="6924" x="7674.88" y="-3411.99" width="48" height="48" />
    <object id="539" gid="6923" x="7627.19" y="-3411.99" width="48" height="48" />
    <object id="540" gid="6925" x="8452.37" y="-3275.74" width="48" height="48" />
    <object id="541" gid="6924" x="8404.39" y="-3275.74" width="48" height="48" />
    <object id="542" gid="6923" x="8356.7" y="-3275.74" width="48" height="48" />
    <object id="543" gid="6925" x="8452.37" y="-3171.99" width="48" height="48" />
    <object id="544" gid="6924" x="8404.39" y="-3171.99" width="48" height="48" />
    <object id="545" gid="6923" x="8356.7" y="-3171.99" width="48" height="48" />
    <object id="546" gid="6925" x="8210.36" y="-3171.99" width="48" height="48" />
    <object id="547" gid="6924" x="8162.38" y="-3171.99" width="48" height="48" />
    <object id="548" gid="6923" x="8114.69" y="-3171.99" width="48" height="48" />
    <object id="549" gid="6925" x="8210.36" y="-3275.74" width="48" height="48" />
    <object id="550" gid="6924" x="8162.38" y="-3275.74" width="48" height="48" />
    <object id="551" gid="6923" x="8114.69" y="-3275.74" width="48" height="48" />
    <object id="552" gid="6925" x="7970.11" y="-3275.74" width="48" height="48" />
    <object id="553" gid="6924" x="7922.13" y="-3275.74" width="48" height="48" />
    <object id="554" gid="6923" x="7874.44" y="-3275.74" width="48" height="48" />
    <object id="555" gid="6925" x="7970.11" y="-3171.99" width="48" height="48" />
    <object id="556" gid="6924" x="7922.13" y="-3171.99" width="48" height="48" />
    <object id="557" gid="6923" x="7874.44" y="-3171.99" width="48" height="48" />
    <object id="558" gid="6925" x="7722.86" y="-3275.74" width="48" height="48" />
    <object id="559" gid="6924" x="7674.88" y="-3275.74" width="48" height="48" />
    <object id="560" gid="6923" x="7627.19" y="-3275.74" width="48" height="48" />
    <object id="561" gid="6925" x="7722.86" y="-3171.99" width="48" height="48" />
    <object id="562" gid="6924" x="7674.88" y="-3171.99" width="48" height="48" />
    <object id="563" gid="6923" x="7627.19" y="-3171.99" width="48" height="48" />
    <object id="564" gid="6925" x="8452.37" y="-3035.74" width="48" height="48" />
    <object id="565" gid="6924" x="8404.39" y="-3035.74" width="48" height="48" />
    <object id="566" gid="6923" x="8356.7" y="-3035.74" width="48" height="48" />
    <object id="567" gid="6925" x="8452.37" y="-2931.99" width="48" height="48" />
    <object id="568" gid="6924" x="8404.39" y="-2931.99" width="48" height="48" />
    <object id="569" gid="6923" x="8356.7" y="-2931.99" width="48" height="48" />
    <object id="570" gid="6925" x="8210.36" y="-2931.99" width="48" height="48" />
    <object id="571" gid="6924" x="8162.38" y="-2931.99" width="48" height="48" />
    <object id="572" gid="6923" x="8114.69" y="-2931.99" width="48" height="48" />
    <object id="573" gid="6925" x="8210.36" y="-3035.74" width="48" height="48" />
    <object id="574" gid="6924" x="8162.38" y="-3035.74" width="48" height="48" />
    <object id="575" gid="6923" x="8114.69" y="-3035.74" width="48" height="48" />
    <object id="576" gid="6925" x="7970.11" y="-3035.74" width="48" height="48" />
    <object id="577" gid="6924" x="7922.13" y="-3035.74" width="48" height="48" />
    <object id="578" gid="6923" x="7874.44" y="-3035.74" width="48" height="48" />
    <object id="579" gid="6925" x="7970.11" y="-2931.99" width="48" height="48" />
    <object id="580" gid="6924" x="7922.13" y="-2931.99" width="48" height="48" />
    <object id="581" gid="6923" x="7874.44" y="-2931.99" width="48" height="48" />
    <object id="582" gid="6925" x="7722.86" y="-3035.74" width="48" height="48" />
    <object id="583" gid="6924" x="7674.88" y="-3035.74" width="48" height="48" />
    <object id="584" gid="6923" x="7627.19" y="-3035.74" width="48" height="48" />
    <object id="585" gid="6925" x="7722.86" y="-2931.99" width="48" height="48" />
    <object id="586" gid="6924" x="7674.88" y="-2931.99" width="48" height="48" />
    <object id="587" gid="6923" x="7627.19" y="-2931.99" width="48" height="48" />
    <object id="612" gid="6912" x="8585.25" y="-4231.5" width="48" height="48" />
    <object id="613" gid="6928" x="8585.25" y="-4183.5" width="48" height="48" />
    <object id="614" gid="6944" x="8585.25" y="-4135.5" width="48" height="48" />
    <object id="615" gid="6912" x="8585.25" y="-3991.5" width="48" height="48" />
    <object id="616" gid="6928" x="8585.25" y="-3943.5" width="48" height="48" />
    <object id="617" gid="6944" x="8585.25" y="-3895.5" width="48" height="48" />
    <object id="618" gid="6912" x="8585.25" y="-3751.5" width="48" height="48" />
    <object id="619" gid="6928" x="8585.25" y="-3703.5" width="48" height="48" />
    <object id="620" gid="6944" x="8585.25" y="-3655.5" width="48" height="48" />
    <object id="624" gid="6912" x="8585.25" y="-3511.5" width="48" height="48" />
    <object id="625" gid="6928" x="8585.25" y="-3463.5" width="48" height="48" />
    <object id="626" gid="6944" x="8585.25" y="-3415.5" width="48" height="48" />
    <object id="627" gid="6912" x="8585.25" y="-3271.5" width="48" height="48" />
    <object id="628" gid="6928" x="8585.25" y="-3223.5" width="48" height="48" />
    <object id="629" gid="6944" x="8585.25" y="-3175.5" width="48" height="48" />
    <object id="630" gid="6912" x="8585.25" y="-3031.5" width="48" height="48" />
    <object id="631" gid="6928" x="8585.25" y="-2983.5" width="48" height="48" />
    <object id="632" gid="6944" x="8585.25" y="-2935.5" width="48" height="48" />
    <object id="633" gid="2147490560" x="6245.27" y="-4231.42" width="48" height="48" />
    <object id="634" gid="2147490576" x="6245.27" y="-4183.42" width="48" height="48" />
    <object id="635" gid="2147490592" x="6245.27" y="-4135.42" width="48" height="48" />
    <object id="636" gid="2147490560" x="6245.27" y="-3991.42" width="48" height="48" />
    <object id="637" gid="2147490576" x="6245.27" y="-3943.42" width="48" height="48" />
    <object id="638" gid="2147490592" x="6245.27" y="-3895.42" width="48" height="48" />
    <object id="639" gid="2147490560" x="6245.27" y="-3751.42" width="48" height="48" />
    <object id="640" gid="2147490576" x="6245.27" y="-3703.42" width="48" height="48" />
    <object id="641" gid="2147490592" x="6245.27" y="-3655.42" width="48" height="48" />
    <object id="642" gid="2147490560" x="6245.27" y="-3511.42" width="48" height="48" />
    <object id="643" gid="2147490576" x="6245.27" y="-3463.42" width="48" height="48" />
    <object id="644" gid="2147490592" x="6245.27" y="-3415.42" width="48" height="48" />
    <object id="645" gid="2147490560" x="6245.27" y="-3271.42" width="48" height="48" />
    <object id="646" gid="2147490576" x="6245.27" y="-3223.42" width="48" height="48" />
    <object id="647" gid="2147490592" x="6245.27" y="-3175.42" width="48" height="48" />
    <object id="648" gid="2147490560" x="6245.27" y="-3031.42" width="48" height="48" />
    <object id="649" gid="2147490576" x="6245.27" y="-2983.42" width="48" height="48" />
    <object id="650" gid="2147490592" x="6245.27" y="-2935.42" width="48" height="48" />
    <object id="659" gid="6977" x="7416.14" y="-4478" width="48" height="48" />
    <object id="651" gid="7007" x="7416.14" y="-4447.25" width="48" height="48" />
    <object id="652" gid="7023" x="7416.14" y="-4399.25" width="48" height="48" />
    <object id="653" gid="7039" x="7416.14" y="-4351.25" width="48" height="48" />
    <object id="658" gid="7102" x="7417.64" y="-4465.09" width="48" height="48" />
    <object id="654" gid="7066" x="7417.14" y="-4432.36" width="48" height="48" />
    <object id="656" gid="7082" x="7417.14" y="-4384.37" width="48" height="48" />
    <object id="657" gid="7102" x="7417.09" y="-4371.64" width="48" height="48" />
    <object id="660" gid="6961" x="7416.14" y="-4525.88" width="48" height="48" />
    <object id="675" gid="7025" x="7728" y="1536" width="48" height="48" />
    <object id="676" gid="7009" x="7728" y="1488" width="48" height="48" />
    <object id="677" gid="7025" x="7728" y="1872" width="48" height="48" />
    <object id="678" gid="7009" x="7728" y="1824" width="48" height="48" />
    <object id="679" gid="7024" x="7104" y="1872" width="48" height="48" />
    <object id="680" gid="7024" x="7104" y="1536" width="48" height="48" />
    <object id="681" gid="7008" x="7104" y="1488" width="48" height="48" />
    <object id="682" gid="7008" x="7104" y="1824" width="48" height="48" />
    <object id="683" gid="7008" x="3888" y="1488" width="48" height="48" />
    <object id="684" gid="7008" x="4224" y="1488" width="48" height="48" />
    <object id="724" gid="6992" x="4198.67" y="1819.33" width="48" height="48" />
    <object id="727" gid="6993" x="4193.75" y="1841.5" width="48" height="48" />
    <object id="685" gid="7008" x="4224" y="1824" width="48" height="48" />
    <object id="722" gid="6992" x="3915.33" y="1816.67" width="48" height="48" />
    <object id="686" gid="7008" x="3888" y="1824" width="48" height="48" />
    <object id="688" gid="7024" x="3888" y="1536" width="48" height="48" />
    <object id="689" gid="7024" x="4224" y="1536" width="48" height="48" />
    <object id="690" gid="7024" x="4224" y="1872" width="48" height="48" />
    <object id="691" gid="7024" x="3888" y="1872" width="48" height="48" />
    <object id="692" gid="7025" x="10944" y="1536" width="48" height="48" />
    <object id="1048" gid="6992" x="10949.5" y="1811.36" width="48" height="48" />
    <object id="693" gid="7025" x="10944" y="1872" width="48" height="48" />
    <object id="694" gid="7025" x="10608" y="1536" width="48" height="48" />
    <object id="1001" gid="6992" x="10622.2" y="1820.56" width="48" height="48" />
    <object id="1002" gid="6993" x="10649.8" y="1827.23" width="48" height="48" />
    <object id="695" gid="7025" x="10608" y="1872" width="48" height="48" />
    <object id="696" gid="7009" x="10944" y="1488" width="48" height="48" />
    <object id="697" gid="7009" x="10608" y="1488" width="48" height="48" />
    <object id="1049" gid="6993" x="10944.6" y="1833.53" width="48" height="48" />
    <object id="1003" gid="2147495752" x="10633" y="1788.11" width="11.125" height="20" />
    <object id="718" gid="6992" x="4178.67" y="1534.67" width="48" height="48" />
    <object id="735" gid="6993" x="4227.25" y="1574.25" width="48" height="48" />
    <object id="719" gid="6992" x="4214" y="1584" width="48" height="48" />
    <object id="720" gid="6992" x="3941.33" y="1530" width="48" height="48" />
    <object id="721" gid="6992" x="3883.33" y="1585.33" width="48" height="48" />
    <object id="729" gid="6993" x="3926.5" y="1874.5" width="48" height="48" />
    <object id="723" gid="6992" x="3948" y="1879.33" width="48" height="48" />
    <object id="726" gid="6992" x="4178.67" y="1862.67" width="48" height="48" />
    <object id="725" gid="6992" x="4182" y="1885.33" width="48" height="48" />
    <object id="728" gid="6993" x="4174.25" y="1832.25" width="48" height="48" />
    <object id="730" gid="6993" x="3919.25" y="1849" width="48" height="48" />
    <object id="731" gid="6993" x="3937.25" y="1832" width="48" height="48" />
    <object id="732" gid="6993" x="3924.5" y="1551.25" width="48" height="48" />
    <object id="733" gid="6993" x="3911" y="1592" width="48" height="48" />
    <object id="734" gid="6993" x="4184.75" y="1553.5" width="48" height="48" />
    <object id="737" gid="7041" x="4174.5" y="1590.5" width="48" height="48" />
    <object id="736" gid="6993" x="4189.75" y="1591.75" width="48" height="48" />
    <object id="1004" gid="12098" x="10645.2" y="1793.58" width="5.03125" height="5.03125" />
    <object id="738" gid="7040" x="10670" y="1815" width="48" height="48" />
    <object id="963" gid="2147490640" x="10911" y="1847.24" width="48" height="48" />
    <object id="964" gid="2147490641" x="10905" y="1866.06" width="48" height="48" />
    <object id="1053" gid="12092" x="10971.9" y="1785.94" width="6" height="6" />
    <object id="965" gid="12098" x="10931" y="1808.31" width="5.03125" height="5.03125" />
    <object id="1054" gid="12089" x="10971.9" y="1779.94" width="6" height="6" />
    <object id="966" gid="12095" x="10931" y="1803.28" width="5.03125" height="5.03125" />
    <object id="1056" gid="12104" x="10944.8" y="1791.1" width="9.21875" height="17.5938" />
    <object id="967" gid="2147495740" x="10939.6" y="1812.7" width="6" height="6" />
    <object id="1058" gid="12104" x="10965.8" y="1799.2" width="6.95652" height="11.9565" />
    <object id="968" gid="2147495737" x="10939.6" y="1806.7" width="6" height="6" />
    <object id="1060" gid="2147495737" x="10961.3" y="1800.34" width="6" height="6" />
    <object id="970" gid="2147495740" x="10930.4" y="1838.78" width="6" height="6" />
    <object id="971" gid="2147495746" x="10935.3" y="1832.37" width="4.72727" height="4.72727" />
    <object id="972" gid="2147495737" x="10930.4" y="1832.78" width="6" height="6" />
    <object id="1061" gid="2147495746" x="10942" y="1796.44" width="5.03125" height="5.03125" />
    <object id="973" gid="2147495743" x="10935.3" y="1827.65" width="4.72727" height="4.72727" />
    <object id="1062" gid="2147495743" x="10942" y="1791.4" width="5.03125" height="5.03125" />
    <object id="974" gid="12092" x="10922.4" y="1827.6" width="6" height="6" />
    <object id="1063" gid="12104" x="10956.5" y="1789.59" width="11.125" height="20" />
    <object id="975" gid="12089" x="10922.4" y="1821.6" width="6" height="6" />
    <object id="976" gid="12104" x="10918.7" y="1843.51" width="9" height="15.4063" />
    <object id="977" gid="2147495746" x="10926.2" y="1831.27" width="4.46649" height="4.46649" />
    <object id="1064" gid="2147495752" x="10972.3" y="1773.22" width="5.6875" height="12.5938" />
    <object id="978" gid="2147495743" x="10926.2" y="1826.8" width="4.46649" height="4.46649" />
    <object id="1065" gid="12098" x="10963.5" y="1776.25" width="5.03125" height="5.03125" />
    <object id="979" gid="2147495752" x="10941.6" y="1825.17" width="11.125" height="20" />
    <object id="1066" gid="12095" x="10963.5" y="1771.21" width="5.03125" height="5.03125" />
    <object id="980" gid="2147495740" x="10930.6" y="1820.7" width="6" height="6" />
    <object id="1067" gid="12098" x="10968.3" y="1796.35" width="5.24924" height="5.24924" />
    <object id="1071" gid="6993" x="10896" y="1822.27" width="48" height="48" />
    <object id="969" gid="2147495752" x="10916.8" y="1817.11" width="11.125" height="20" />
    <object id="981" gid="2147495737" x="10930.6" y="1814.7" width="6" height="6" />
    <object id="982" gid="6992" x="10898.6" y="1534.24" width="48" height="48" />
    <object id="983" gid="6993" x="10904.7" y="1553.06" width="48" height="48" />
    <object id="984" gid="2147495746" x="10921.7" y="1495.31" width="5.03125" height="5.03125" />
    <object id="985" gid="2147495743" x="10921.7" y="1490.28" width="5.03125" height="5.03125" />
    <object id="986" gid="12092" x="10912" y="1499.7" width="6" height="6" />
    <object id="987" gid="12089" x="10912" y="1493.7" width="6" height="6" />
    <object id="988" gid="12104" x="10929.7" y="1504.11" width="11.125" height="20" />
    <object id="989" gid="12092" x="10921.2" y="1525.78" width="6" height="6" />
    <object id="990" gid="12098" x="10917.6" y="1519.37" width="4.72727" height="4.72727" />
    <object id="991" gid="12089" x="10921.2" y="1519.78" width="6" height="6" />
    <object id="992" gid="12095" x="10917.6" y="1514.65" width="4.72727" height="4.72727" />
    <object id="993" gid="2147495740" x="10929.2" y="1514.6" width="6" height="6" />
    <object id="994" gid="2147495737" x="10929.2" y="1508.6" width="6" height="6" />
    <object id="995" gid="2147495752" x="10930" y="1530.51" width="9" height="15.4063" />
    <object id="996" gid="12098" x="10927" y="1518.27" width="4.46649" height="4.46649" />
    <object id="997" gid="12095" x="10927" y="1513.8" width="4.46649" height="4.46649" />
    <object id="998" gid="12104" x="10905" y="1512.17" width="11.125" height="20" />
    <object id="999" gid="12092" x="10921.1" y="1507.7" width="6" height="6" />
    <object id="1000" gid="12089" x="10921.1" y="1501.7" width="6" height="6" />
    <object id="1005" gid="12095" x="10645.2" y="1788.54" width="5.03125" height="5.03125" />
    <object id="1006" gid="12092" x="10655.7" y="1789.05" width="6" height="6" />
    <object id="1007" gid="2147495746" x="10666.8" y="1799.48" width="5.03125" height="5.03125" />
    <object id="1008" gid="2147495743" x="10666.8" y="1794.45" width="5.03125" height="5.03125" />
    <object id="1009" gid="12092" x="10640.8" y="1805.68" width="6" height="6" />
    <object id="1010" gid="12089" x="10640.8" y="1799.68" width="6" height="6" />
    <object id="1011" gid="12104" x="10673.9" y="1805.11" width="11.125" height="20" />
    <object id="1012" gid="2147495752" x="10670.5" y="1794.1" width="7.64674" height="17.4348" />
    <object id="1013" gid="12104" x="10650.2" y="1802.45" width="11.125" height="20" />
    <object id="699" gid="7009" x="10608" y="1824" width="48" height="48" />
    <object id="1014" gid="2147490640" x="10944.2" y="1567.56" width="48" height="48" />
    <object id="1015" gid="2147490641" x="10916.5" y="1574.23" width="48" height="48" />
    <object id="1016" gid="12104" x="10970.2" y="1535.11" width="11.125" height="20" />
    <object id="1017" gid="2147495746" x="10964.1" y="1540.58" width="5.03125" height="5.03125" />
    <object id="1018" gid="2147495743" x="10964.1" y="1535.54" width="5.03125" height="5.03125" />
    <object id="1019" gid="2147495740" x="10952.6" y="1536.05" width="6" height="6" />
    <object id="1020" gid="12098" x="10942.5" y="1546.48" width="5.03125" height="5.03125" />
    <object id="1021" gid="12095" x="10942.5" y="1541.45" width="5.03125" height="5.03125" />
    <object id="1022" gid="2147495740" x="10967.5" y="1552.68" width="6" height="6" />
    <object id="1023" gid="2147495737" x="10967.5" y="1546.68" width="6" height="6" />
    <object id="1024" gid="2147495752" x="10929.3" y="1552.11" width="11.125" height="20" />
    <object id="1025" gid="12104" x="10936.2" y="1541.1" width="7.64674" height="17.4348" />
    <object id="1026" gid="2147495752" x="10953" y="1549.45" width="11.125" height="20" />
    <object id="1027" gid="2147490641" x="10656.1" y="1582.36" width="48" height="48" />
    <object id="1028" gid="2147490640" x="10634.6" y="1587.19" width="48" height="48" />
    <object id="1029" gid="2147490641" x="10663.4" y="1556.86" width="48" height="48" />
    <object id="1031" gid="2147495746" x="10679.2" y="1533.18" width="5.03125" height="5.03125" />
    <object id="1032" gid="2147495740" x="10676.6" y="1548.5" width="6" height="6" />
    <object id="1033" gid="2147495746" x="10663.7" y="1552.3" width="5.03125" height="5.03125" />
    <object id="1034" gid="12104" x="10669.1" y="1560.77" width="11.125" height="20" />
    <object id="1035" gid="12104" x="10640.1" y="1557.77" width="11.125" height="20" />
    <object id="1036" gid="2147495737" x="10676.6" y="1542.5" width="6" height="6" />
    <object id="1037" gid="2147495743" x="10679.2" y="1528.14" width="5.03125" height="5.03125" />
    <object id="1038" gid="2147495743" x="10663.7" y="1547.26" width="5.03125" height="5.03125" />
    <object id="1039" gid="2147495746" x="10654.5" y="1560.68" width="5.03125" height="5.03125" />
    <object id="1040" gid="2147495743" x="10654.5" y="1555.64" width="5.03125" height="5.03125" />
    <object id="1041" gid="2147495740" x="10657.9" y="1572.84" width="6.35938" height="6.35938" />
    <object id="1042" gid="2147495737" x="10657.9" y="1566.48" width="6.35938" height="6.35938" />
    <object id="1043" gid="2147495740" x="10654.1" y="1548.83" width="6" height="6" />
    <object id="1044" gid="2147495737" x="10654.1" y="1542.83" width="6" height="6" />
    <object id="1046" gid="2147495752" x="10667.4" y="1564.99" width="5.3125" height="20" />
    <object id="1047" gid="12104" x="10645.6" y="1568.95" width="6.9375" height="17.9375" />
    <object id="1068" gid="12095" x="10968.3" y="1791.09" width="5.24924" height="5.24924" />
    <object id="698" gid="7009" x="10944" y="1824" width="48" height="48" />
    <object id="1069" gid="2147495735" x="10952.3" y="1800.47" width="4.40413" height="4.40413" />
    <object id="1070" gid="2147495732" x="10952.3" y="1796.06" width="4.40413" height="4.40413" />
    <object id="1072" gid="2147490641" x="10641.5" y="1841.64" width="48" height="48" />
    <object id="1073" gid="6992" x="10652" y="1866.18" width="48" height="48" />
    <object id="1075" gid="2147490641" x="10649.2" y="1541.84" width="48" height="48" />
    <object id="1076" gid="12098" x="10675.2" y="1514.09" width="5.03125" height="5.03125" />
    <object id="1077" gid="12095" x="10675.2" y="1509.06" width="5.03125" height="5.03125" />
    <object id="1078" gid="2147495752" x="10662" y="1519.72" width="11.125" height="20" />
    <object id="1079" gid="12104" x="10668.9" y="1508.71" width="7.64674" height="17.4348" />
    <object id="1080" gid="6993" x="10897.1" y="1567.84" width="48" height="48" />
    <object id="1081" gid="2147495746" x="10914.1" y="1540.09" width="5.03125" height="5.03125" />
    <object id="1082" gid="2147495743" x="10914.1" y="1535.06" width="5.03125" height="5.03125" />
    <object id="1083" gid="12104" x="10921.2" y="1545.72" width="11.125" height="20" />
    <object id="1084" gid="2147495752" x="10917.7" y="1534.71" width="7.64674" height="17.4348" />
    <object id="1096" gid="12104" x="10643.8" y="1783.01" width="7.30682" height="16" />
    <object id="1102" gid="2147495746" x="10682.1" y="1554.53" width="5.03125" height="5.03125" />
    <object id="1103" gid="2147495743" x="10682.1" y="1549.49" width="5.03125" height="5.03125" />
    <object id="1104" gid="2147495752" x="10688.4" y="1529.91" width="7.25543" height="13.8696" />
    <object id="1105" gid="12104" x="10683.8" y="1523.82" width="6.30682" height="17.6364" />
    <object id="1106" gid="2147495746" x="10657.6" y="1817.82" width="5.03125" height="5.03125" />
    <object id="1107" gid="2147495743" x="10657.6" y="1812.78" width="5.03125" height="5.03125" />
    <object id="1108" gid="2147495746" x="10683.1" y="1846.1" width="5.03125" height="5.03125" />
    <object id="1109" gid="2147495743" x="10683.1" y="1841.06" width="5.03125" height="5.03125" />
    <object id="1110" gid="2147495746" x="10661.8" y="1842.82" width="5.03125" height="5.03125" />
    <object id="1111" gid="2147495743" x="10661.8" y="1837.78" width="5.03125" height="5.03125" />
    <object id="1112" gid="2147495752" x="10672.1" y="1841.18" width="11.125" height="20" />
    <object id="1113" gid="12104" x="10670.4" y="1852.55" width="5.48864" height="15.4545" />
    <object id="1114" gid="12104" x="10666" y="1832.83" width="4.82856" height="15.1621" />
    <object id="1115" gid="12104" x="10673.7" y="1828.82" width="7.03409" height="16.9091" />
    <object id="1116" gid="2147495752" x="10684.4" y="1835.73" width="8.30682" height="15.4545" />
    <object id="1117" gid="2147495740" x="10667" y="1814.09" width="6" height="6" />
    <object id="1118" gid="2147495737" x="10667" y="1808.09" width="6" height="6" />
    <object id="1119" gid="2147495740" x="10661.9" y="1807.09" width="6" height="6" />
    <object id="1120" gid="2147495737" x="10661.9" y="1801.09" width="6" height="6" />
    <object id="1122" gid="2147495752" x="10916.6" y="1788.82" width="8.125" height="17.8182" />
    <object id="1123" gid="2147495746" x="10984.1" y="1778.82" width="3.84943" height="3.84943" />
    <object id="1124" gid="2147495743" x="10984.1" y="1774.97" width="3.84943" height="3.84943" />
    <object id="1125" gid="2147495746" x="10913" y="1794.82" width="5.03125" height="5.03125" />
    <object id="1126" gid="2147495743" x="10913" y="1789.78" width="5.03125" height="5.03125" />
    <object id="1127" gid="12104" x="10922.7" y="1799.19" width="5.91947" height="14.1621" />
    <object id="1128" gid="2147495740" x="10980.4" y="1791.55" width="6" height="6" />
    <object id="1129" gid="2147495737" x="10980.4" y="1785.55" width="6" height="6" />
    <object id="1130" gid="2147495740" x="10976.8" y="1544.13" width="6.4375" height="6.4375" />
    <object id="1131" gid="2147495737" x="10976.8" y="1537.69" width="6.4375" height="6.4375" />
    <object id="1132" gid="2147495740" x="10963.9" y="1529" width="5.3125" height="5.3125" />
    <object id="1133" gid="2147495737" x="10963.9" y="1523.69" width="5.3125" height="5.3125" />
    <object id="1134" gid="12107" x="8571" y="667.833" width="48" height="48" />
    <object id="1135" gid="12108" x="8619" y="667.833" width="48" height="48" />
    <object id="1136" gid="12109" x="8667" y="667.833" width="48" height="48" />
    <object id="1137" gid="12116" x="8571" y="715.833" width="48" height="48" />
    <object id="1138" gid="12126" x="8619" y="715.833" width="48" height="48" />
    <object id="1139" gid="12117" x="8619" y="715.833" width="48" height="48" />
    <object id="1140" gid="12118" x="8667" y="715.833" width="48" height="48" />
    <object id="1141" gid="12125" x="8571" y="763.833" width="48" height="48" />
    <object id="1142" gid="12126" x="8619" y="763.833" width="48" height="48" />
    <object id="1143" gid="12127" x="8667" y="763.833" width="48" height="48" />
    <object id="1144" gid="12107" x="8570" y="2594" width="48" height="48" />
    <object id="1145" gid="12108" x="8618" y="2594" width="48" height="48" />
    <object id="1146" gid="12109" x="8666" y="2594" width="48" height="48" />
    <object id="1147" gid="12116" x="8570" y="2642" width="48" height="48" />
    <object id="1148" gid="12126" x="8618" y="2642" width="48" height="48" />
    <object id="1149" gid="12117" x="8618" y="2642" width="48" height="48" />
    <object id="1150" gid="12118" x="8666" y="2642" width="48" height="48" />
    <object id="1151" gid="12125" x="8570" y="2690" width="48" height="48" />
    <object id="1152" gid="12126" x="8618" y="2690" width="48" height="48" />
    <object id="1153" gid="12127" x="8666" y="2690" width="48" height="48" />
    <object id="1154" gid="12107" x="6170" y="2594" width="48" height="48" />
    <object id="1155" gid="12108" x="6218" y="2594" width="48" height="48" />
    <object id="1156" gid="12109" x="6266" y="2594" width="48" height="48" />
    <object id="1157" gid="12116" x="6170" y="2642" width="48" height="48" />
    <object id="1158" gid="12126" x="6218" y="2642" width="48" height="48" />
    <object id="1159" gid="12117" x="6218" y="2642" width="48" height="48" />
    <object id="1160" gid="12118" x="6266" y="2642" width="48" height="48" />
    <object id="1161" gid="12125" x="6170" y="2690" width="48" height="48" />
    <object id="1162" gid="12126" x="6218" y="2690" width="48" height="48" />
    <object id="1163" gid="12127" x="6266" y="2690" width="48" height="48" />
    <object id="1164" gid="12107" x="6169.33" y="678.667" width="48" height="48" />
    <object id="1165" gid="12108" x="6217.33" y="678.667" width="48" height="48" />
    <object id="1166" gid="12109" x="6265.33" y="678.667" width="48" height="48" />
    <object id="1167" gid="12116" x="6169.33" y="726.667" width="48" height="48" />
    <object id="1168" gid="12126" x="6217.33" y="726.667" width="48" height="48" />
    <object id="1169" gid="12117" x="6217.33" y="726.667" width="48" height="48" />
    <object id="1170" gid="12118" x="6265.33" y="726.667" width="48" height="48" />
    <object id="1171" gid="12125" x="6169.33" y="774.667" width="48" height="48" />
    <object id="1172" gid="12126" x="6217.33" y="774.667" width="48" height="48" />
    <object id="1173" gid="12127" x="6265.33" y="774.667" width="48" height="48" />
    <object id="1176" gid="11097" x="7729.67" y="1530" width="23.3333" height="23.3333" />
    <object id="1177" gid="11098" x="7753" y="1530" width="23.3333" height="23.3333" />
    <object id="1178" gid="11113" x="7729.67" y="1553.33" width="23.3333" height="23.3333" />
    <object id="1180" gid="11114" x="7753" y="1553.33" width="23.3333" height="23.3333" />
    <object id="1182" gid="11097" x="7105.67" y="1532.92" width="23.3333" height="23.3333" />
    <object id="1183" gid="11098" x="7129" y="1532.92" width="23.3333" height="23.3333" />
    <object id="1184" gid="11113" x="7105.67" y="1556.25" width="23.3333" height="23.3333" />
    <object id="1185" gid="11114" x="7129" y="1556.25" width="23.3333" height="23.3333" />
    <object id="1186" gid="11097" x="7104.67" y="1868.92" width="23.3333" height="23.3333" />
    <object id="1187" gid="11098" x="7128" y="1868.92" width="23.3333" height="23.3333" />
    <object id="1188" gid="11113" x="7104.67" y="1892.25" width="23.3333" height="23.3333" />
    <object id="1189" gid="11114" x="7128" y="1892.25" width="23.3333" height="23.3333" />
    <object id="1190" gid="11097" x="7728.29" y="1866.42" width="23.3333" height="23.3333" />
    <object id="1191" gid="11098" x="7751.62" y="1866.42" width="23.3333" height="23.3333" />
    <object id="1192" gid="11113" x="7728.29" y="1889.75" width="23.3333" height="23.3333" />
    <object id="1193" gid="11114" x="7751.62" y="1889.75" width="23.3333" height="23.3333" />
    <object id="1194" gid="2147494809" x="7721.75" y="1556.88" width="14" height="12.875" />
    <object id="1255" gid="12135" x="13631" y="1633.5" width="48" height="48" />
    <object id="1256" gid="12134" x="13583" y="1633.5" width="48" height="48" />
    <object id="1257" gid="12136" x="13679" y="1633.5" width="48" height="48" />
    <object id="1258" gid="12143" x="13583" y="1681.5" width="48" height="48" />
    <object id="1259" gid="12144" x="13631" y="1681.5" width="48" height="48" />
    <object id="1260" gid="12145" x="13679" y="1681.5" width="48" height="48" />
    <object id="1261" gid="12152" x="13583" y="1729.5" width="48" height="48" />
    <object id="1262" gid="12153" x="13631" y="1729.5" width="48" height="48" />
    <object id="1263" gid="12154" x="13679" y="1729.5" width="48" height="48" />
    <object id="1264" gid="2147495783" x="1201" y="1631.5" width="48" height="48" />
    <object id="1265" gid="2147495782" x="1249" y="1631.5" width="48" height="48" />
    <object id="1266" gid="2147495784" x="1153" y="1631.5" width="48" height="48" />
    <object id="1267" gid="2147495791" x="1249" y="1679.5" width="48" height="48" />
    <object id="1268" gid="2147495792" x="1201" y="1679.5" width="48" height="48" />
    <object id="1269" gid="2147495793" x="1153" y="1679.5" width="48" height="48" />
    <object id="1270" gid="2147495800" x="1249" y="1727.5" width="48" height="48" />
    <object id="1271" gid="2147495801" x="1201" y="1727.5" width="48" height="48" />
    <object id="1272" gid="2147495802" x="1153" y="1727.5" width="48" height="48" />
    <object id="1281" gid="2147494808" x="12762" y="51.3333" width="32.6667" height="30.6667" />
    <object id="1283" gid="17832" x="12576" y="2373" width="48" height="48" />
    <object id="1284" gid="17848" x="12576" y="2421" width="48" height="48" />
    <object id="1285" gid="17847" x="12336" y="2421" width="48" height="48" />
    <object id="1286" gid="17831" x="12336" y="2373" width="48" height="48" />
    <object id="1296" gid="17943" x="12432" y="2405" width="48" height="48" />
    <object id="1297" gid="17945" x="12480" y="2405" width="48" height="48" />
    <object id="1298" gid="7105" x="12461.3" y="2383.33" width="36.6667" height="35.6667" />
    <object id="1302" gid="7040" x="12491.3" y="2382" width="30.6667" height="30" />
    <object id="1303" gid="6945" x="12443.3" y="2370.33" width="23.6667" height="25.6667" />
    <object id="1304" gid="17833" x="2496" y="2378.5" width="48" height="48" />
    <object id="1305" gid="17849" x="2496" y="2426.5" width="48" height="48" />
    <object id="1306" gid="17850" x="2256" y="2426.5" width="48" height="48" />
    <object id="1307" gid="17834" x="2256" y="2378.5" width="48" height="48" />
    <object id="1308" gid="17943" x="2352" y="2410.5" width="48" height="48" />
    <object id="1309" gid="17945" x="2400" y="2410.5" width="48" height="48" />
    <object id="1310" gid="7105" x="2381.3" y="2388.83" width="36.6667" height="35.6667" />
    <object id="1311" gid="7068" x="2352.7" y="2440.17" width="48" height="48" />
    <object id="1312" gid="7069" x="2400.7" y="2440.17" width="48" height="48" />
    <object id="1313" gid="7040" x="2411.3" y="2387.5" width="30.6667" height="30" />
    <object id="1314" gid="6945" x="2363.3" y="2375.83" width="23.6667" height="25.6667" />
    <object id="1315" gid="11129" x="12441.1" y="2423.45" width="40.1818" height="40.1818" />
    <object id="1316" gid="11130" x="12481.3" y="2423.45" width="40.1818" height="40.1818" />
  </objectgroup>
  <objectgroup id="11" name="Object Layer 1" locked="1">
    <object id="3" gid="11094" x="7230.09" y="-4260.25" width="48" height="48" />
    <object id="6" gid="11094" x="7230.09" y="-4163" width="48" height="48" />
    <object id="4" gid="11110" x="7230.09" y="-4212.75" width="48" height="47.5" />
    <object id="5" gid="11110" x="7230.09" y="-4115.5" width="48" height="47.5" />
    <object id="7" gid="11094" x="7230.09" y="-4024.5" width="48" height="48" />
    <object id="8" gid="11110" x="7230.09" y="-3977" width="48" height="47.5" />
    <object id="9" gid="11094" x="7230.09" y="-3928.5" width="48" height="48" />
    <object id="10" gid="11110" x="7230.09" y="-3881" width="48" height="47.5" />
    <object id="11" gid="11094" x="7230.09" y="-3782.25" width="48" height="48" />
    <object id="12" gid="11110" x="7230.09" y="-3734.75" width="48" height="47.5" />
    <object id="13" gid="11094" x="7230.09" y="-3684" width="48" height="48" />
    <object id="14" gid="11110" x="7230.09" y="-3636.5" width="48" height="47.5" />
    <object id="15" gid="11094" x="7230.09" y="-3540.5" width="48" height="48" />
    <object id="16" gid="11110" x="7230.09" y="-3493" width="48" height="47.5" />
    <object id="17" gid="11094" x="7230.09" y="-3448.75" width="48" height="48" />
    <object id="18" gid="11110" x="7230.09" y="-3401.25" width="48" height="47.5" />
    <object id="19" gid="11094" x="7230.09" y="-3301" width="48" height="48" />
    <object id="20" gid="11110" x="7230.09" y="-3253.5" width="48" height="47.5" />
    <object id="21" gid="11094" x="7230.09" y="-3205" width="48" height="48" />
    <object id="22" gid="11110" x="7230.09" y="-3157.5" width="48" height="47.5" />
    <object id="23" gid="11094" x="7230.09" y="-3062.5" width="48" height="48" />
    <object id="24" gid="11110" x="7230.09" y="-3015" width="48" height="47.5" />
    <object id="25" gid="11094" x="7230.09" y="-2965" width="48" height="48" />
    <object id="26" gid="11110" x="7230.09" y="-2917.5" width="48" height="47.5" />
    <object id="51" gid="7036" x="7344.98" y="-4597.77" width="48" height="48" />
    <object id="52" gid="7037" x="7392.98" y="-4597.81" width="48" height="48" />
    <object id="53" gid="7037" x="7440.23" y="-4597.68" width="48" height="48" />
    <object id="54" gid="7038" x="7488.1" y="-4597.81" width="48" height="48" />
    <object id="588" gid="11094" x="7597.64" y="-4260.33" width="48" height="48" />
    <object id="589" gid="11094" x="7597.64" y="-4163.08" width="48" height="48" />
    <object id="590" gid="11110" x="7597.64" y="-4212.83" width="48" height="47.5" />
    <object id="591" gid="11110" x="7597.64" y="-4115.58" width="48" height="47.5" />
    <object id="592" gid="11094" x="7597.64" y="-4024.58" width="48" height="48" />
    <object id="593" gid="11110" x="7597.64" y="-3977.08" width="48" height="47.5" />
    <object id="594" gid="11094" x="7597.64" y="-3928.58" width="48" height="48" />
    <object id="595" gid="11110" x="7597.64" y="-3881.08" width="48" height="47.5" />
    <object id="596" gid="11094" x="7597.64" y="-3782.33" width="48" height="48" />
    <object id="597" gid="11110" x="7597.64" y="-3734.83" width="48" height="47.5" />
    <object id="598" gid="11094" x="7597.64" y="-3684.08" width="48" height="48" />
    <object id="599" gid="11110" x="7597.64" y="-3636.58" width="48" height="47.5" />
    <object id="600" gid="11094" x="7597.64" y="-3540.58" width="48" height="48" />
    <object id="601" gid="11110" x="7597.64" y="-3493.08" width="48" height="47.5" />
    <object id="602" gid="11094" x="7597.64" y="-3448.83" width="48" height="48" />
    <object id="603" gid="11110" x="7597.64" y="-3401.33" width="48" height="47.5" />
    <object id="604" gid="11094" x="7597.64" y="-3301.08" width="48" height="48" />
    <object id="605" gid="11110" x="7597.64" y="-3253.58" width="48" height="47.5" />
    <object id="606" gid="11094" x="7597.64" y="-3205.08" width="48" height="48" />
    <object id="607" gid="11110" x="7597.64" y="-3157.58" width="48" height="47.5" />
    <object id="608" gid="11094" x="7597.64" y="-3062.58" width="48" height="48" />
    <object id="609" gid="11110" x="7597.64" y="-3015.08" width="48" height="47.5" />
    <object id="610" gid="11094" x="7597.64" y="-2965.08" width="48" height="48" />
    <object id="611" gid="11110" x="7597.64" y="-2917.58" width="48" height="47.5" />
    <object id="781" gid="12104" x="3935.62" y="1779.73" width="11.125" height="20" />
    <object id="857" gid="12098" x="3938.61" y="1790.32" width="5.03125" height="5.03125" />
    <object id="794" gid="12092" x="3948.55" y="1785.36" width="6" height="6" />
    <object id="792" gid="12092" x="3963.82" y="1808.73" width="6" height="6" />
    <object id="782" gid="12104" x="3938.53" y="1815.82" width="11.125" height="20" />
    <object id="855" gid="12098" x="3946.36" y="1825.32" width="5.03125" height="5.03125" />
    <object id="796" gid="12092" x="3948" y="1840.64" width="6" height="6" />
    <object id="853" gid="12098" x="3961.92" y="1844.44" width="5.03125" height="5.03125" />
    <object id="783" gid="2147495752" x="3950.44" y="1852.91" width="11.125" height="20" />
    <object id="780" gid="2147495752" x="3979.35" y="1849.91" width="11.125" height="20" />
    <object id="797" gid="12089" x="3948" y="1834.64" width="6" height="6" />
    <object id="854" gid="12095" x="3946.36" y="1820.28" width="5.03125" height="5.03125" />
    <object id="795" gid="12089" x="3948.55" y="1779.36" width="6" height="6" />
    <object id="856" gid="12095" x="3938.61" y="1785.28" width="5.03125" height="5.03125" />
    <object id="852" gid="12095" x="3961.92" y="1839.4" width="5.03125" height="5.03125" />
    <object id="851" gid="12098" x="3971.05" y="1852.82" width="5.03125" height="5.03125" />
    <object id="850" gid="12095" x="3971.05" y="1847.78" width="5.03125" height="5.03125" />
    <object id="798" gid="12092" x="3966.33" y="1864.98" width="6.35938" height="6.35938" />
    <object id="799" gid="12089" x="3966.33" y="1858.62" width="6.35938" height="6.35938" />
    <object id="793" gid="12089" x="3963.82" y="1802.73" width="6" height="6" />
    <object id="764" gid="2147495752" x="3961.5" y="1493" width="11.125" height="20" />
    <object id="836" gid="12095" x="3955.11" y="1490.09" width="5.03125" height="5.03125" />
    <object id="837" gid="12098" x="3955.11" y="1495.13" width="5.03125" height="5.03125" />
    <object id="770" gid="12104" x="3949.19" y="1529.75" width="11.125" height="20" />
    <object id="784" gid="2147495740" x="3959.82" y="1515.36" width="6" height="6" />
    <object id="785" gid="2147495737" x="3959.82" y="1509.36" width="6" height="6" />
    <object id="790" gid="12092" x="3946.01" y="1516.89" width="6" height="6" />
    <object id="791" gid="12089" x="3946.01" y="1510.89" width="6" height="6" />
    <object id="771" gid="2147495752" x="3894.19" y="1552.88" width="11.125" height="20" />
    <object id="835" gid="12098" x="3906.33" y="1558.35" width="5.03125" height="5.03125" />
    <object id="834" gid="12095" x="3906.33" y="1553.31" width="5.03125" height="5.03125" />
    <object id="786" gid="12092" x="3916.91" y="1553.82" width="6" height="6" />
    <object id="787" gid="12089" x="3916.91" y="1547.82" width="6" height="6" />
    <object id="832" gid="2147495746" x="3927.97" y="1564.25" width="5.03125" height="5.03125" />
    <object id="831" gid="2147495743" x="3927.97" y="1559.22" width="5.03125" height="5.03125" />
    <object id="788" gid="12092" x="3902" y="1570.45" width="6" height="6" />
    <object id="789" gid="12089" x="3902" y="1564.45" width="6" height="6" />
    <object id="772" gid="12104" x="3935.06" y="1569.88" width="11.125" height="20" />
    <object id="839" gid="2147495746" x="4201.73" y="1495.75" width="5.03125" height="5.03125" />
    <object id="838" gid="2147495743" x="4201.73" y="1490.71" width="5.03125" height="5.03125" />
    <object id="810" gid="12092" x="4192.07" y="1500.13" width="6" height="6" />
    <object id="811" gid="12089" x="4192.07" y="1494.13" width="6" height="6" />
    <object id="774" gid="12104" x="4209.77" y="1504.55" width="11.125" height="20" />
    <object id="773" gid="2147495752" x="4210.69" y="1558.88" width="8.99457" height="16.9565" />
    <object id="808" gid="12092" x="4201.26" y="1526.21" width="6" height="6" />
    <object id="814" gid="12098" x="4197.68" y="1519.81" width="4.72727" height="4.72727" />
    <object id="775" gid="12104" x="4241.19" y="1548.06" width="11.125" height="20" />
    <object id="841" gid="2147495746" x="4254.75" y="1550.44" width="4.46649" height="4.46649" />
    <object id="812" gid="12092" x="4236.22" y="1557.72" width="6.63043" height="6.63043" />
    <object id="840" gid="2147495743" x="4254.75" y="1545.97" width="4.46649" height="4.46649" />
    <object id="809" gid="12089" x="4201.26" y="1520.21" width="6" height="6" />
    <object id="815" gid="12095" x="4197.68" y="1515.09" width="4.72727" height="4.72727" />
    <object id="813" gid="12089" x="4236.22" y="1551.08" width="6.63043" height="6.63043" />
    <object id="816" gid="12092" x="4216.31" y="1568.69" width="6" height="6" />
    <object id="806" gid="2147495740" x="4232.27" y="1788.45" width="6" height="6" />
    <object id="807" gid="2147495737" x="4232.27" y="1782.45" width="6" height="6" />
    <object id="802" gid="12092" x="4221" y="1793.91" width="6" height="6" />
    <object id="803" gid="12089" x="4221" y="1787.91" width="6" height="6" />
    <object id="777" gid="2147495752" x="4217.62" y="1819.36" width="11.125" height="20" />
    <object id="776" gid="12104" x="4193.88" y="1799.07" width="9.21875" height="17.5938" />
    <object id="804" gid="12092" x="4209" y="1843.45" width="6" height="6" />
    <object id="805" gid="12089" x="4209" y="1837.45" width="6" height="6" />
    <object id="778" gid="2147495752" x="4185.16" y="1841" width="11.125" height="20" />
    <object id="779" gid="12104" x="4197.44" y="1872.18" width="11.125" height="20" />
    <object id="845" gid="12098" x="4201.61" y="1823.94" width="5.03125" height="5.03125" />
    <object id="847" gid="2147495746" x="4197.73" y="1847.63" width="5.03125" height="5.03125" />
    <object id="846" gid="2147495743" x="4197.73" y="1842.6" width="5.03125" height="5.03125" />
    <object id="844" gid="12095" x="4201.61" y="1818.9" width="5.03125" height="5.03125" />
    <object id="849" gid="12098" x="4216.23" y="1853.38" width="5.03125" height="5.03125" />
    <object id="848" gid="12095" x="4216.23" y="1848.34" width="5.03125" height="5.03125" />
    <object id="858" gid="12092" x="3933.78" y="1801.91" width="6" height="6" />
    <object id="859" gid="12089" x="3933.78" y="1795.91" width="6" height="6" />
    <object id="860" gid="12092" x="3970.56" y="1840.97" width="6" height="6" />
    <object id="861" gid="12089" x="3970.56" y="1834.97" width="6" height="6" />
    <object id="862" gid="2147495740" x="3905.74" y="1546.74" width="6" height="6" />
    <object id="863" gid="2147495737" x="3905.74" y="1540.74" width="6" height="6" />
    <object id="864" gid="2147495740" x="3974.91" y="1498.48" width="6" height="6" />
    <object id="865" gid="2147495737" x="3974.91" y="1492.48" width="6" height="6" />
    <object id="866" gid="2147495740" x="4209.26" y="1515.04" width="6" height="6" />
    <object id="867" gid="2147495737" x="4209.26" y="1509.04" width="6" height="6" />
    <object id="868" gid="12092" x="4248.96" y="1539.87" width="6" height="6" />
    <object id="869" gid="12089" x="4248.96" y="1533.87" width="6" height="6" />
    <object id="870" gid="12104" x="4214.96" y="1807.17" width="6.95652" height="11.9565" />
    <object id="872" gid="2147495752" x="4211.7" y="1831.41" width="6.95652" height="11.9565" />
    <object id="873" gid="2147495752" x="4191.7" y="1828.41" width="6.95652" height="13.7826" />
    <object id="874" gid="2147495740" x="4191.7" y="1861.78" width="6" height="6" />
    <object id="875" gid="2147495737" x="4191.7" y="1855.78" width="6" height="6" />
    <object id="876" gid="2147495740" x="4210.38" y="1814.31" width="6" height="6" />
    <object id="877" gid="2147495737" x="4210.38" y="1808.31" width="6" height="6" />
    <object id="880" gid="2147495746" x="4212.92" y="1865.44" width="5.03125" height="5.03125" />
    <object id="881" gid="2147495743" x="4212.92" y="1860.4" width="5.03125" height="5.03125" />
    <object id="882" gid="2147495746" x="4191.08" y="1804.41" width="5.03125" height="5.03125" />
    <object id="883" gid="2147495743" x="4191.08" y="1799.37" width="5.03125" height="5.03125" />
    <object id="884" gid="12104" x="4198.44" y="1837.72" width="11.125" height="20" />
    <object id="885" gid="12104" x="4205.66" y="1797.56" width="11.125" height="20" />
    <object id="886" gid="2147495752" x="4221.47" y="1781.19" width="5.6875" height="12.5938" />
    <object id="887" gid="12098" x="4212.64" y="1784.22" width="5.03125" height="5.03125" />
    <object id="888" gid="12095" x="4212.64" y="1779.18" width="5.03125" height="5.03125" />
    <object id="889" gid="12098" x="4217.45" y="1804.32" width="5.24924" height="5.24924" />
    <object id="890" gid="12095" x="4217.45" y="1799.06" width="5.24924" height="5.24924" />
    <object id="891" gid="12098" x="4229.64" y="1799.41" width="5.03125" height="5.03125" />
    <object id="892" gid="12095" x="4229.64" y="1794.37" width="5.03125" height="5.03125" />
    <object id="893" gid="12104" x="4194.94" y="1851.41" width="7.21875" height="14.5938" />
    <object id="894" gid="2147495752" x="4203.56" y="1847.75" width="7.71875" height="15.4063" />
    <object id="895" gid="12087" x="3943.75" y="1846.56" width="4.375" height="4.375" />
    <object id="896" gid="12084" x="3943.75" y="1842.19" width="4.375" height="4.375" />
    <object id="897" gid="12087" x="4205.28" y="1858.41" width="4.37292" height="4.37292" />
    <object id="898" gid="12084" x="4205.28" y="1854.03" width="4.37292" height="4.37292" />
    <object id="899" gid="2147495735" x="4201.44" y="1808.44" width="4.40413" height="4.40413" />
    <object id="900" gid="2147495732" x="4201.44" y="1804.03" width="4.40413" height="4.40413" />
    <object id="901" gid="12087" x="3929.38" y="1782" width="5.0595" height="5.0595" />
    <object id="902" gid="12084" x="3929.38" y="1776.93" width="5.0595" height="5.0595" />
    <object id="903" gid="12104" x="3944.69" y="1798.25" width="7.53125" height="17.3438" />
    <object id="904" gid="12104" x="3924.09" y="1794.22" width="6.71875" height="18.4063" />
    <object id="905" gid="2147495746" x="3954.45" y="1803.88" width="4.8125" height="4.8125" />
    <object id="906" gid="2147495743" x="3954.45" y="1799.06" width="4.8125" height="4.8125" />
    <object id="907" gid="12087" x="3936.59" y="1821.15" width="4.375" height="4.375" />
    <object id="908" gid="12084" x="3936.59" y="1816.78" width="4.375" height="4.375" />
    <object id="909" gid="12087" x="3959.56" y="1797.18" width="4.375" height="4.375" />
    <object id="910" gid="12084" x="3959.56" y="1792.82" width="4.375" height="4.375" />
    <object id="911" gid="12104" x="3957.88" y="1857.13" width="5.3125" height="20" />
    <object id="912" gid="2147495752" x="3978.13" y="1861.09" width="6.9375" height="17.9375" />
    <object id="913" gid="2147495752" x="3931.65" y="1558.87" width="7.64674" height="17.4348" />
    <object id="914" gid="2147495752" x="3893.48" y="1562.43" width="4.7337" height="16.0435" />
    <object id="915" gid="12104" x="3911.39" y="1567.22" width="11.125" height="20" />
    <object id="916" gid="2147495743" x="3972.44" y="1504.75" width="5.03125" height="5.03125" />
    <object id="917" gid="2147495746" x="3972.44" y="1509.79" width="5.03125" height="5.03125" />
    <object id="918" gid="12095" x="3941.57" y="1518.14" width="5.03125" height="5.03125" />
    <object id="919" gid="12098" x="3941.57" y="1523.18" width="5.03125" height="5.03125" />
    <object id="920" gid="2147495752" x="3950" y="1507.96" width="8.08152" height="20" />
    <object id="921" gid="12104" x="3962.87" y="1504.74" width="7.64674" height="20" />
    <object id="922" gid="2147495752" x="4210.03" y="1530.94" width="9" height="15.4063" />
    <object id="924" gid="12098" x="4233.11" y="1568.87" width="5.03149" height="5.03149" />
    <object id="925" gid="12095" x="4233.11" y="1563.84" width="5.03149" height="5.03149" />
    <object id="926" gid="2147495746" x="4237.38" y="1544.74" width="4.46649" height="4.46649" />
    <object id="927" gid="2147495743" x="4237.38" y="1540.27" width="4.46649" height="4.46649" />
    <object id="928" gid="2147495746" x="4206.9" y="1563.7" width="4.46649" height="4.46649" />
    <object id="929" gid="2147495743" x="4206.9" y="1559.23" width="4.46649" height="4.46649" />
    <object id="930" gid="12098" x="4207.03" y="1518.7" width="4.46649" height="4.46649" />
    <object id="931" gid="12095" x="4207.03" y="1514.23" width="4.46649" height="4.46649" />
    <object id="932" gid="12104" x="4185" y="1512.61" width="11.125" height="20" />
    <object id="933" gid="12104" x="4221.44" y="1562.17" width="11.125" height="20" />
    <object id="934" gid="2147495752" x="4243.22" y="1565.65" width="9.47283" height="17" />
    <object id="937" gid="12089" x="4216.06" y="1562.8" width="6.63043" height="6.63043" />
    <object id="938" gid="12092" x="4227.04" y="1549.87" width="6.63043" height="6.63043" />
    <object id="939" gid="12089" x="4227.04" y="1543.23" width="6.63043" height="6.63043" />
    <object id="940" gid="12092" x="4247.61" y="1552.52" width="6" height="6" />
    <object id="941" gid="12089" x="4247.61" y="1546.52" width="6" height="6" />
    <object id="942" gid="12092" x="4201.09" y="1508.13" width="6" height="6" />
    <object id="943" gid="12089" x="4201.09" y="1502.13" width="6" height="6" />
  </objectgroup>
  <layer id="3" name="Tile Layer 3" width="30" height="20" locked="1">
    <data encoding="csv">
      <chunk x="144" y="-112" width="16" height="16">
0,0,0,0,0,0,0,0,0,0,0,0,0,0,0,0,
0,0,0,0,0,0,0,0,0,0,0,0,0,0,0,0,
0,0,0,0,0,0,0,0,0,0,0,0,0,0,0,0,
0,0,0,0,0,0,0,0,0,0,0,0,0,0,0,0,
0,0,0,0,0,0,0,0,0,0,0,0,0,0,0,0,
0,0,0,0,0,0,0,0,0,0,0,0,0,0,0,0,
0,0,0,0,0,0,0,0,0,0,0,0,0,0,0,0,
0,0,0,0,0,0,0,0,0,0,0,0,0,0,0,0,
0,0,0,0,0,0,0,0,0,0,0,0,0,0,0,0,
0,0,0,0,0,0,0,0,0,0,0,0,0,0,0,0,
0,0,0,0,0,0,0,0,0,0,0,0,0,0,0,0,
0,0,0,0,0,0,0,0,0,0,0,0,0,0,0,0,
0,0,0,0,0,0,0,0,0,0,0,0,0,0,0,0,
0,0,0,0,0,0,0,0,0,0,0,0,0,0,0,0,
0,0,0,0,0,0,0,0,0,0,0,0,0,0,0,0,
0,0,0,0,0,0,0,0,0,0,0,0,11262,11262,0,0
</chunk>
      <chunk x="144" y="-96" width="16" height="16">
0,0,0,0,0,0,0,0,0,0,0,0,11262,0,0,0,
0,0,0,0,0,0,0,0,0,0,0,0,0,0,0,0,
0,0,0,0,0,0,0,0,0,0,0,0,0,0,0,0,
0,0,0,0,0,0,0,0,0,0,0,0,0,0,0,0,
0,0,0,0,0,0,0,0,0,0,0,0,0,0,0,0,
0,0,0,0,0,0,0,0,0,0,0,0,0,0,0,0,
0,0,0,0,0,0,0,0,0,0,0,0,0,0,0,0,
0,0,0,0,0,0,0,0,0,0,0,0,0,0,0,0,
0,0,0,0,0,0,0,0,0,0,0,0,0,0,0,0,
0,0,0,0,0,0,0,0,0,0,0,0,0,0,0,0,
0,0,0,0,0,0,0,0,0,0,0,0,0,0,0,0,
0,0,0,0,0,0,0,0,0,0,0,0,0,0,0,0,
0,0,0,0,0,0,0,0,0,0,0,0,0,0,0,0,
0,0,0,0,0,0,0,0,0,0,0,0,0,0,0,0,
0,0,0,0,0,0,0,0,0,0,0,0,0,0,0,0,
0,0,0,0,0,0,0,0,0,0,0,0,0,0,0,0
</chunk>
      <chunk x="48" y="-80" width="16" height="16">
0,0,0,0,0,0,0,0,0,0,0,0,0,0,0,0,
0,0,0,0,0,0,0,0,0,0,0,0,0,0,0,0,
0,0,0,0,0,0,0,0,0,0,0,0,0,0,0,0,
0,0,0,0,0,0,0,0,0,0,0,0,0,0,0,0,
0,0,0,0,0,0,0,0,0,0,0,0,0,0,0,0,
0,0,0,0,0,0,0,0,0,0,0,0,0,0,0,0,
0,0,0,0,0,0,0,0,0,0,0,0,0,0,0,0,
0,0,0,0,0,0,0,0,0,0,0,0,0,0,0,0,
0,0,0,0,0,0,0,0,0,0,0,0,0,0,0,0,
0,0,6596,6549,6549,6549,6549,6549,6549,6549,6549,6549,6549,6549,6549,6549,
0,0,6870,0,0,0,0,0,0,0,0,0,0,0,0,0,
0,0,6546,0,0,0,0,0,0,0,0,0,0,0,0,0,
0,0,6546,0,0,0,0,0,0,0,0,0,0,0,0,0,
0,0,6546,0,0,0,0,0,0,0,0,0,0,0,0,0,
0,0,6546,0,0,0,0,0,0,0,0,0,0,0,0,0,
0,0,6546,0,0,0,0,0,0,0,0,0,0,0,0,0
</chunk>
      <chunk x="64" y="-80" width="16" height="16">
0,0,0,0,0,0,0,0,0,0,0,0,0,0,0,0,
0,0,0,0,0,0,0,0,0,0,0,0,0,0,0,0,
0,0,0,0,0,0,0,0,0,0,0,0,0,0,0,0,
0,0,0,0,0,0,0,0,0,0,0,0,0,0,0,0,
0,0,0,0,0,0,0,0,0,0,0,0,0,0,0,0,
0,0,0,0,0,0,0,0,0,0,0,0,0,0,0,0,
0,0,0,0,0,0,0,0,0,0,0,0,0,0,0,0,
0,0,0,0,0,0,0,0,0,0,0,0,0,0,0,0,
0,0,0,0,0,0,0,0,0,0,0,0,0,0,0,0,
6549,6549,6549,6549,6549,6549,6549,6549,6549,6549,6549,6549,6549,6549,6549,6549,
0,0,0,0,0,0,0,0,0,0,0,0,0,0,0,0,
0,0,0,0,0,0,0,0,0,0,0,0,0,0,0,0,
0,0,0,0,0,0,0,0,0,0,0,0,0,0,0,0,
0,0,0,0,0,0,0,0,0,0,0,0,0,0,0,0,
0,0,0,0,0,0,0,0,0,0,0,0,0,0,0,0,
0,0,0,0,0,0,0,0,0,0,0,0,0,0,0,0
</chunk>
      <chunk x="80" y="-80" width="16" height="16">
0,0,0,0,0,0,0,0,0,0,0,0,0,0,0,0,
0,0,0,0,0,0,0,0,0,0,0,0,0,0,0,0,
0,0,0,0,0,0,0,0,0,0,0,0,0,0,0,0,
0,0,0,0,0,0,0,0,0,0,0,0,0,0,0,0,
0,0,0,0,0,0,0,0,0,0,0,0,0,0,0,0,
0,0,0,0,0,0,0,0,0,0,0,0,0,0,0,0,
0,0,0,0,0,0,0,0,0,0,0,0,0,0,0,0,
0,0,0,0,0,0,0,0,0,0,0,0,0,0,0,0,
0,0,0,0,0,0,0,0,0,0,0,0,0,0,0,0,
6549,6549,6549,6549,6549,6549,6549,6549,6549,6549,6549,6549,6549,6549,6549,6549,
0,0,0,0,0,0,0,0,0,0,0,0,0,0,0,0,
0,0,0,0,0,0,0,0,0,0,0,0,0,0,0,0,
0,0,0,0,0,0,0,0,0,0,0,0,0,0,0,0,
0,0,0,0,0,0,0,0,0,0,0,0,0,0,0,0,
0,0,0,0,0,0,0,0,0,0,0,0,0,0,0,0,
0,0,0,0,0,0,0,0,0,0,0,0,0,0,0,0
</chunk>
      <chunk x="96" y="-80" width="16" height="16">
0,0,0,0,0,0,0,0,0,0,0,0,0,0,0,0,
0,0,0,0,0,0,0,0,0,0,0,0,0,0,0,0,
0,0,0,0,0,0,0,0,0,0,0,0,0,0,0,0,
0,0,0,0,0,0,0,0,0,0,0,0,0,0,0,0,
0,0,0,0,0,0,0,0,0,0,0,0,0,0,0,0,
0,0,0,0,0,0,0,0,0,0,0,0,0,0,0,0,
0,0,0,0,0,0,0,0,0,0,0,0,0,0,0,0,
0,0,0,0,0,0,0,0,0,0,0,0,0,0,0,0,
0,0,0,0,0,0,0,0,0,0,0,0,0,0,0,0,
6549,6549,6549,6549,6549,6549,6549,6549,6549,6549,6549,6549,6549,6549,6549,6549,
0,0,0,0,0,0,0,0,0,0,0,0,0,0,0,0,
0,0,0,0,0,0,0,0,0,0,0,0,0,0,0,0,
0,0,0,0,0,0,0,0,0,0,0,0,0,0,0,0,
0,0,0,0,0,0,0,0,0,0,0,0,0,0,0,0,
0,0,0,0,0,0,0,0,0,0,0,0,0,0,0,0,
0,0,0,0,0,0,0,0,0,0,0,0,0,0,0,0
</chunk>
      <chunk x="112" y="-80" width="16" height="16">
0,0,0,0,0,0,0,0,0,0,0,0,0,0,0,0,
0,0,0,0,0,0,0,0,0,0,0,0,0,0,0,0,
0,0,0,0,0,0,0,0,0,0,0,0,0,0,0,0,
0,0,0,0,0,0,0,0,0,0,0,0,0,0,0,0,
0,0,0,0,0,0,0,0,0,0,0,0,0,0,0,0,
0,0,0,0,0,0,0,0,0,0,0,0,0,0,0,0,
0,0,0,0,0,0,0,0,0,0,0,0,0,0,0,0,
0,0,0,0,0,0,0,0,0,0,0,0,0,0,0,0,
0,0,0,0,0,0,0,0,0,0,0,0,0,0,0,0,
6549,6549,6549,6549,6549,6549,6549,6549,0,0,0,0,0,0,0,0,
0,0,0,0,0,0,0,0,0,0,0,0,0,0,0,0,
0,0,0,0,0,0,0,0,0,0,0,0,0,0,0,0,
0,0,0,0,0,0,0,0,0,0,0,0,0,0,0,0,
0,0,0,0,0,0,0,0,0,0,0,0,0,0,0,0,
0,0,0,0,0,0,0,0,0,0,0,0,0,0,0,0,
0,0,0,0,0,0,0,0,0,0,0,0,0,0,0,0
</chunk>
      <chunk x="176" y="-80" width="16" height="16">
0,0,0,0,0,0,0,0,0,0,0,0,0,0,0,0,
0,0,0,0,0,0,0,0,0,0,0,0,0,0,0,0,
0,0,0,0,0,0,0,0,0,0,0,0,0,0,0,0,
0,0,0,0,0,0,0,0,0,0,0,0,0,0,0,0,
0,0,0,0,0,0,0,0,0,0,0,0,0,0,0,0,
0,0,0,0,0,0,0,0,0,0,0,0,0,0,0,0,
0,0,0,0,0,0,0,0,0,0,0,0,0,0,0,0,
0,0,0,0,0,0,0,0,0,0,0,0,0,0,0,0,
0,0,0,0,0,0,0,0,0,0,0,0,0,0,0,0,
0,0,0,0,0,0,0,0,0,0,0,0,0,0,6549,6549,
0,0,0,0,0,0,0,0,0,0,0,0,0,0,0,0,
0,0,0,0,0,0,0,0,0,0,0,0,0,0,0,0,
0,0,0,0,0,0,0,0,0,0,0,0,0,0,0,0,
0,0,0,0,0,0,0,0,0,0,0,0,0,0,0,0,
0,0,0,0,0,0,0,0,0,0,0,0,0,0,0,0,
0,0,0,0,0,0,0,0,0,0,0,0,0,0,0,0
</chunk>
      <chunk x="192" y="-80" width="16" height="16">
0,0,0,0,0,0,0,0,0,0,0,0,0,0,0,0,
0,0,0,0,0,0,0,0,0,0,0,0,0,0,0,0,
0,0,0,0,0,0,0,0,0,0,0,0,0,0,0,0,
0,0,0,0,0,0,0,0,0,0,0,0,0,0,0,0,
0,0,0,0,0,0,0,0,0,0,0,0,0,0,0,0,
0,0,0,0,0,0,0,0,0,0,0,0,0,0,0,0,
0,0,0,0,0,0,0,0,0,0,0,0,0,0,0,0,
0,0,0,0,0,0,0,0,0,0,0,0,0,0,0,0,
0,0,0,0,0,0,0,0,0,0,0,0,0,0,0,0,
6549,6549,6549,6549,6549,6549,6549,6549,6549,6549,6549,6549,6549,6549,6549,6549,
0,0,0,0,0,0,0,0,0,0,0,0,0,0,0,0,
0,0,0,0,0,0,0,0,0,0,0,0,0,0,0,0,
0,0,0,0,0,0,0,0,0,0,0,0,0,0,0,0,
0,0,0,0,0,0,0,0,0,0,0,0,0,0,0,0,
0,0,0,0,0,0,0,0,0,0,0,0,0,0,0,0,
0,0,0,0,0,0,0,0,0,0,0,0,0,0,0,0
</chunk>
      <chunk x="208" y="-80" width="16" height="16">
0,0,0,0,0,0,0,0,0,0,0,0,0,0,0,0,
0,0,0,0,0,0,0,0,0,0,0,0,0,0,0,0,
0,0,0,0,0,0,0,0,0,0,0,0,0,0,0,0,
0,0,0,0,0,0,0,0,0,0,0,0,0,0,0,0,
0,0,0,0,0,0,0,0,0,0,0,0,0,0,0,0,
0,0,0,0,0,0,0,0,0,0,0,0,0,0,0,0,
0,0,0,0,0,0,0,0,0,0,0,0,0,0,0,0,
0,0,0,0,0,0,0,0,0,0,0,0,0,0,0,0,
0,0,0,0,0,0,0,0,0,0,0,0,0,0,0,0,
6549,6549,6549,6549,6549,6549,6549,6549,6549,6549,6549,6549,6549,6549,6549,6549,
0,0,0,0,0,0,0,0,0,0,0,0,0,0,0,0,
0,0,0,0,0,0,0,0,0,0,0,0,0,0,0,0,
0,0,0,0,0,0,0,0,0,0,0,0,0,0,0,0,
0,0,0,0,0,0,0,0,0,0,0,0,0,0,0,0,
0,0,0,0,0,0,0,0,0,0,0,0,0,0,0,0,
0,0,0,0,0,0,0,0,0,0,0,0,0,0,0,0
</chunk>
      <chunk x="224" y="-80" width="16" height="16">
0,0,0,0,0,0,0,0,0,0,0,0,0,0,0,0,
0,0,0,0,0,0,0,0,0,0,0,0,0,0,0,0,
0,0,0,0,0,0,0,0,0,0,0,0,0,0,0,0,
0,0,0,0,0,0,0,0,0,0,0,0,0,0,0,0,
0,0,0,0,0,0,0,0,0,0,0,0,0,0,0,0,
0,0,0,0,0,0,0,0,0,0,0,0,0,0,0,0,
0,0,0,0,0,0,0,0,0,0,0,0,0,0,0,0,
0,0,0,0,0,0,0,0,0,0,0,0,0,0,0,0,
0,0,0,0,0,0,0,0,0,0,0,0,0,0,0,0,
6549,6549,6549,6549,6549,6549,6549,6549,6549,6549,6549,6549,6549,6549,6549,6549,
0,0,0,0,0,0,0,0,0,0,0,0,0,0,0,0,
0,0,0,0,0,0,0,0,0,0,0,0,0,0,0,0,
0,0,0,0,0,0,0,0,0,0,0,0,0,0,0,0,
0,0,0,0,0,0,0,0,0,0,0,0,0,0,0,0,
0,0,0,0,0,0,0,0,0,0,0,0,0,0,0,0,
0,0,0,0,0,0,0,0,0,0,0,0,0,0,0,0
</chunk>
      <chunk x="240" y="-80" width="16" height="16">
0,0,0,0,0,0,0,0,0,0,0,0,0,0,0,0,
0,0,0,0,0,0,0,0,0,0,0,0,0,0,0,0,
0,0,0,0,0,0,0,0,0,0,0,0,0,0,0,0,
0,0,0,0,0,0,0,0,0,0,0,0,0,0,0,0,
0,0,0,0,0,0,0,0,0,0,0,0,0,0,0,0,
0,0,0,0,0,0,0,0,0,0,0,0,0,0,0,0,
0,0,0,0,0,0,0,0,0,0,0,0,0,0,0,0,
0,0,0,0,0,0,0,0,0,0,0,0,0,0,0,0,
0,0,0,0,0,0,0,0,0,0,0,0,0,0,0,0,
6549,6549,6549,6549,6549,6549,6549,6549,6549,6549,6549,6549,6549,6549,6549,6549,
0,0,0,0,0,0,0,0,0,0,0,0,0,0,0,0,
0,0,0,0,0,0,0,0,0,0,0,0,0,0,0,0,
0,0,0,0,0,0,0,0,0,0,0,0,0,0,0,0,
0,0,0,0,0,0,0,0,0,0,0,0,0,0,0,0,
0,0,0,0,0,0,0,0,0,0,0,0,0,0,0,0,
0,0,0,0,0,0,0,0,0,0,0,0,0,0,0,0
</chunk>
      <chunk x="256" y="-80" width="16" height="16">
0,0,0,0,0,0,0,0,0,0,0,0,0,0,0,0,
0,0,0,0,0,0,0,0,0,0,0,0,0,0,0,0,
0,0,0,0,0,0,0,0,0,0,0,0,0,0,0,0,
0,0,0,0,0,0,0,0,0,0,0,0,0,0,0,0,
0,0,0,0,0,0,0,0,0,0,0,0,0,0,0,0,
0,0,0,0,0,0,0,0,0,0,0,0,0,0,0,0,
0,0,0,0,0,0,0,0,0,0,0,0,0,0,0,0,
0,0,0,0,0,0,0,0,0,0,0,0,0,0,0,0,
0,0,0,0,0,0,0,0,0,0,0,0,0,0,0,0,
6549,6549,6549,6547,0,0,0,0,0,0,0,0,0,0,0,0,
0,0,0,6546,0,0,0,0,0,0,0,0,0,0,0,0,
0,0,0,6546,0,0,0,0,0,0,0,0,0,0,0,0,
0,0,0,6546,0,0,0,0,0,0,0,0,0,0,0,0,
0,0,0,6546,0,0,0,0,0,0,0,0,0,0,0,0,
0,0,0,6546,0,0,0,0,0,0,0,0,0,0,0,0,
0,0,0,6546,0,0,0,0,0,0,0,0,0,0,0,0
</chunk>
      <chunk x="48" y="-64" width="16" height="16">
0,0,6546,0,0,0,0,0,0,0,0,0,0,0,0,0,
0,0,6546,0,0,0,0,0,0,0,0,0,0,0,0,0,
0,0,6546,0,0,0,0,0,0,0,0,0,0,0,0,0,
0,0,6546,0,0,0,0,0,0,0,0,0,0,0,0,0,
0,0,6546,0,0,0,0,0,0,0,0,0,0,0,0,0,
0,0,6546,0,0,0,0,0,0,0,0,0,0,0,0,0,
0,0,6546,0,0,0,0,0,0,0,0,0,0,0,0,0,
0,0,6546,0,0,0,0,0,0,0,0,0,0,0,0,0,
0,0,6546,0,0,0,0,0,0,0,0,0,0,0,0,0,
0,0,6546,0,0,0,0,0,0,0,0,0,0,0,0,0,
0,0,6546,0,0,0,0,0,0,0,0,0,0,0,0,0,
0,0,6546,0,0,0,0,0,0,0,0,0,0,0,0,0,
0,0,6546,0,0,0,0,0,0,0,0,0,0,0,0,0,
0,0,6546,0,0,0,0,0,0,0,0,0,0,0,0,0,
0,0,6546,0,0,0,0,0,0,0,0,0,0,0,0,0,
0,0,6546,0,0,0,0,0,0,0,0,0,0,0,0,0
</chunk>
      <chunk x="256" y="-64" width="16" height="16">
0,0,0,6546,0,0,0,0,0,0,0,0,0,0,0,0,
0,0,0,6546,0,0,0,0,0,0,0,0,0,0,0,0,
0,0,0,6546,0,0,0,0,0,0,0,0,0,0,0,0,
0,0,0,6546,0,0,0,0,0,0,0,0,0,0,0,0,
0,0,0,6546,0,0,0,0,0,0,0,0,0,0,0,0,
0,0,0,6546,0,0,0,0,0,0,0,0,0,0,0,0,
0,0,0,6546,0,0,0,0,0,0,0,0,0,0,0,0,
0,0,0,6546,0,0,0,0,0,0,0,0,0,0,0,0,
0,0,0,6546,0,0,0,0,0,0,0,0,0,0,0,0,
0,0,0,6546,0,0,0,0,0,0,0,0,0,0,0,0,
0,0,0,6546,0,0,0,0,0,0,0,0,0,0,0,0,
0,0,0,6546,0,0,0,0,0,0,0,0,0,0,0,0,
0,0,0,6546,0,0,0,0,0,0,0,0,0,0,0,0,
0,0,0,6546,0,0,0,0,0,0,0,0,0,0,0,0,
0,0,0,6546,0,0,0,0,0,0,0,0,0,0,0,0,
0,0,0,6546,0,0,0,0,0,0,0,0,0,0,0,0
</chunk>
      <chunk x="48" y="-48" width="16" height="16">
0,0,6546,0,0,0,0,0,0,0,0,0,0,0,0,0,
0,0,6546,0,0,0,0,0,0,0,0,0,0,0,0,0,
0,0,6546,0,0,0,0,0,0,0,0,0,0,0,0,0,
0,0,6546,0,0,0,0,0,0,0,0,0,0,0,0,0,
0,0,6546,0,0,0,0,0,0,0,0,0,0,0,0,0,
0,0,6546,0,0,0,0,0,0,0,0,0,0,0,0,0,
0,0,6546,0,0,0,0,0,0,0,0,0,0,0,0,0,
0,0,6546,0,0,0,0,0,0,0,0,0,0,0,0,0,
0,0,6546,0,0,0,0,0,0,0,0,0,0,0,0,0,
0,0,6546,0,0,0,0,0,0,0,0,0,0,0,0,0,
0,0,6546,0,0,0,0,0,0,0,0,0,0,0,0,0,
0,0,6546,0,0,0,0,0,0,0,0,0,0,0,0,0,
0,0,6546,0,0,0,0,0,0,0,0,0,0,0,0,0,
0,0,6546,0,0,0,0,0,0,0,0,0,0,0,0,0,
0,0,6546,0,0,0,0,0,0,0,0,0,0,0,0,0,
0,0,6546,0,0,0,0,0,0,0,0,0,0,0,0,0
</chunk>
      <chunk x="176" y="-48" width="16" height="16">
0,0,0,0,0,0,0,0,0,0,0,0,0,0,0,0,
0,0,0,0,0,0,0,0,0,0,0,0,0,0,0,0,
0,0,0,0,0,0,0,0,0,0,0,0,0,0,0,0,
0,0,0,0,0,0,0,0,0,0,0,0,0,0,0,0,
0,0,0,0,0,0,0,0,0,0,0,0,0,0,0,0,
0,0,0,0,0,0,0,0,0,0,0,0,0,0,0,0,
0,0,0,0,0,0,0,0,0,0,0,0,0,0,0,0,
0,0,0,0,0,0,0,0,0,0,0,0,0,0,0,0,
0,0,0,0,0,0,0,0,0,0,0,0,0,0,0,0,
0,0,0,0,0,0,0,0,0,0,0,0,0,0,0,0,
0,0,0,0,0,0,0,0,0,0,0,0,0,0,0,0,
0,0,0,0,0,0,0,0,0,0,0,0,0,0,4466,0,
0,0,0,0,0,0,0,0,0,0,0,0,0,0,0,0,
0,0,0,0,0,0,0,0,0,0,0,0,0,0,0,0,
0,0,0,0,0,0,0,0,0,0,0,0,0,0,0,0,
0,0,0,0,0,0,0,0,0,0,0,0,0,0,0,0
</chunk>
      <chunk x="256" y="-48" width="16" height="16">
0,0,0,6546,0,0,0,0,0,0,0,0,0,0,0,0,
0,0,0,6546,0,0,0,0,0,0,0,0,0,0,0,0,
0,0,0,6546,0,0,0,0,0,0,0,0,0,0,0,0,
0,0,0,6546,0,0,0,0,0,0,0,0,0,0,0,0,
0,0,0,6546,0,0,0,0,0,0,0,0,0,0,0,0,
0,0,0,6546,0,0,0,0,0,0,0,0,0,0,0,0,
0,0,0,6546,0,0,0,0,0,0,0,0,0,0,0,0,
0,0,0,6546,0,0,0,0,0,0,0,0,0,0,0,0,
0,0,0,6546,0,0,0,0,0,0,0,0,0,0,0,0,
0,0,0,6546,0,0,0,0,0,0,0,0,0,0,0,0,
0,0,0,6546,0,0,0,0,0,0,0,0,0,0,0,0,
0,0,0,6546,0,0,0,0,0,0,0,0,0,0,0,0,
0,0,0,6546,0,0,0,0,0,0,0,0,0,0,0,0,
0,0,0,6546,0,0,0,0,0,0,0,0,0,0,0,0,
0,0,0,6546,0,0,0,0,0,0,0,0,0,0,0,0,
0,0,0,6546,0,0,0,0,0,0,0,0,0,0,0,0
</chunk>
      <chunk x="48" y="-32" width="16" height="16">
0,0,6546,0,0,0,0,0,0,0,0,0,0,0,0,0,
0,0,6546,0,0,0,0,0,0,0,0,0,0,0,0,0,
0,0,6546,0,0,0,0,0,0,0,0,0,0,0,0,0,
0,0,6546,0,0,0,0,0,0,0,0,0,0,0,0,0,
0,0,6546,0,0,0,0,0,0,0,0,0,0,0,0,0,
0,0,6546,0,0,0,0,0,0,0,0,0,0,0,0,0,
0,0,6546,0,0,0,0,0,0,0,0,0,0,0,0,0,
0,0,6546,0,0,0,0,0,0,0,0,0,0,0,0,0,
0,0,6546,0,0,0,0,0,0,0,0,0,0,0,0,0,
0,0,6546,0,0,0,0,0,0,0,0,0,0,0,0,0,
0,0,6546,0,0,0,0,0,0,0,0,0,0,0,0,0,
0,0,6546,0,0,0,0,0,0,0,0,0,0,0,0,0,
0,0,6546,0,0,0,0,0,0,0,0,0,0,0,0,0,
0,0,6546,0,0,0,0,0,0,0,0,0,0,0,0,0,
0,0,6546,0,0,0,0,0,0,0,0,0,0,0,0,0,
0,0,6546,0,0,0,0,0,0,0,0,0,0,0,0,0
</chunk>
      <chunk x="256" y="-32" width="16" height="16">
0,0,0,6546,0,0,0,0,0,0,0,0,0,0,0,0,
0,0,0,6546,0,0,0,0,0,0,0,0,0,0,0,0,
0,0,0,6546,0,0,0,0,0,0,0,0,0,0,0,0,
0,0,0,6546,0,0,0,0,0,0,0,0,0,0,0,0,
0,0,0,6546,0,0,0,0,0,0,0,0,0,0,0,0,
0,0,0,6546,0,0,0,0,0,0,0,0,0,0,0,0,
0,0,0,6546,0,0,0,0,0,0,0,0,0,0,0,0,
0,0,0,6546,0,0,0,0,0,0,0,0,0,0,0,0,
0,0,0,6546,0,0,0,0,0,0,0,0,0,0,0,0,
0,0,0,6546,0,0,0,0,0,0,0,0,0,0,0,0,
0,0,0,6546,0,0,0,0,0,0,0,0,0,0,0,0,
0,0,0,6546,0,0,0,0,0,0,0,0,0,0,0,0,
0,0,0,6546,0,0,0,0,0,0,0,0,0,0,0,0,
0,0,0,6546,0,0,0,0,0,0,0,0,0,0,0,0,
0,0,0,6546,0,0,0,0,0,0,0,0,0,0,0,0,
0,0,0,6546,0,0,0,0,0,0,0,0,0,0,0,0
</chunk>
      <chunk x="48" y="-16" width="16" height="16">
0,0,6546,0,0,0,0,0,0,0,0,0,0,0,0,0,
0,0,6546,0,0,0,0,0,0,0,0,0,0,0,0,0,
0,0,6546,0,0,0,0,0,0,0,0,0,0,0,0,0,
0,0,6546,0,0,0,0,0,0,0,0,0,0,0,0,0,
0,0,6546,0,0,0,0,0,0,0,0,0,0,0,0,0,
0,0,6546,0,0,0,0,0,0,0,0,0,0,0,0,0,
0,0,6546,0,0,0,0,0,0,0,0,0,0,0,0,0,
0,0,6546,0,0,0,0,0,0,0,0,0,0,0,0,0,
0,0,6546,0,0,0,0,0,0,0,0,0,0,0,0,0,
0,0,6546,0,0,0,0,0,0,0,0,0,0,0,0,0,
0,0,6546,0,0,0,0,0,0,0,0,0,0,0,0,0,
0,0,6546,0,0,0,0,0,0,0,0,0,0,0,0,0,
0,0,6546,0,0,0,0,0,0,0,0,0,0,0,0,0,
0,0,6546,0,0,0,0,0,0,0,0,0,0,0,0,0,
0,0,6546,0,0,0,0,0,0,0,0,0,0,0,0,0,
0,0,6546,0,0,0,0,0,0,0,0,0,0,0,0,0
</chunk>
      <chunk x="256" y="-16" width="16" height="16">
0,0,0,6546,0,0,0,0,0,0,0,0,0,0,0,0,
0,0,0,6546,0,0,0,0,0,0,0,0,0,0,0,0,
0,0,0,6546,0,0,0,0,0,0,0,0,0,0,0,0,
0,0,0,6546,0,0,0,0,0,0,0,0,0,0,0,0,
0,0,0,6546,0,0,0,0,0,0,0,0,0,0,0,0,
0,0,0,6546,0,0,0,0,0,0,0,0,0,0,0,0,
0,0,0,6546,0,0,0,0,0,0,0,0,0,0,0,0,
0,0,0,6546,0,0,0,0,0,0,0,0,0,0,0,0,
0,0,0,6546,0,0,0,0,0,0,0,0,0,0,0,0,
0,0,0,6546,0,0,0,0,0,0,0,0,0,0,0,0,
0,0,0,6546,0,0,0,0,0,0,0,0,0,0,0,0,
0,0,0,6546,0,0,0,0,0,0,0,0,0,0,0,0,
0,0,0,6546,0,0,0,0,0,0,0,0,0,0,0,0,
0,0,0,6546,0,0,0,0,0,0,0,0,0,0,0,0,
0,0,0,6546,0,0,0,0,0,0,0,0,0,0,0,0,
0,0,0,6546,0,0,0,0,0,0,0,0,0,0,0,0
</chunk>
      <chunk x="48" y="64" width="16" height="16">
0,0,0,0,0,0,0,0,0,0,0,0,0,0,0,0,
0,0,0,0,0,0,0,0,0,0,0,0,0,0,0,0,
0,0,0,0,0,0,0,0,0,0,0,0,0,0,0,0,
0,0,0,0,0,0,0,0,0,0,0,0,0,0,0,0,
0,0,0,0,0,0,0,0,0,0,0,0,0,0,0,0,
0,0,0,0,0,0,0,0,0,0,0,0,0,0,0,0,
0,0,6546,0,0,0,0,0,0,0,0,0,0,0,0,0,
0,0,6546,0,0,0,0,0,0,0,0,0,0,0,0,0,
0,0,6546,0,0,0,0,0,0,0,0,0,0,0,0,0,
0,0,6546,0,0,0,0,0,0,0,0,0,0,0,0,0,
0,0,6546,0,0,0,0,0,0,0,0,0,0,0,0,0,
0,0,6546,0,0,0,0,0,0,0,0,0,0,0,0,0,
0,0,11599,0,0,0,0,0,0,0,0,0,0,0,0,0,
0,0,11599,0,0,0,0,0,0,0,0,0,0,0,0,0,
0,0,11599,0,0,0,0,0,0,0,0,0,0,0,0,0,
0,0,11599,0,0,0,0,0,0,0,0,0,0,0,0,0
</chunk>
      <chunk x="256" y="64" width="16" height="16">
0,0,0,0,0,0,0,0,0,0,0,0,0,0,0,0,
0,0,0,0,0,0,0,0,0,0,0,0,0,0,0,0,
0,0,0,0,0,0,0,0,0,0,0,0,0,0,0,0,
0,0,0,0,0,0,0,0,0,0,0,0,0,0,0,0,
0,0,0,0,0,0,0,0,0,0,0,0,0,0,0,0,
0,0,0,0,0,0,0,0,0,0,0,0,0,0,0,0,
0,0,0,6546,0,0,0,0,0,0,0,0,0,0,0,0,
0,0,0,6546,0,0,0,0,0,0,0,0,0,0,0,0,
0,0,0,6546,0,0,0,0,0,0,0,0,0,0,0,0,
0,0,0,6546,0,0,0,0,0,0,0,0,0,0,0,0,
0,0,0,6546,0,0,0,0,0,0,0,0,0,0,0,0,
0,0,0,6546,0,0,0,0,0,0,0,0,0,0,0,0,
0,0,0,11599,0,0,0,0,0,0,0,0,0,0,0,0,
0,0,0,11599,0,0,0,0,0,0,0,0,0,0,0,0,
0,0,0,11599,0,0,0,0,0,0,0,0,0,0,0,0,
0,0,0,11599,0,0,0,0,0,0,0,0,0,0,0,0
</chunk>
      <chunk x="48" y="80" width="16" height="16">
0,0,11599,0,0,0,0,0,0,0,0,0,0,0,0,0,
0,0,11599,0,0,0,0,0,0,0,0,0,0,0,0,0,
0,0,11599,0,0,0,0,0,0,0,0,0,0,0,0,0,
0,0,11599,0,0,0,0,0,0,0,0,0,0,0,0,0,
0,0,11599,0,0,0,0,0,0,0,0,0,0,0,0,0,
0,0,11599,0,0,0,0,0,0,0,0,0,0,0,0,0,
0,0,11599,0,0,0,0,0,0,0,0,0,0,0,0,0,
0,0,11599,0,0,0,0,0,0,0,0,0,0,0,0,0,
0,0,11599,0,0,0,0,0,0,0,0,0,0,0,0,0,
0,0,11599,0,0,0,0,0,0,0,0,0,0,0,0,0,
0,0,11599,0,0,0,0,0,0,0,0,0,0,0,0,0,
0,0,11599,0,0,0,0,0,0,0,0,0,0,0,0,0,
0,0,11599,0,0,0,0,0,0,0,0,0,0,0,0,0,
0,0,11599,0,0,0,0,0,0,0,0,0,0,0,0,0,
0,0,11599,0,0,0,0,0,0,0,0,0,0,0,0,0,
0,0,11599,0,0,0,0,0,0,0,0,0,0,0,0,0
</chunk>
      <chunk x="256" y="80" width="16" height="16">
0,0,0,11599,0,0,0,0,0,0,0,0,0,0,0,0,
0,0,0,11599,0,0,0,0,0,0,0,0,0,0,0,0,
0,0,0,11599,0,0,0,0,0,0,0,0,0,0,0,0,
0,0,0,11599,0,0,0,0,0,0,0,0,0,0,0,0,
0,0,0,11599,0,0,0,0,0,0,0,0,0,0,0,0,
0,0,0,11599,0,0,0,0,0,0,0,0,0,0,0,0,
0,0,0,11599,0,0,0,0,0,0,0,0,0,0,0,0,
0,0,0,11599,0,0,0,0,0,0,0,0,0,0,0,0,
0,0,0,11599,0,0,0,0,0,0,0,0,0,0,0,0,
0,0,0,11599,0,0,0,0,0,0,0,0,0,0,0,0,
0,0,0,11599,0,0,0,0,0,0,0,0,0,0,0,0,
0,0,0,11599,0,0,0,0,0,0,0,0,0,0,0,0,
0,0,0,11599,0,0,0,0,0,0,0,0,0,0,0,0,
0,0,0,11599,0,0,0,0,0,0,0,0,0,0,0,0,
0,0,0,11599,0,0,0,0,0,0,0,0,0,0,0,0,
0,0,0,11599,0,0,0,0,0,0,0,0,0,0,0,0
</chunk>
      <chunk x="48" y="96" width="16" height="16">
0,0,11599,0,0,0,0,0,0,0,0,0,0,0,0,0,
0,0,11599,0,0,0,0,0,0,0,0,0,0,0,0,0,
0,0,11599,0,0,0,0,0,0,0,0,0,0,0,0,0,
0,0,11599,0,0,0,0,0,0,0,0,0,0,0,0,0,
0,0,11599,0,0,0,0,0,0,0,0,0,0,0,0,0,
0,0,11599,0,0,0,0,0,0,0,0,0,0,0,0,0,
0,0,11599,0,0,0,0,0,0,0,0,0,0,0,0,0,
0,0,11599,0,0,0,0,0,0,0,0,0,0,0,0,0,
0,0,11599,0,0,0,0,0,0,0,0,0,0,0,0,0,
0,0,11599,0,0,0,0,0,0,0,0,0,0,0,0,0,
0,0,11599,0,0,0,0,0,0,0,0,0,0,0,0,0,
0,0,11599,0,0,0,0,0,0,0,0,0,0,0,0,0,
0,0,11599,0,0,0,0,0,0,0,0,0,0,0,0,0,
0,0,11599,0,0,0,0,0,0,0,0,0,0,0,0,0,
0,0,11599,0,0,0,0,0,0,0,0,0,0,0,0,0,
0,0,11599,0,0,0,0,0,0,0,0,0,0,0,0,0
</chunk>
      <chunk x="256" y="96" width="16" height="16">
0,0,0,11599,0,0,0,0,0,0,0,0,0,0,0,0,
0,0,0,11599,0,0,0,0,0,0,0,0,0,0,0,0,
0,0,0,11599,0,0,0,0,0,0,0,0,0,0,0,0,
0,0,0,11599,0,0,0,0,0,0,0,0,0,0,0,0,
0,0,0,11599,0,0,0,0,0,0,0,0,0,0,0,0,
0,0,0,11599,0,0,0,0,0,0,0,0,0,0,0,0,
0,0,0,11599,0,0,0,0,0,0,0,0,0,0,0,0,
0,0,0,11599,0,0,0,0,0,0,0,0,0,0,0,0,
0,0,0,11599,0,0,0,0,0,0,0,0,0,0,0,0,
0,0,0,11599,0,0,0,0,0,0,0,0,0,0,0,0,
0,0,0,11599,0,0,0,0,0,0,0,0,0,0,0,0,
0,0,0,11599,0,0,0,0,0,0,0,0,0,0,0,0,
0,0,0,11599,0,0,0,0,0,0,0,0,0,0,0,0,
0,0,0,11599,0,0,0,0,0,0,0,0,0,0,0,0,
0,0,0,11599,0,0,0,0,0,0,0,0,0,0,0,0,
0,0,0,11599,0,0,0,0,0,0,0,0,0,0,0,0
</chunk>
      <chunk x="48" y="112" width="16" height="16">
0,0,11599,0,0,0,0,0,0,0,0,0,0,0,0,0,
0,0,11599,0,0,0,0,0,0,0,0,0,0,0,0,0,
0,0,11599,0,0,0,0,0,0,0,0,0,0,0,0,0,
0,0,11599,0,0,0,0,0,0,0,0,0,0,0,0,0,
0,0,11599,0,0,0,0,0,0,0,0,0,0,0,0,0,
0,0,11599,0,0,0,0,0,0,0,0,0,0,0,0,0,
0,0,11599,0,0,0,0,0,0,0,0,0,0,0,0,0,
0,0,11599,0,0,0,0,0,0,0,0,0,0,0,0,0,
0,0,11599,0,0,0,0,0,0,0,0,0,0,0,0,0,
0,0,11599,0,0,0,0,0,0,0,0,0,0,0,0,0,
0,0,11599,0,0,0,0,0,0,0,0,0,0,0,0,0,
0,0,11599,0,0,0,0,0,0,0,0,0,0,0,0,0,
0,0,11599,0,0,0,0,0,0,0,0,0,0,0,0,0,
0,0,11599,0,0,0,0,0,0,0,0,0,0,0,0,0,
0,0,11599,0,0,0,0,0,0,0,0,0,0,0,0,0,
0,0,11599,0,0,0,0,0,0,0,0,0,0,0,0,0
</chunk>
      <chunk x="256" y="112" width="16" height="16">
0,0,0,11599,0,0,0,0,0,0,0,0,0,0,0,0,
0,0,0,11599,0,0,0,0,0,0,0,0,0,0,0,0,
0,0,0,11599,0,0,0,0,0,0,0,0,0,0,0,0,
0,0,0,11599,0,0,0,0,0,0,0,0,0,0,0,0,
0,0,0,11599,0,0,0,0,0,0,0,0,0,0,0,0,
0,0,0,11599,0,0,0,0,0,0,0,0,0,0,0,0,
0,0,0,11599,0,0,0,0,0,0,0,0,0,0,0,0,
0,0,0,11599,0,0,0,0,0,0,0,0,0,0,0,0,
0,0,0,11599,0,0,0,0,0,0,0,0,0,0,0,0,
0,0,0,11599,0,0,0,0,0,0,0,0,0,0,0,0,
0,0,0,11599,0,0,0,0,0,0,0,0,0,0,0,0,
0,0,0,11599,0,0,0,0,0,0,0,0,0,0,0,0,
0,0,0,11599,0,0,0,0,0,0,0,0,0,0,0,0,
0,0,0,11599,0,0,0,0,0,0,0,0,0,0,0,0,
0,0,0,11599,0,0,0,0,0,0,0,0,0,0,0,0,
0,0,0,11599,0,0,0,0,0,0,0,0,0,0,0,0
</chunk>
      <chunk x="48" y="128" width="16" height="16">
0,0,11599,0,0,0,0,0,0,0,0,0,0,0,0,0,
0,0,11599,0,0,0,0,0,0,0,0,0,0,0,0,0,
0,0,11599,0,0,0,0,0,0,0,0,0,0,0,0,0,
0,0,11599,0,0,0,0,0,0,0,0,0,0,0,0,0,
0,0,11599,0,0,0,0,0,0,0,0,0,0,0,0,0,
0,0,11599,0,0,0,0,0,0,0,0,0,0,0,0,0,
0,0,11599,0,0,0,0,0,0,0,0,0,0,0,0,0,
0,0,11599,0,0,0,0,0,0,0,0,0,0,0,0,0,
0,0,11599,0,0,0,0,0,0,0,0,0,0,0,0,0,
0,0,11599,0,0,0,0,0,0,0,0,0,0,0,0,0,
0,0,11599,0,0,0,0,0,0,0,0,0,0,0,0,0,
0,0,11599,11599,11599,11599,11599,11599,11599,11599,11599,11599,11599,11599,11599,11599,
0,0,0,0,0,0,0,0,0,0,0,0,0,0,0,0,
0,0,0,0,0,0,0,0,0,0,0,0,0,0,0,0,
0,0,0,0,0,0,0,0,0,0,0,0,0,0,0,0,
0,0,0,0,0,0,0,0,0,0,0,0,0,0,0,0
</chunk>
      <chunk x="64" y="128" width="16" height="16">
0,0,0,0,0,0,0,0,0,0,0,0,0,0,0,0,
0,0,0,0,0,0,0,0,0,0,0,0,0,0,0,0,
0,0,0,0,0,0,0,0,0,0,0,0,0,0,0,0,
0,0,0,0,0,0,0,0,0,0,0,0,0,0,0,0,
0,0,0,0,0,0,0,0,0,0,0,0,0,0,0,0,
0,0,0,0,0,0,0,0,0,0,0,0,0,0,0,0,
0,0,0,0,0,0,0,0,0,0,0,0,0,0,0,0,
0,0,0,0,0,0,0,0,0,0,0,0,0,0,0,0,
0,0,0,0,0,0,0,0,0,0,0,0,0,0,0,0,
0,0,0,0,0,0,0,0,0,0,0,0,0,0,0,0,
0,0,0,0,0,0,0,0,0,0,0,0,0,0,0,0,
11599,11599,11599,11599,11599,11599,11599,11599,11599,11599,11599,11599,11599,11599,11599,11599,
0,0,0,0,0,0,0,0,0,0,0,0,0,0,0,0,
0,0,0,0,0,0,0,0,0,0,0,0,0,0,0,0,
0,0,0,0,0,0,0,0,0,0,0,0,0,0,0,0,
0,0,0,0,0,0,0,0,0,0,0,0,0,0,0,0
</chunk>
      <chunk x="80" y="128" width="16" height="16">
0,0,0,0,0,0,0,0,0,0,0,0,0,0,0,0,
0,0,0,0,0,0,0,0,0,0,0,0,0,0,0,0,
0,0,0,0,0,0,0,0,0,0,0,0,0,0,0,0,
0,0,0,0,0,0,0,0,0,0,0,0,0,0,0,0,
0,0,0,0,0,0,0,0,0,0,0,0,0,0,0,0,
0,0,0,0,0,0,0,0,0,0,0,0,0,0,0,0,
0,0,0,0,0,0,0,0,0,0,0,0,0,0,0,0,
0,0,0,0,0,0,0,0,0,0,0,0,0,0,0,0,
0,0,0,0,0,0,0,0,0,0,0,0,0,0,0,0,
0,0,0,0,0,0,0,0,0,0,0,0,0,0,0,0,
0,0,0,0,0,0,0,0,0,0,0,0,0,0,0,0,
11599,11599,11599,11599,11599,11599,11599,11599,11599,11599,11599,11599,11599,11599,11599,11599,
0,0,0,0,0,0,0,0,0,0,0,0,0,0,0,0,
0,0,0,0,0,0,0,0,0,0,0,0,0,0,0,0,
0,0,0,0,0,0,0,0,0,0,0,0,0,0,0,0,
0,0,0,0,0,0,0,0,0,0,0,0,0,0,0,0
</chunk>
      <chunk x="96" y="128" width="16" height="16">
0,0,0,0,0,0,0,0,0,0,0,0,0,0,0,0,
0,0,0,0,0,0,0,0,0,0,0,0,0,0,0,0,
0,0,0,0,0,0,0,0,0,0,0,0,0,0,0,0,
0,0,0,0,0,0,0,0,0,0,0,0,0,0,0,0,
0,0,0,0,0,0,0,0,0,0,0,0,0,0,0,0,
0,0,0,0,0,0,0,0,0,0,0,0,0,0,0,0,
0,0,0,0,0,0,0,0,0,0,0,0,0,0,0,0,
0,0,0,0,0,0,0,0,0,0,0,0,0,0,0,0,
0,0,0,0,0,0,0,0,0,0,0,0,0,0,0,0,
0,0,0,0,0,0,0,0,0,0,0,0,0,0,0,0,
0,0,0,0,0,0,0,0,0,0,0,0,0,0,0,0,
11599,11599,11599,11599,11599,11599,11599,11599,11599,11599,11599,11599,11599,11599,11599,11599,
0,0,0,0,0,0,0,0,0,0,0,0,0,0,0,0,
0,0,0,0,0,0,0,0,0,0,0,0,0,0,0,0,
0,0,0,0,0,0,0,0,0,0,0,0,0,0,0,0,
0,0,0,0,0,0,0,0,0,0,0,0,0,0,0,0
</chunk>
      <chunk x="112" y="128" width="16" height="16">
0,0,0,0,0,0,0,0,0,0,0,0,0,0,0,0,
0,0,0,0,0,0,0,0,0,0,0,0,0,0,0,0,
0,0,0,0,0,0,0,0,0,0,0,0,0,0,0,0,
0,0,0,0,0,0,0,0,0,0,0,0,0,0,0,0,
0,0,0,0,0,0,0,0,0,0,0,0,0,0,0,0,
0,0,0,0,0,0,0,0,0,0,0,0,0,0,0,0,
0,0,0,0,0,0,0,0,0,0,0,0,0,0,0,0,
0,0,0,0,0,0,0,0,0,0,0,0,0,0,0,0,
0,0,0,0,0,0,0,0,0,0,0,0,0,0,0,0,
0,0,0,0,0,0,0,0,0,0,0,0,0,0,0,0,
0,0,0,0,0,0,0,0,0,0,0,0,0,0,0,0,
11599,11599,11599,11599,11599,11599,11599,11599,11599,11599,11599,11599,11599,11599,11599,11599,
0,0,0,0,0,0,0,0,0,0,0,0,0,0,0,0,
0,0,0,0,0,0,0,0,0,0,0,0,0,0,0,0,
0,0,0,0,0,0,0,0,0,0,0,0,0,0,0,0,
0,0,0,0,0,0,0,0,0,0,0,0,0,0,0,0
</chunk>
      <chunk x="128" y="128" width="16" height="16">
0,0,0,0,0,0,0,0,0,0,0,0,0,0,0,0,
0,0,0,0,0,0,0,0,0,0,0,0,0,0,0,0,
0,0,0,0,0,0,0,0,0,0,0,0,0,0,0,0,
0,0,0,0,0,0,0,0,0,0,0,0,0,0,0,0,
0,0,0,0,0,0,0,0,0,0,0,0,0,0,0,0,
0,0,0,0,0,0,0,0,0,0,0,0,0,0,0,0,
0,0,0,0,0,0,0,0,0,0,0,0,0,0,0,0,
0,0,0,0,0,0,0,0,0,0,0,0,0,0,0,0,
0,0,0,0,0,0,0,0,0,0,0,0,0,0,0,0,
0,0,0,0,0,0,0,0,0,0,0,0,0,0,0,0,
0,0,0,0,0,0,0,0,0,0,0,0,0,0,0,0,
11599,11599,11599,11599,11599,11599,11599,11599,11599,11599,11599,11599,11599,11599,11599,11599,
0,0,0,0,0,0,0,0,0,0,0,0,0,0,0,0,
0,0,0,0,0,0,0,0,0,0,0,0,0,0,0,0,
0,0,0,0,0,0,0,0,0,0,0,0,0,0,0,0,
0,0,0,0,0,0,0,0,0,0,0,0,0,0,0,0
</chunk>
      <chunk x="144" y="128" width="16" height="16">
0,0,0,0,0,0,0,0,0,0,0,0,0,0,0,0,
0,0,0,0,0,0,0,0,0,0,0,0,0,0,0,0,
0,0,0,0,0,0,0,0,0,0,0,0,0,0,0,0,
0,0,0,0,0,0,0,0,0,0,0,0,0,0,0,0,
0,0,0,0,0,0,0,0,0,0,0,0,0,0,0,0,
0,0,0,0,0,0,0,0,0,0,0,0,0,0,0,0,
0,0,0,0,0,0,0,0,0,0,0,0,0,0,0,0,
0,0,0,0,0,0,0,0,0,0,0,0,0,0,0,0,
0,0,0,0,0,0,0,0,0,0,0,0,0,0,0,0,
0,0,0,0,0,0,0,0,0,0,0,0,0,0,0,0,
0,0,0,0,0,0,0,0,0,0,0,0,0,0,0,0,
11599,11599,11599,11599,11599,11599,11599,11599,11599,11599,11599,11599,11599,11599,11599,11599,
0,0,0,0,0,0,0,0,0,0,0,0,0,0,0,0,
0,0,0,0,0,0,0,0,0,0,0,0,0,0,0,0,
0,0,0,0,0,0,0,0,0,0,0,0,0,0,0,0,
0,0,0,0,0,0,0,0,0,0,0,0,0,0,0,0
</chunk>
      <chunk x="160" y="128" width="16" height="16">
0,0,0,0,0,0,0,0,0,0,0,0,0,0,0,0,
0,0,0,0,0,0,0,0,0,0,0,0,0,0,0,0,
0,0,0,0,0,0,0,0,0,0,0,0,0,0,0,0,
0,0,0,0,0,0,0,0,0,0,0,0,0,0,0,0,
0,0,0,0,0,0,0,0,0,0,0,0,0,0,0,0,
0,0,0,0,0,0,0,0,0,0,0,0,0,0,0,0,
0,0,0,0,0,0,0,0,0,0,0,0,0,0,0,0,
0,0,0,0,0,0,0,0,0,0,0,0,0,0,0,0,
0,0,0,0,0,0,0,0,0,0,0,0,0,0,0,0,
0,0,0,0,0,0,0,0,0,0,0,0,0,0,0,0,
0,0,0,0,0,0,0,0,0,0,0,0,0,0,0,0,
11599,11599,11599,11599,11599,11599,11599,11599,11599,11599,11599,11599,11599,11599,11599,0,
0,0,0,0,0,0,0,0,0,0,0,0,0,0,0,0,
0,0,0,0,0,0,0,0,0,0,0,0,0,0,0,0,
0,0,0,0,0,0,0,0,0,0,0,0,0,0,0,0,
0,0,0,0,0,0,0,0,0,0,0,0,0,0,0,0
</chunk>
      <chunk x="176" y="128" width="16" height="16">
0,0,0,0,0,0,0,0,0,0,0,0,0,0,0,0,
0,0,0,0,0,0,0,0,0,0,0,0,0,0,0,0,
0,0,0,0,0,0,0,0,0,0,0,0,0,0,0,0,
0,0,0,0,0,0,0,0,0,0,0,0,0,0,0,0,
0,0,0,0,0,0,0,0,0,0,0,0,0,0,0,0,
0,0,0,0,0,0,0,0,0,0,0,0,0,0,0,0,
0,0,0,0,0,0,0,0,0,0,0,0,0,0,0,0,
0,0,0,0,0,0,0,0,0,0,0,0,0,0,0,0,
0,0,0,0,0,0,0,0,0,0,0,0,0,0,0,0,
0,0,0,0,0,0,0,0,0,0,0,0,0,0,0,0,
0,0,0,0,0,0,0,0,0,0,0,0,0,0,0,0,
0,0,0,0,0,0,0,0,0,0,0,0,0,0,6549,11599,
0,0,0,0,0,0,0,0,0,0,0,0,0,0,0,0,
0,0,0,0,0,0,0,0,0,0,0,0,0,0,0,0,
0,0,0,0,0,0,0,0,0,0,0,0,0,0,0,0,
0,0,0,0,0,0,0,0,0,0,0,0,0,0,0,0
</chunk>
      <chunk x="192" y="128" width="16" height="16">
0,0,0,0,0,0,0,0,0,0,0,0,0,0,0,0,
0,0,0,0,0,0,0,0,0,0,0,0,0,0,0,0,
0,0,0,0,0,0,0,0,0,0,0,0,0,0,0,0,
0,0,0,0,0,0,0,0,0,0,0,0,0,0,0,0,
0,0,0,0,0,0,0,0,0,0,0,0,0,0,0,0,
0,0,0,0,0,0,0,0,0,0,0,0,0,0,0,0,
0,0,0,0,0,0,0,0,0,0,0,0,0,0,0,0,
0,0,0,0,0,0,0,0,0,0,0,0,0,0,0,0,
0,0,0,0,0,0,0,0,0,0,0,0,0,0,0,0,
0,0,0,0,0,0,0,0,0,0,0,0,0,0,0,0,
0,0,0,0,0,0,0,0,0,0,0,0,0,0,0,0,
11599,11599,11599,11599,11599,11599,11599,11599,11599,11599,11599,11599,11599,11599,11599,11599,
0,0,0,0,0,0,0,0,0,0,0,0,0,0,0,0,
0,0,0,0,0,0,0,0,0,0,0,0,0,0,0,0,
0,0,0,0,0,0,0,0,0,0,0,0,0,0,0,0,
0,0,0,0,0,0,0,0,0,0,0,0,0,0,0,0
</chunk>
      <chunk x="208" y="128" width="16" height="16">
0,0,0,0,0,0,0,0,0,0,0,0,0,0,0,0,
0,0,0,0,0,0,0,0,0,0,0,0,0,0,0,0,
0,0,0,0,0,0,0,0,0,0,0,0,0,0,0,0,
0,0,0,0,0,0,0,0,0,0,0,0,0,0,0,0,
0,0,0,0,0,0,0,0,0,0,0,0,0,0,0,0,
0,0,0,0,0,0,0,0,0,0,0,0,0,0,0,0,
0,0,0,0,0,0,0,0,0,0,0,0,0,0,0,0,
0,0,0,0,0,0,0,0,0,0,0,0,0,0,0,0,
0,0,0,0,0,0,0,0,0,0,0,0,0,0,0,0,
0,0,0,0,0,0,0,0,0,0,0,0,0,0,0,0,
0,0,0,0,0,0,0,0,0,0,0,0,0,0,0,0,
11599,11599,11599,11599,11599,11599,11599,11599,11599,11599,11599,11599,11599,11599,11599,11599,
0,0,0,0,0,0,0,0,0,0,0,0,0,0,0,0,
0,0,0,0,0,0,0,0,0,0,0,0,0,0,0,0,
0,0,0,0,0,0,0,0,0,0,0,0,0,0,0,0,
0,0,0,0,0,0,0,0,0,0,0,0,0,0,0,0
</chunk>
      <chunk x="224" y="128" width="16" height="16">
0,0,0,0,0,0,0,0,0,0,0,0,0,0,0,0,
0,0,0,0,0,0,0,0,0,0,0,0,0,0,0,0,
0,0,0,0,0,0,0,0,0,0,0,0,0,0,0,0,
0,0,0,0,0,0,0,0,0,0,0,0,0,0,0,0,
0,0,0,0,0,0,0,0,0,0,0,0,0,0,0,0,
0,0,0,0,0,0,0,0,0,0,0,0,0,0,0,0,
0,0,0,0,0,0,0,0,0,0,0,0,0,0,0,0,
0,0,0,0,0,0,0,0,0,0,0,0,0,0,0,0,
0,0,0,0,0,0,0,0,0,0,0,0,0,0,0,0,
0,0,0,0,0,0,0,0,0,0,0,0,0,0,0,0,
0,0,0,0,0,0,0,0,0,0,0,0,0,0,0,0,
11599,11599,11599,11599,11599,11599,11599,11599,11599,11599,11599,11599,11599,11599,11599,11599,
0,0,0,0,0,0,0,0,0,0,0,0,0,0,0,0,
0,0,0,0,0,0,0,0,0,0,0,0,0,0,0,0,
0,0,0,0,0,0,0,0,0,0,0,0,0,0,0,0,
0,0,0,0,0,0,0,0,0,0,0,0,0,0,0,0
</chunk>
      <chunk x="240" y="128" width="16" height="16">
0,0,0,0,0,0,0,0,0,0,0,0,0,0,0,0,
0,0,0,0,0,0,0,0,0,0,0,0,0,0,0,0,
0,0,0,0,0,0,0,0,0,0,0,0,0,0,0,0,
0,0,0,0,0,0,0,0,0,0,0,0,0,0,0,0,
0,0,0,0,0,0,0,0,0,0,0,0,0,0,0,0,
0,0,0,0,0,0,0,0,0,0,0,0,0,0,0,0,
0,0,0,0,0,0,0,0,0,0,0,0,0,0,0,0,
0,0,0,0,0,0,0,0,0,0,0,0,0,0,0,0,
0,0,0,0,0,0,0,0,0,0,0,0,0,0,0,0,
0,0,0,0,0,0,0,0,0,0,0,0,0,0,0,0,
0,0,0,0,0,0,0,0,0,0,0,0,0,0,0,0,
11599,11599,11599,11599,11599,11599,11599,11599,11599,11599,11599,11599,11599,11599,11599,11599,
0,0,0,0,0,0,0,0,0,0,0,0,0,0,0,0,
0,0,0,0,0,0,0,0,0,0,0,0,0,0,0,0,
0,0,0,0,0,0,0,0,0,0,0,0,0,0,0,0,
0,0,0,0,0,0,0,0,0,0,0,0,0,0,0,0
</chunk>
      <chunk x="256" y="128" width="16" height="16">
0,0,0,11599,0,0,0,0,0,0,0,0,0,0,0,0,
0,0,0,11599,0,0,0,0,0,0,0,0,0,0,0,0,
0,0,0,11599,0,0,0,0,0,0,0,0,0,0,0,0,
0,0,0,11599,0,0,0,0,0,0,0,0,0,0,0,0,
0,0,0,11599,0,0,0,0,0,0,0,0,0,0,0,0,
0,0,0,11599,0,0,0,0,0,0,0,0,0,0,0,0,
0,0,0,11599,0,0,0,0,0,0,0,0,0,0,0,0,
0,0,0,11599,0,0,0,0,0,0,0,0,0,0,0,0,
0,0,0,11599,0,0,0,0,0,0,0,0,0,0,0,0,
0,0,0,11599,0,0,0,0,0,0,0,0,0,0,0,0,
0,0,0,11599,0,0,0,0,0,0,0,0,0,0,0,0,
11599,11599,11599,11599,0,0,0,0,0,0,0,0,0,0,0,0,
0,0,0,0,0,0,0,0,0,0,0,0,0,0,0,0,
0,0,0,0,0,0,0,0,0,0,0,0,0,0,0,0,
0,0,0,0,0,0,0,0,0,0,0,0,0,0,0,0,
0,0,0,0,0,0,0,0,0,0,0,0,0,0,0,0
</chunk>
    </data>
  </layer>
  <layer id="2" name="Tile Layer 2" width="30" height="20">
    <data encoding="csv">
      <chunk x="128" y="-128" width="16" height="16">
0,0,0,0,0,0,0,0,0,0,0,0,0,0,0,0,
0,0,0,0,0,0,0,0,0,0,0,0,0,0,0,0,
0,0,0,0,0,0,0,0,0,0,0,0,0,0,0,0,
0,0,0,0,0,0,0,0,0,0,0,0,0,0,0,0,
0,0,0,0,0,0,0,0,0,0,0,0,0,0,0,0,
0,0,0,0,0,0,0,0,0,0,0,0,0,0,0,0,
0,0,0,0,0,0,0,0,0,0,0,0,0,0,0,0,
0,0,0,0,0,0,0,0,0,0,0,0,0,0,0,0,
0,0,0,0,0,0,0,0,0,0,0,0,0,0,0,0,
0,0,0,0,0,0,0,0,4027,0,0,0,0,0,0,0,
0,0,0,0,0,0,0,0,0,0,0,0,0,0,0,0,
0,0,0,0,0,0,0,0,0,0,0,0,0,0,0,0,
0,0,0,0,0,0,0,0,0,0,0,0,0,0,0,0,
0,0,0,0,0,0,0,0,0,0,0,0,0,0,0,0,
0,0,0,0,0,0,0,0,0,0,0,0,0,0,0,0,
0,0,0,0,0,0,0,0,0,0,0,0,0,0,0,0
</chunk>
      <chunk x="112" y="-112" width="16" height="16">
0,0,0,0,0,0,0,0,0,0,0,0,0,0,0,0,
0,0,0,0,0,0,0,0,0,0,0,0,0,0,0,0,
0,0,0,0,0,0,0,0,0,0,0,0,0,0,0,0,
0,0,0,0,0,0,0,0,0,0,0,0,0,0,0,0,
0,0,0,0,0,0,0,0,0,0,0,0,0,0,0,0,
0,0,0,0,0,0,0,0,0,0,0,0,0,0,0,0,
0,0,0,0,0,0,0,308,309,309,309,309,309,309,309,309,
0,0,0,0,0,0,0,357,2270,2271,2271,2271,2271,2271,2271,2271,
0,0,0,0,0,0,0,357,2319,2320,2320,2320,2320,2320,2320,2320,
0,0,0,0,0,0,0,357,2319,2320,2320,2320,2320,2320,2320,2320,
0,0,0,0,0,0,0,357,2319,2320,2320,2320,2320,2320,2320,2320,
0,0,0,0,0,0,0,357,2368,2369,2369,2369,2369,2369,2369,2369,
0,0,0,0,0,0,0,357,0,0,0,0,0,0,0,0,
0,0,0,0,0,0,0,357,0,0,0,0,0,0,0,0,
0,0,0,0,0,0,0,357,0,0,0,0,0,0,0,0,
0,0,0,0,0,0,0,357,0,0,0,0,0,0,0,0
</chunk>
      <chunk x="128" y="-112" width="16" height="16">
0,0,0,0,0,0,0,0,0,0,0,0,0,0,0,0,
0,0,0,0,0,0,0,0,0,0,0,0,0,0,0,0,
0,0,0,0,0,0,0,0,0,0,0,0,0,0,0,0,
0,0,0,0,0,0,0,0,0,0,0,0,0,0,0,0,
0,0,0,0,0,0,0,0,0,0,0,0,0,0,0,0,
0,0,0,0,0,0,0,0,0,0,0,0,0,0,0,0,
309,309,309,309,309,309,309,309,309,309,309,309,309,309,309,309,
2271,2271,2271,2271,2271,2271,2271,2271,2271,2271,2271,2271,2271,2271,2271,2271,
2320,2320,2320,2320,2320,2320,2320,2320,2320,2320,2320,2320,2320,2320,2320,2320,
2320,2320,2320,2320,2320,2320,2320,2320,2320,2320,2320,2320,2320,2320,2320,2320,
2320,2320,2320,2320,2320,2320,2320,2320,2320,2320,2320,2320,2320,2320,2320,2320,
2369,2369,2369,2369,2369,2369,2369,2369,2369,2369,2369,2369,2369,2369,2369,2369,
0,0,0,0,0,0,0,0,0,0,0,0,0,0,0,0,
0,0,0,0,0,0,0,0,0,0,0,0,0,0,0,0,
0,0,0,0,0,0,0,0,0,0,0,0,0,0,0,0,
0,0,0,0,0,0,0,0,0,0,0,0,0,0,0,0
</chunk>
      <chunk x="144" y="-112" width="16" height="16">
0,0,0,0,0,0,0,0,0,0,0,0,0,0,0,0,
0,0,0,0,0,0,0,0,0,0,0,0,0,0,0,0,
0,0,0,0,0,0,0,0,0,0,0,0,0,0,0,0,
0,0,0,0,0,0,0,0,0,0,0,0,0,0,0,0,
0,0,0,0,0,0,0,0,0,0,0,0,0,0,0,0,
0,0,0,0,0,0,0,0,0,0,0,0,0,0,0,0,
309,309,309,309,309,309,309,309,309,309,309,309,309,309,309,309,
2271,2271,2271,2271,2271,2271,2271,2271,2271,2271,2271,2271,2271,2271,2271,2271,
2320,2320,2320,2320,2320,2320,2320,2320,2320,2320,2320,2320,2320,2320,2320,2320,
2320,2320,2320,2320,2320,2320,2320,2320,2320,2320,2320,2320,2320,2320,2320,2320,
2320,2320,2320,2320,2320,2320,2320,2320,2320,2320,2320,2320,2320,2320,2320,2320,
2369,2369,2369,2369,2369,2369,2369,2369,2369,2369,2369,2369,2369,2369,2369,2369,
0,0,0,0,0,0,0,0,0,0,0,0,0,0,0,0,
0,0,0,0,0,0,0,0,0,0,0,0,0,0,0,0,
0,0,0,0,0,0,0,0,0,0,0,0,0,0,0,0,
0,0,0,0,0,0,0,0,0,0,0,0,0,0,0,0
</chunk>
      <chunk x="160" y="-112" width="16" height="16">
0,0,0,0,0,0,0,0,0,0,0,0,0,0,0,0,
0,0,0,0,0,0,0,0,0,0,0,0,0,0,0,0,
0,0,0,0,0,0,0,0,0,0,0,0,0,0,0,0,
0,0,0,0,0,0,0,0,0,0,0,0,0,0,0,0,
0,0,0,0,0,0,0,0,0,0,0,0,0,0,0,0,
0,0,0,0,0,0,0,0,0,0,0,0,0,0,0,0,
309,309,309,309,309,309,309,309,309,309,309,309,309,309,309,309,
2271,2271,2271,2271,2271,2271,2271,2271,2271,2271,2271,2271,2271,2271,2271,2271,
2320,2320,2320,2320,2320,2320,2320,2320,2320,2320,2320,2320,2320,2320,2320,2320,
2320,2320,2320,2320,2320,2320,2320,2320,2320,2320,2320,2320,2320,2320,2320,2320,
2320,2320,2320,2320,2320,2320,2320,2320,2320,2320,2320,2320,2320,2320,2320,2320,
2369,2369,2369,2369,2369,2369,2369,2369,2369,2369,2369,2369,2369,2369,2369,2369,
0,0,0,0,0,0,0,0,0,0,0,0,0,0,0,0,
0,0,0,0,0,0,0,0,0,0,0,0,0,0,0,0,
0,0,0,0,0,0,0,0,0,0,0,0,0,0,0,0,
0,0,0,0,0,0,0,0,0,0,0,0,0,0,0,0
</chunk>
      <chunk x="176" y="-112" width="16" height="16">
0,0,0,0,0,0,0,0,0,0,0,0,0,0,0,0,
0,0,0,0,0,0,0,0,0,0,0,0,0,0,0,0,
0,0,0,0,0,0,0,0,0,0,0,0,0,0,0,0,
0,0,0,0,0,0,0,0,0,0,0,0,0,0,0,0,
0,0,0,0,0,0,0,0,0,0,0,0,0,0,0,0,
0,0,0,0,0,0,0,0,0,0,0,0,0,0,0,0,
309,309,309,309,309,309,309,309,309,309,309,309,309,309,310,0,
2271,2271,2271,2271,2271,2271,2271,2271,2271,2271,2271,2271,2271,2272,359,0,
2320,2320,2320,2320,2320,2320,2320,2320,2320,2320,2320,2320,2320,2321,359,0,
2320,2320,2320,2320,2320,2320,2320,2320,2320,2320,2320,2320,2320,2321,359,0,
2320,2320,2320,2320,2320,2320,2320,2320,2320,2320,2320,2320,2320,2321,359,0,
2369,2369,2369,2369,2369,2369,2369,2369,2369,2369,2369,2369,2369,2370,359,0,
0,0,0,0,0,0,0,0,0,0,0,0,0,0,357,0,
0,0,0,0,0,0,0,0,0,0,0,0,0,0,357,0,
0,0,0,0,0,0,0,0,0,0,0,0,0,0,357,0,
0,0,0,0,0,0,0,0,0,0,0,0,0,0,357,0
</chunk>
      <chunk x="112" y="-96" width="16" height="16">
0,0,0,0,0,0,0,357,0,0,0,0,0,0,0,0,
0,0,0,0,0,0,0,357,0,0,0,0,0,0,0,0,
0,0,0,0,0,0,0,357,0,0,0,0,0,0,0,0,
0,0,0,0,0,0,0,357,0,0,0,0,0,0,0,0,
0,0,0,0,0,0,0,357,0,0,0,0,0,0,0,0,
0,0,0,0,0,0,0,357,0,0,0,0,0,0,0,0,
0,0,0,0,0,0,0,357,0,0,0,0,0,0,0,0,
0,0,0,0,0,0,0,357,0,0,0,0,0,0,0,0,
0,0,0,0,0,0,0,357,0,0,0,0,0,0,0,0,
0,0,0,0,0,0,0,357,0,0,0,0,0,0,0,0,
0,0,0,0,0,0,0,357,0,0,0,0,0,0,0,0,
0,0,0,0,0,0,0,357,0,0,0,0,0,0,0,0,
0,0,0,0,0,0,0,357,0,0,0,0,0,0,0,0,
0,0,0,0,0,0,0,357,0,0,0,0,0,0,0,0,
0,0,0,0,0,0,0,357,0,0,0,0,0,0,0,0,
0,0,0,0,0,0,0,357,0,0,0,0,0,0,0,0
</chunk>
      <chunk x="176" y="-96" width="16" height="16">
0,0,0,0,0,0,0,0,0,0,0,0,0,0,357,0,
0,0,0,0,0,0,0,0,0,0,0,0,0,0,357,0,
0,0,0,0,0,0,0,0,0,0,0,0,0,0,357,0,
0,0,0,0,0,0,0,0,0,0,0,0,0,0,357,0,
0,0,0,0,0,0,0,0,0,0,0,0,0,0,357,0,
0,0,0,0,0,0,0,0,0,0,0,0,0,0,357,0,
0,0,0,0,0,0,0,0,0,0,0,0,0,0,357,0,
0,0,0,0,0,0,0,0,0,0,0,0,0,0,357,0,
0,0,0,0,0,0,0,0,0,0,0,0,0,0,357,0,
0,0,0,0,0,0,0,0,0,0,0,0,0,0,357,0,
0,0,0,0,0,0,0,0,0,0,0,0,0,0,357,0,
0,0,0,0,0,0,0,0,0,0,0,0,0,0,357,0,
0,0,0,0,0,0,0,0,0,0,0,0,0,0,357,0,
0,0,0,0,0,0,0,0,0,0,0,0,0,0,357,0,
0,0,0,0,0,0,0,0,0,0,0,0,0,0,357,0,
0,0,0,0,0,0,0,0,0,0,0,0,0,0,357,0
</chunk>
      <chunk x="112" y="-80" width="16" height="16">
0,0,0,0,0,0,0,357,0,0,0,0,0,0,0,0,
0,0,0,0,0,0,0,357,0,0,0,0,0,0,0,0,
0,0,0,0,0,0,0,357,0,0,0,0,0,0,0,0,
0,0,0,0,0,0,0,357,0,0,0,0,0,0,0,0,
0,0,0,0,0,0,0,357,0,0,0,0,0,0,0,0,
0,0,0,0,0,0,0,357,0,0,0,0,0,0,0,0,
0,0,0,0,0,0,0,357,0,0,0,0,0,0,0,0,
0,0,0,0,0,0,0,357,0,0,0,0,0,0,0,0,
0,0,0,0,0,0,0,357,0,0,0,0,0,0,0,0,
0,0,0,0,0,0,0,357,0,0,0,0,0,0,0,0,
0,0,0,0,0,0,0,357,0,0,0,0,0,0,0,0,
0,0,0,0,0,0,0,357,0,0,0,0,0,0,0,0,
0,0,0,0,0,0,0,357,0,0,0,0,0,0,0,0,
0,0,0,0,0,0,0,357,0,0,0,0,0,0,0,0,
0,0,0,0,0,0,0,357,0,0,0,0,0,0,0,0,
0,0,0,0,0,0,0,357,0,0,0,0,0,0,0,0
</chunk>
      <chunk x="176" y="-80" width="16" height="16">
0,0,0,0,0,0,0,0,0,0,0,0,0,0,357,0,
0,0,0,0,0,0,0,0,0,0,0,0,0,0,357,0,
0,0,0,0,0,0,0,0,0,0,0,0,0,0,357,0,
0,0,0,0,0,0,0,0,0,0,0,0,0,0,357,0,
0,0,0,0,0,0,0,0,0,0,0,0,0,0,357,0,
0,0,0,0,0,0,0,0,0,0,0,0,0,0,357,0,
0,0,0,0,0,0,0,0,0,0,0,0,0,0,357,0,
0,0,0,0,0,0,0,0,0,0,0,0,0,0,357,0,
0,0,0,0,0,0,0,0,0,0,0,0,0,0,357,0,
0,0,0,0,0,0,0,0,0,0,0,0,0,0,357,0,
0,0,0,0,0,0,0,0,0,0,0,0,0,0,357,0,
0,0,0,0,0,0,0,0,0,0,0,0,0,0,357,0,
0,0,0,0,0,0,0,0,0,0,0,0,0,0,357,0,
0,0,0,0,0,0,0,0,0,0,0,0,0,0,357,0,
0,0,0,0,0,0,0,0,0,0,0,0,0,0,357,0,
0,0,0,0,0,0,0,0,0,0,0,0,0,0,357,0
</chunk>
      <chunk x="112" y="-64" width="16" height="16">
0,0,0,0,0,0,0,357,0,0,0,0,0,0,0,0,
0,0,0,0,0,0,0,357,0,0,0,0,0,0,0,0,
0,0,0,0,0,0,0,357,0,0,0,0,0,0,0,0,
0,0,0,0,0,0,0,357,0,0,0,0,0,0,0,0,
0,0,0,0,0,0,0,357,0,0,0,0,0,0,0,0,
0,0,0,0,0,0,0,357,0,0,0,0,0,0,0,0,
0,0,0,0,0,0,0,357,0,0,0,0,0,0,0,0,
0,0,0,0,0,0,0,357,0,0,0,0,0,0,0,0,
0,0,0,0,0,0,0,357,0,0,0,0,4469,4469,4469,4469,
0,0,0,0,0,0,0,357,0,0,0,0,0,0,0,0,
0,0,0,0,0,0,0,357,0,0,0,0,0,0,0,0,
0,0,0,0,0,0,0,357,0,0,0,0,0,0,0,0,
0,0,0,0,0,0,0,357,0,0,0,0,0,0,0,0,
0,0,0,0,0,0,0,357,0,0,0,0,0,0,0,0,
0,0,0,0,0,0,0,357,0,0,0,0,0,0,0,0,
0,0,0,0,0,0,0,357,0,0,0,0,0,0,0,0
</chunk>
      <chunk x="176" y="-64" width="16" height="16">
0,0,0,0,0,0,0,0,0,0,0,0,0,0,357,0,
0,0,0,0,0,0,0,0,0,0,0,0,0,0,357,0,
0,0,0,0,0,0,0,0,0,0,0,0,0,0,357,0,
0,0,0,0,0,0,0,0,0,0,0,0,0,0,357,0,
0,0,0,0,0,0,0,0,0,0,0,0,0,0,357,0,
0,0,0,0,0,0,0,0,0,0,0,0,0,0,357,0,
0,0,0,0,0,0,0,0,0,0,0,0,0,0,357,0,
0,0,0,0,0,0,0,0,0,0,0,0,0,0,357,0,
0,0,0,0,0,0,0,0,0,0,0,0,0,0,357,0,
0,0,0,0,0,0,0,0,0,0,0,0,0,0,357,0,
0,0,0,0,0,0,0,0,0,0,0,0,0,0,357,0,
0,0,0,0,0,0,0,0,0,0,0,0,0,0,357,0,
0,0,0,0,0,0,0,0,0,0,0,0,0,0,357,0,
0,0,0,0,0,0,0,0,0,0,0,0,0,0,357,0,
0,0,0,0,0,0,0,0,0,0,0,0,0,0,357,0,
0,0,0,0,0,0,0,0,0,0,0,0,0,0,357,0
</chunk>
      <chunk x="112" y="-48" width="16" height="16">
0,0,0,0,0,0,0,357,0,0,0,0,0,0,0,0,
0,0,0,0,0,0,0,357,0,0,0,0,0,0,0,0,
0,0,0,0,0,0,0,357,0,0,0,0,0,0,0,0,
0,0,0,0,0,0,0,357,0,0,0,0,0,0,0,0,
0,0,0,0,0,0,0,357,0,0,0,0,0,0,0,0,
0,0,0,0,0,0,0,360,0,0,0,0,0,0,0,0,
0,0,0,0,0,0,0,2286,0,0,0,0,0,0,0,0,
0,0,0,0,0,0,0,2335,0,0,0,0,0,0,0,0,
0,0,0,0,0,0,0,2335,0,0,0,0,0,0,0,0,
0,0,0,0,0,0,0,2335,0,0,0,0,0,0,0,0,
0,0,0,0,0,0,0,2384,0,0,0,0,0,0,0,0,
0,0,0,0,0,0,0,4469,4469,4469,466,466,466,466,466,466,
0,0,0,0,0,0,0,466,4469,4469,466,466,466,466,466,466,
0,0,0,0,0,0,0,466,4469,4469,466,466,466,466,466,466,
0,0,0,0,0,0,0,466,4469,466,466,466,466,466,466,466,
0,0,0,0,0,0,0,311,0,0,0,0,0,0,0,0
</chunk>
      <chunk x="128" y="-48" width="16" height="16">
0,0,0,0,0,0,0,0,0,0,0,0,0,0,0,0,
0,0,0,0,0,0,0,0,0,0,0,0,0,0,0,0,
0,0,0,0,0,0,0,0,0,0,0,0,0,0,0,0,
0,0,0,0,0,0,0,0,0,0,0,0,0,0,0,0,
0,0,0,0,0,0,0,0,0,0,0,0,0,0,0,0,
0,0,0,0,0,0,0,0,0,0,0,0,0,0,0,0,
0,0,0,0,0,0,0,0,0,0,0,0,0,0,0,0,
0,0,0,0,0,0,0,0,0,0,0,0,0,0,0,0,
0,0,0,0,0,0,0,0,0,0,0,0,0,0,0,0,
0,0,0,0,0,0,0,0,0,0,0,0,0,0,0,0,
0,0,0,0,0,0,0,0,0,0,0,0,0,0,0,0,
466,466,466,466,466,466,466,466,466,466,466,466,466,466,466,466,
466,466,466,466,466,466,466,466,466,466,466,466,466,466,466,466,
466,466,466,466,466,466,466,466,466,466,466,466,466,466,466,466,
466,466,466,466,466,466,466,466,466,466,466,466,466,466,466,466,
0,0,0,0,0,0,0,0,0,0,0,0,0,0,0,0
</chunk>
      <chunk x="144" y="-48" width="16" height="16">
0,0,0,0,0,0,0,0,0,0,0,0,0,0,0,0,
0,0,0,0,0,0,0,0,0,0,0,0,0,0,0,0,
0,0,0,0,0,0,0,0,0,0,0,0,0,0,0,0,
0,0,0,0,0,0,0,0,0,0,0,0,0,0,0,0,
0,0,0,0,0,0,0,0,0,0,0,0,0,0,0,0,
0,0,0,0,0,0,0,0,0,0,0,0,0,0,0,0,
0,0,0,0,0,0,0,0,0,0,0,0,0,0,0,0,
0,0,0,0,0,0,0,0,0,0,0,0,0,0,0,0,
0,0,0,0,0,0,0,0,0,0,0,0,0,0,0,0,
0,0,0,0,0,0,0,0,0,0,0,0,0,0,0,0,
0,0,0,0,0,0,0,0,0,0,0,0,0,0,0,0,
466,466,466,466,466,466,466,466,466,466,466,466,466,466,466,466,
466,466,466,466,466,466,466,466,466,466,466,466,466,466,466,466,
466,466,466,466,466,466,466,466,466,466,466,466,466,466,466,466,
466,466,466,466,466,466,466,466,466,466,466,466,466,466,466,466,
0,0,0,0,0,0,0,0,0,0,0,0,0,0,0,0
</chunk>
      <chunk x="160" y="-48" width="16" height="16">
0,0,0,0,0,0,0,0,0,0,0,0,0,0,0,0,
0,0,0,0,0,0,0,0,0,0,0,0,0,0,0,0,
0,0,0,0,0,0,0,0,0,0,0,0,0,0,0,0,
0,0,0,0,0,0,0,0,0,0,0,0,0,0,0,0,
0,0,0,0,0,0,0,0,0,0,0,0,0,0,0,0,
0,0,0,0,0,0,0,0,0,0,0,0,0,0,0,0,
0,0,0,0,0,0,0,0,0,0,0,0,0,0,0,0,
0,0,0,0,0,0,0,0,0,0,0,0,0,0,0,0,
0,0,0,0,0,0,0,0,0,0,0,0,0,0,0,0,
0,0,0,0,0,0,0,0,0,0,0,0,0,0,0,0,
0,0,0,0,0,0,0,0,0,0,0,0,0,0,0,0,
466,466,466,466,466,466,466,466,466,466,466,466,466,466,466,466,
466,466,466,466,466,466,466,466,466,466,466,466,466,466,466,466,
466,466,466,466,466,466,466,466,466,466,466,466,466,466,466,466,
466,466,466,466,466,466,466,466,466,466,466,466,466,466,466,466,
0,0,0,0,0,0,0,0,0,0,0,0,0,0,0,0
</chunk>
      <chunk x="176" y="-48" width="16" height="16">
0,0,0,0,0,0,0,0,0,0,0,0,0,0,357,0,
0,0,0,0,0,0,0,0,0,0,0,0,0,0,357,0,
0,0,0,0,0,0,0,0,0,0,0,0,0,0,357,0,
0,0,0,0,0,0,0,0,0,0,0,0,0,0,357,0,
0,0,0,0,0,0,0,0,0,0,0,0,0,0,357,0,
0,0,0,0,0,0,0,0,0,0,0,0,0,0,360,0,
0,0,0,0,0,0,0,0,0,0,0,0,0,0,2286,0,
0,0,0,0,0,0,0,0,0,0,0,0,0,0,2286,0,
0,0,0,0,0,0,0,0,0,0,0,0,0,0,2335,0,
0,0,0,0,0,0,0,0,0,0,0,0,0,0,2335,0,
0,0,0,0,0,0,0,0,0,0,0,0,0,0,2384,0,
466,466,466,466,466,466,466,466,466,466,466,466,466,4469,4469,0,
466,466,466,466,466,466,466,466,466,466,466,466,466,4469,4469,4469,
466,466,466,466,466,466,466,466,466,466,466,466,466,4469,4469,0,
466,466,466,466,466,466,466,466,466,466,466,466,466,466,466,0,
0,0,0,0,0,0,0,0,0,0,0,0,0,0,311,0
</chunk>
      <chunk x="112" y="-32" width="16" height="16">
0,0,0,0,0,0,0,357,0,0,0,0,0,0,0,0,
0,0,0,0,0,0,0,357,0,0,0,0,0,0,0,0,
0,0,0,0,0,0,0,357,0,0,0,0,0,0,0,0,
0,0,0,0,0,0,0,357,0,0,0,0,0,0,0,0,
0,0,0,0,0,0,0,357,0,0,0,0,0,0,0,0,
0,0,0,0,0,0,0,357,0,0,0,0,0,0,0,0,
0,0,0,0,0,0,0,357,0,0,0,0,0,0,0,0,
0,0,0,0,0,0,0,357,0,0,0,0,0,0,0,0,
0,0,0,0,0,0,0,357,0,0,0,0,0,0,0,0,
0,0,0,0,0,0,0,357,0,0,0,0,0,0,0,0,
0,0,0,0,0,0,0,357,0,0,0,0,0,0,0,0,
0,0,0,0,0,0,0,357,0,0,0,0,0,0,0,0,
0,0,0,0,0,0,0,357,0,0,0,0,0,0,0,0,
0,0,0,0,0,0,0,357,0,0,0,0,0,0,0,0,
0,0,0,0,0,0,0,357,0,0,0,0,0,0,0,0,
0,0,0,0,0,0,0,357,0,0,0,0,0,0,0,0
</chunk>
      <chunk x="176" y="-32" width="16" height="16">
0,0,0,0,0,0,0,0,0,0,0,0,0,0,357,0,
0,0,0,0,0,0,0,0,0,0,0,0,0,0,357,0,
0,0,0,0,0,0,0,0,0,0,0,0,0,0,357,0,
0,0,0,0,0,0,0,0,0,0,0,0,0,0,357,0,
0,0,0,0,0,0,0,0,0,0,0,0,0,0,357,0,
0,0,0,0,0,0,0,0,0,0,0,0,0,0,357,0,
0,0,0,0,0,0,0,0,0,0,0,0,0,0,357,0,
0,0,0,0,0,0,0,0,0,0,0,0,0,0,357,0,
0,0,0,0,0,0,0,0,0,0,0,0,0,0,357,0,
0,0,0,0,0,0,0,0,0,0,0,0,0,0,357,0,
0,0,0,0,0,0,0,0,0,0,0,0,0,0,357,0,
0,0,0,0,0,0,0,0,0,0,0,0,0,0,357,0,
0,0,0,0,0,0,0,0,0,0,0,0,0,0,357,0,
0,0,0,0,0,0,0,0,0,0,0,0,0,0,357,0,
0,0,0,0,0,0,0,0,0,0,0,0,0,0,357,0,
0,0,0,0,0,0,0,0,0,0,0,0,0,0,357,0
</chunk>
      <chunk x="16" y="-16" width="16" height="16">
0,0,0,0,0,0,0,0,0,0,0,0,0,0,0,0,
0,0,0,0,0,0,0,0,0,0,0,0,0,0,0,0,
0,0,0,0,0,0,0,0,0,0,0,0,0,0,0,0,
0,0,0,0,0,0,0,0,0,0,0,0,0,0,0,0,
0,0,0,0,0,0,0,0,0,0,0,0,0,0,0,0,
0,0,0,0,0,0,0,0,0,0,0,0,0,0,0,0,
0,0,0,0,0,0,0,0,0,0,0,0,0,0,0,0,
0,0,0,0,0,0,0,0,0,0,0,0,0,0,0,0,
0,0,0,0,0,0,0,0,0,0,0,0,0,0,0,0,
0,0,0,0,0,0,0,0,0,0,0,0,0,0,0,0,
0,0,0,308,407,407,407,407,407,407,407,407,407,407,407,407,
0,0,0,357,2270,2271,2271,2271,2271,2271,2271,2271,2271,2271,2271,2271,
0,0,0,357,2319,2320,2320,2320,2320,2320,2320,2320,2320,2320,2320,2320,
0,0,0,357,2319,2320,2320,2320,2320,2320,2320,2320,2320,2320,2320,2320,
0,0,0,357,2319,2320,2320,2320,2320,2320,2320,2320,2320,2320,2320,2320,
0,0,0,357,2368,2369,2369,2369,2369,2369,2369,2369,2369,2369,2369,2369
</chunk>
      <chunk x="32" y="-16" width="16" height="16">
0,0,0,0,0,0,0,0,0,0,0,0,0,0,0,0,
0,0,0,0,0,0,0,0,0,0,0,0,0,0,0,0,
0,0,0,0,0,0,0,0,0,0,0,0,0,0,0,0,
0,0,0,0,0,0,0,0,0,0,0,0,0,0,0,0,
0,0,0,0,0,0,0,0,0,0,0,0,0,0,0,0,
0,0,0,0,0,0,0,0,0,0,0,0,0,0,0,0,
0,0,0,0,0,0,0,0,0,0,0,0,0,0,0,0,
0,0,0,0,0,0,0,0,0,0,0,0,0,0,0,0,
0,0,0,0,0,0,0,0,0,0,0,0,0,0,0,0,
0,0,0,0,0,0,0,0,0,0,0,0,0,0,0,0,
407,407,407,407,407,407,407,407,407,407,407,407,407,407,407,407,
2271,2271,2271,2271,2271,2271,2271,2271,2271,2271,2271,2271,2271,2271,2271,2271,
2320,2320,2320,2320,2320,2320,2320,2320,2320,2320,2320,2320,2320,2320,2320,2320,
2320,2320,2320,2320,2320,2320,2320,2320,2320,2320,2320,2320,2320,2320,2320,2320,
2320,2320,2320,2320,2320,2320,2320,2320,2320,2320,2320,2320,2320,2320,2320,2320,
2369,2369,2369,2369,2369,2369,2369,2369,2369,2369,2369,2369,2369,2369,2369,2369
</chunk>
      <chunk x="48" y="-16" width="16" height="16">
0,0,0,0,0,0,0,0,0,0,0,0,0,0,0,0,
0,0,0,0,0,0,0,0,0,0,0,0,0,0,0,0,
0,0,0,0,0,0,0,0,0,0,0,0,0,0,0,0,
0,0,0,0,0,0,0,0,0,0,0,0,0,0,0,0,
0,0,0,0,0,0,0,0,0,0,0,0,0,0,0,0,
0,0,0,0,0,0,0,0,0,0,0,0,0,0,0,0,
0,0,0,0,0,0,0,0,0,0,0,0,0,0,0,0,
0,0,0,0,0,0,0,0,0,0,0,0,0,0,0,0,
0,0,0,0,0,0,0,0,0,0,0,0,0,0,0,0,
0,0,0,0,0,0,0,0,0,0,0,0,0,0,0,0,
407,407,407,407,407,407,407,407,407,407,407,407,407,407,407,407,
2271,2271,2271,2271,2271,2271,2271,2271,2271,2271,2271,2271,2271,2271,2271,2271,
2320,2320,2320,2320,2320,2320,2320,2320,2320,2320,2320,2320,2320,2320,2320,2320,
2320,2320,2320,2320,2320,2320,2320,2320,2320,2320,2320,2320,2320,2320,2320,2320,
2320,2320,2320,2320,2320,2320,2320,2320,2320,2320,2320,2320,2320,2320,2320,2320,
2369,2369,2369,2369,2369,2369,2369,2369,2369,2369,2369,2369,2369,2369,2369,2369
</chunk>
      <chunk x="64" y="-16" width="16" height="16">
0,0,0,0,0,0,0,0,0,0,0,0,0,0,0,0,
0,0,0,0,0,0,0,0,0,0,0,0,0,0,0,0,
0,0,0,0,0,0,0,0,0,0,0,0,0,0,0,0,
0,0,0,0,0,0,0,0,0,0,0,0,0,0,0,0,
0,0,0,0,0,0,0,0,0,0,0,0,0,0,0,0,
0,0,0,0,0,0,0,0,0,0,0,0,0,0,0,0,
0,0,0,0,0,0,0,0,0,0,0,0,0,0,0,0,
0,0,0,0,0,0,0,0,0,0,0,0,0,0,0,0,
0,0,0,0,0,0,0,0,0,0,0,0,0,0,0,0,
0,0,0,0,0,0,0,0,0,0,0,0,0,0,0,0,
407,407,407,407,407,407,407,407,407,407,407,407,407,407,407,407,
2271,2271,2271,2271,2271,2271,2271,2271,2271,2271,2271,2271,2271,2271,2271,2271,
2320,2320,2320,2320,2320,2320,2320,2320,2320,2320,2320,2320,2320,2320,2320,2320,
2320,2320,2320,2320,2320,2320,2320,2320,2320,2320,2320,2320,2320,2320,2320,2320,
2320,2320,2320,2320,2320,2320,2320,2320,2320,2320,2320,2320,2320,2320,2320,2320,
2369,2369,2369,2369,2369,2369,2369,2369,2369,2369,2369,2369,2369,2369,2369,2369
</chunk>
      <chunk x="80" y="-16" width="16" height="16">
0,0,0,0,0,0,0,0,0,0,0,0,0,0,0,0,
0,0,0,0,0,0,0,0,0,0,0,0,0,0,0,0,
0,0,0,0,0,0,0,0,0,0,0,0,0,0,0,0,
0,0,0,0,0,0,0,0,0,0,0,0,0,0,0,0,
0,0,0,0,0,0,0,0,0,0,0,0,0,0,0,0,
0,0,0,0,0,0,0,0,0,0,0,0,0,0,0,0,
0,0,0,0,0,0,0,0,0,0,0,0,0,0,0,0,
0,0,0,0,0,0,0,0,0,0,0,0,0,0,0,0,
0,0,0,0,0,0,0,0,0,0,0,0,0,0,0,0,
0,0,0,0,0,0,0,0,0,0,0,0,0,0,0,0,
407,407,312,466,466,466,466,361,407,407,407,407,407,407,407,407,
2271,2271,2272,466,466,466,466,2270,2271,2271,2271,2271,2271,2271,2271,2271,
2320,2320,2321,466,466,466,466,2319,2320,2320,2320,2320,2320,2320,2320,2320,
2320,2320,2321,466,466,466,466,2319,2320,2320,2320,2320,2320,2320,2320,2320,
2320,2320,2321,466,466,466,466,2319,2320,2320,2320,2320,2320,2320,2320,2320,
2369,2369,2370,466,466,466,466,2368,2369,2369,2369,2369,2369,2369,2369,2369
</chunk>
      <chunk x="96" y="-16" width="16" height="16">
0,0,0,0,0,0,0,0,0,0,0,0,0,0,0,0,
0,0,0,0,0,0,0,0,0,0,0,0,0,0,0,0,
0,0,0,0,0,0,0,0,0,0,0,0,0,0,0,0,
0,0,0,0,0,0,0,0,0,0,0,0,0,0,0,0,
0,0,0,0,0,0,0,0,0,0,0,0,0,0,0,0,
0,0,0,0,0,0,0,0,0,0,0,0,0,0,0,0,
0,0,0,0,0,0,0,0,0,0,0,0,0,0,0,0,
0,0,0,0,0,0,0,0,0,0,0,0,0,0,0,0,
0,0,0,0,0,0,0,0,0,0,0,0,0,0,0,0,
0,0,0,0,0,0,0,0,0,0,0,0,0,0,0,0,
407,407,407,407,407,407,407,407,407,407,407,407,407,407,407,407,
2271,2271,2271,2271,2271,2271,2271,2271,2271,2271,2271,2271,2271,2271,2271,2271,
2320,2320,2320,2320,2320,2320,2320,2320,2320,2320,2320,2320,2320,2320,2320,2320,
2320,2320,2320,2320,2320,2320,2320,2320,2320,2320,2320,2320,2320,2320,2320,2320,
2320,2320,2320,2320,2320,2320,2320,2320,2320,2320,2320,2320,2320,2320,2320,2320,
2369,2369,2369,2369,2369,2369,2369,2369,2369,2369,2369,2369,2369,2369,2369,2369
</chunk>
      <chunk x="112" y="-16" width="16" height="16">
0,0,0,0,0,0,0,357,0,0,0,0,0,0,0,0,
0,0,0,0,0,0,0,357,0,0,0,0,0,0,0,0,
0,0,0,0,0,0,0,357,0,0,0,0,0,0,0,0,
0,0,0,0,0,0,0,357,0,0,0,0,0,0,0,0,
0,0,0,0,0,0,0,357,0,0,0,0,0,0,0,0,
0,0,0,0,0,0,0,357,0,0,0,0,0,0,0,0,
0,0,0,0,0,0,0,357,0,0,0,0,0,0,0,0,
0,0,0,0,0,0,0,357,0,0,0,0,0,0,0,0,
0,0,0,0,0,0,0,357,0,0,0,0,0,0,0,0,
0,0,0,0,0,0,0,357,0,0,0,0,0,0,0,0,
407,407,407,407,407,407,407,408,0,0,0,0,0,0,0,0,
2271,2271,2271,2271,2271,2271,2271,2272,0,0,0,0,0,0,0,0,
2320,2320,2320,2320,2320,2320,2320,2321,0,0,0,0,0,0,0,0,
2320,2320,2320,2320,2320,2320,2320,2321,0,0,0,0,0,0,0,0,
2320,2320,2320,2320,2320,2320,2320,2321,0,0,0,0,0,0,0,0,
2369,2369,2369,2369,2369,2369,2369,2370,0,0,0,0,0,0,0,0
</chunk>
      <chunk x="176" y="-16" width="16" height="16">
0,0,0,0,0,0,0,0,0,0,0,0,0,0,357,0,
0,0,0,0,0,0,0,0,0,0,0,0,0,0,357,0,
0,0,0,0,0,0,0,0,0,0,0,0,0,0,357,0,
0,0,0,0,0,0,0,0,0,0,0,0,0,0,357,0,
0,0,0,0,0,0,0,0,0,0,0,0,0,0,357,0,
0,0,0,0,0,0,0,0,0,0,0,0,0,0,357,0,
0,0,0,0,0,0,0,0,0,0,0,0,0,0,357,0,
0,0,0,0,0,0,0,0,0,0,0,0,0,0,357,0,
0,0,0,0,0,0,0,0,0,0,0,0,0,0,357,0,
0,0,0,0,0,0,0,0,0,0,0,0,0,0,357,0,
0,0,0,0,0,0,0,0,0,0,0,0,0,0,406,309,
0,0,0,0,0,0,0,0,0,0,0,0,0,0,2270,2271,
0,0,0,0,0,0,0,0,0,0,0,0,0,0,2319,2320,
0,0,0,0,0,0,0,0,0,0,0,0,0,0,2319,2320,
0,0,0,0,0,0,0,0,0,0,0,0,0,0,2319,2320,
0,0,0,0,0,0,0,0,0,0,0,0,0,0,2368,2369
</chunk>
      <chunk x="192" y="-16" width="16" height="16">
0,0,0,0,0,0,0,0,0,0,0,0,0,0,0,0,
0,0,0,0,0,0,0,0,0,0,0,0,0,0,0,0,
0,0,0,0,0,0,0,0,0,0,0,0,0,0,0,0,
0,0,0,0,0,0,0,0,0,0,0,0,0,0,0,0,
0,0,0,0,0,0,0,0,0,0,0,0,0,0,0,0,
0,0,0,0,0,0,0,0,0,0,0,0,0,0,0,0,
0,0,0,0,0,0,0,0,0,0,0,0,0,0,0,0,
0,0,0,0,0,0,0,0,0,0,0,0,0,0,0,0,
0,0,0,0,0,0,0,0,0,0,0,0,0,0,0,0,
0,0,0,0,0,0,0,0,0,0,0,0,0,0,0,0,
309,309,309,309,309,309,309,309,309,309,309,309,309,309,309,309,
2271,2271,2271,2271,2271,2271,2271,2271,2271,2271,2271,2271,2271,2271,2271,2271,
2320,2320,2320,2320,2320,2320,2320,2320,2320,2320,2320,2320,2320,2320,2320,2320,
2320,2320,2320,2320,2320,2320,2320,2320,2320,2320,2320,2320,2320,2320,2320,2320,
2320,2320,2320,2320,2320,2320,2320,2320,2320,2320,2320,2320,2320,2320,2320,2320,
2369,2369,2369,2369,2369,2369,2369,2369,2369,2369,2369,2369,2369,2369,2369,2369
</chunk>
      <chunk x="208" y="-16" width="16" height="16">
0,0,0,0,0,0,0,0,0,0,0,0,0,0,0,0,
0,0,0,0,0,0,0,0,0,0,0,0,0,0,0,0,
0,0,0,0,0,0,0,0,0,0,0,0,0,0,0,0,
0,0,0,0,0,0,0,0,0,0,0,0,0,0,0,0,
0,0,0,0,0,0,0,0,0,0,0,0,0,0,0,0,
0,0,0,0,0,0,0,0,0,0,0,0,0,0,0,0,
0,0,0,0,0,0,0,0,0,0,0,0,0,0,0,0,
0,0,0,0,0,0,0,0,0,0,0,0,0,0,0,0,
0,0,0,0,0,0,0,0,0,0,0,0,0,0,0,0,
0,0,0,0,0,0,0,0,0,0,0,0,0,0,0,0,
309,309,309,309,309,309,309,309,309,309,309,309,309,309,312,466,
2271,2271,2271,2271,2271,2271,2271,2271,2271,2271,2271,2271,2271,2271,2272,466,
2320,2320,2320,2320,2320,2320,2320,2320,2320,2320,2320,2320,2320,2320,2321,466,
2320,2320,2320,2320,2320,2320,2320,2320,2320,2320,2320,2320,2320,2320,2321,466,
2320,2320,2320,2320,2320,2320,2320,2320,2320,2320,2320,2320,2320,2320,2321,466,
2369,2369,2369,2369,2369,2369,2369,2369,2369,2369,2369,2369,2369,2369,2370,466
</chunk>
      <chunk x="224" y="-16" width="16" height="16">
0,0,0,0,0,0,0,0,0,0,0,0,0,0,0,0,
0,0,0,0,0,0,0,0,0,0,0,0,0,0,0,0,
0,0,0,0,0,0,0,0,0,0,0,0,0,0,0,0,
0,0,0,0,0,0,0,0,0,0,0,0,0,0,0,0,
0,0,0,0,0,0,0,0,0,0,0,0,0,0,0,0,
0,0,0,0,0,0,0,0,0,0,0,0,0,0,0,0,
0,0,0,0,0,0,0,0,0,0,0,0,0,0,0,0,
0,0,0,0,0,0,0,0,0,0,0,0,0,0,0,0,
0,0,0,0,0,0,0,0,0,0,0,0,0,0,0,0,
0,0,0,0,0,0,0,0,0,0,0,0,0,0,0,0,
466,466,466,361,309,309,309,309,309,309,309,309,309,309,309,309,
466,466,466,2270,2271,2271,2271,2271,2271,2271,2271,2271,2271,2271,2271,2271,
466,466,466,2319,2320,2320,2320,2320,2320,2320,2320,2320,2320,2320,2320,2320,
466,466,466,2319,2320,2320,2320,2320,2320,2320,2320,2320,2320,2320,2320,2320,
466,466,466,2319,2320,2320,2320,2320,2320,2320,2320,2320,2320,2320,2320,2320,
466,466,466,2368,2369,2369,2369,2369,2369,2369,2369,2369,2369,2369,2369,2369
</chunk>
      <chunk x="240" y="-16" width="16" height="16">
0,0,0,0,0,0,0,0,0,0,0,0,0,0,0,0,
0,0,0,0,0,0,0,0,0,0,0,0,0,0,0,0,
0,0,0,0,0,0,0,0,0,0,0,0,0,0,0,0,
0,0,0,0,0,0,0,0,0,0,0,0,0,0,0,0,
0,0,0,0,0,0,0,0,0,0,0,0,0,0,0,0,
0,0,0,0,0,0,0,0,0,0,0,0,0,0,0,0,
0,0,0,0,0,0,0,0,0,0,0,0,0,0,0,0,
0,0,0,0,0,0,0,0,0,0,0,0,0,0,0,0,
0,0,0,0,0,0,0,0,0,0,0,0,0,0,0,0,
0,0,0,0,0,0,0,0,0,0,0,0,0,0,0,0,
309,309,309,309,309,309,309,309,309,309,309,309,309,309,309,309,
2271,2271,2271,2271,2271,2271,2271,2271,2271,2271,2271,2271,2271,2271,2271,2271,
2320,2320,2320,2320,2320,2320,2320,2320,2320,2320,2320,2320,2320,2320,2320,2320,
2320,2320,2320,2320,2320,2320,2320,2320,2320,2320,2320,2320,2320,2320,2320,2320,
2320,2320,2320,2320,2320,2320,2320,2320,2320,2320,2320,2320,2320,2320,2320,2320,
2369,2369,2369,2369,2369,2369,2369,2369,2369,2369,2369,2369,2369,2369,2369,2369
</chunk>
      <chunk x="256" y="-16" width="16" height="16">
0,0,0,0,0,0,0,0,0,0,0,0,0,0,0,0,
0,0,0,0,0,0,0,0,0,0,0,0,0,0,0,0,
0,0,0,0,0,0,0,0,0,0,0,0,0,0,0,0,
0,0,0,0,0,0,0,0,0,0,0,0,0,0,0,0,
0,0,0,0,0,0,0,0,0,0,0,0,0,0,0,0,
0,0,0,0,0,0,0,0,0,0,0,0,0,0,0,0,
0,0,0,0,0,0,0,0,0,0,0,0,0,0,0,0,
0,0,0,0,0,0,0,0,0,0,0,0,0,0,0,0,
0,0,0,0,0,0,0,0,0,0,0,0,0,0,0,0,
0,0,0,0,0,0,0,0,0,0,0,0,0,0,0,0,
309,309,309,309,309,309,309,309,309,309,309,309,309,309,309,309,
2271,2271,2271,2271,2271,2271,2271,2271,2271,2271,2271,2271,2271,2271,2271,2271,
2320,2320,2320,2320,2320,2320,2320,2320,2320,2320,2320,2320,2320,2320,2320,2320,
2320,2320,2320,2320,2320,2320,2320,2320,2320,2320,2320,2320,2320,2320,2320,2320,
2320,2320,2320,2320,2320,2320,2320,2320,2320,2320,2320,2320,2320,2320,2320,2320,
2369,2369,2369,2369,2369,2369,2369,2369,2369,2369,2369,2369,2369,2369,2369,2369
</chunk>
      <chunk x="272" y="-16" width="16" height="16">
0,0,0,0,0,0,0,0,0,0,0,0,0,0,0,0,
0,0,0,0,0,0,0,0,0,0,0,0,0,0,0,0,
0,0,0,0,0,0,0,0,0,0,0,0,0,0,0,0,
0,0,0,0,0,0,0,0,0,0,0,0,0,0,0,0,
0,0,0,0,0,0,0,0,0,0,0,0,0,0,0,0,
0,0,0,0,0,0,0,0,0,0,0,0,0,0,0,0,
0,0,0,0,0,0,0,0,0,0,0,0,0,0,0,0,
0,0,0,0,0,0,0,0,0,0,0,0,0,0,0,0,
0,0,0,0,0,0,0,0,0,0,0,0,0,0,0,0,
0,0,0,0,0,0,0,0,0,0,0,0,0,0,0,0,
309,309,309,309,309,309,309,309,309,309,309,309,309,309,309,309,
2271,2271,2271,2271,2271,2271,2271,2271,2271,2271,2271,2271,2271,2271,2271,2271,
2320,2320,2320,2320,2320,2320,2320,2320,2320,2320,2320,2320,2320,2320,2320,2320,
2320,2320,2320,2320,2320,2320,2320,2320,2320,2320,2320,2320,2320,2320,2320,2320,
2320,2320,2320,2320,2320,2320,2320,2320,2320,2320,2320,2320,2320,2320,2320,2320,
2369,2369,2369,2369,2369,2369,2369,2369,2369,2369,2369,2369,2369,2369,2369,2369
</chunk>
      <chunk x="288" y="-16" width="16" height="16">
0,0,0,0,0,0,0,0,0,0,0,0,0,0,0,0,
0,0,0,0,0,0,0,0,0,0,0,0,0,0,0,0,
0,0,0,0,0,0,0,0,0,0,0,0,0,0,0,0,
0,0,0,0,0,0,0,0,0,0,0,0,0,0,0,0,
0,0,0,0,0,0,0,0,0,0,0,0,0,0,0,0,
0,0,0,0,0,0,0,0,0,0,0,0,0,0,0,0,
0,0,0,0,0,0,0,0,0,0,0,0,0,0,0,0,
0,0,0,0,0,0,0,0,0,0,0,0,0,0,0,0,
0,0,0,0,0,0,0,0,0,0,0,0,0,0,0,0,
0,0,0,0,0,0,0,0,0,0,0,0,0,0,0,0,
309,309,310,0,0,0,0,0,0,0,0,0,0,0,0,0,
2271,2272,359,0,0,0,0,0,0,0,0,0,0,0,0,0,
2320,2321,359,0,0,0,0,0,0,0,0,0,0,0,0,0,
2320,2321,359,0,0,0,0,0,0,0,0,0,0,0,0,0,
2320,2321,359,0,0,0,0,0,0,0,0,0,0,0,0,0,
2369,2370,359,0,0,0,0,0,0,0,0,0,0,0,0,0
</chunk>
      <chunk x="16" y="0" width="16" height="16">
0,0,0,357,0,0,0,0,0,0,0,0,0,0,0,0,
0,0,0,357,0,0,0,0,0,0,0,0,0,0,0,0,
0,0,0,357,0,0,0,0,0,0,0,0,0,0,0,0,
0,0,0,357,0,0,0,0,0,0,0,0,0,0,0,0,
0,0,0,357,0,0,0,0,0,0,0,0,0,0,0,0,
0,0,0,357,0,0,0,0,0,0,0,0,0,0,0,0,
0,0,0,357,0,0,0,0,0,0,0,0,0,0,0,0,
0,0,0,357,0,0,0,0,0,0,0,0,0,0,0,0,
0,0,0,357,0,0,0,0,0,0,0,0,0,0,0,0,
0,0,0,357,0,0,0,0,0,0,0,0,0,0,0,0,
0,0,0,357,0,0,0,0,0,0,0,0,0,0,0,0,
0,0,0,357,0,0,0,0,0,0,0,0,0,0,0,0,
0,0,0,357,0,0,0,0,0,0,0,0,0,0,0,0,
0,0,0,357,0,0,0,0,0,0,0,0,0,0,0,0,
0,0,0,357,0,0,0,0,0,0,0,0,0,0,0,0,
0,0,0,357,0,0,0,0,0,0,0,0,0,0,0,0
</chunk>
      <chunk x="80" y="0" width="16" height="16">
0,0,0,1325,1325,1325,1325,0,0,0,0,0,0,0,0,0,
0,0,0,1325,1325,1325,1325,0,0,0,0,0,0,0,0,0,
0,0,0,1325,1325,1325,1325,0,0,0,0,0,0,0,0,0,
0,0,0,1325,1325,1325,1325,0,0,0,0,0,0,0,0,0,
0,0,0,1325,1325,1325,1325,0,0,0,0,0,0,0,0,0,
0,0,0,1325,1325,1325,1325,0,0,0,0,0,0,0,0,0,
0,0,0,1325,1325,1325,1325,0,0,0,0,0,0,0,0,0,
0,0,0,1325,1325,1325,1325,0,0,0,0,0,0,0,0,0,
0,0,0,1325,1325,1325,1325,0,0,0,0,0,0,0,0,0,
0,0,0,1325,1325,1325,1325,0,0,0,0,0,0,0,0,0,
0,0,0,1325,1325,1325,1325,0,0,0,0,0,0,0,0,0,
0,0,0,1325,1325,1325,1325,0,0,0,0,0,0,0,0,0,
0,0,0,1325,1325,1325,1325,0,0,0,0,0,0,0,0,0,
0,0,0,1325,1325,1325,1325,0,0,0,0,0,0,0,0,0,
0,0,0,1325,1325,1325,1325,0,0,0,0,0,0,0,0,0,
0,0,0,1325,1325,1325,1325,0,0,0,0,0,0,0,0,0
</chunk>
      <chunk x="208" y="0" width="16" height="16">
0,0,0,0,0,0,0,0,0,0,0,0,0,0,0,1325,
0,0,0,0,0,0,0,0,0,0,0,0,0,0,0,1325,
0,0,0,0,0,0,0,0,0,0,0,0,0,0,0,1325,
0,0,0,0,0,0,0,0,0,0,0,0,0,0,0,1325,
0,0,0,0,0,0,0,0,0,0,0,0,0,0,0,1325,
0,0,0,0,0,0,0,0,0,0,0,0,0,0,0,1325,
0,0,0,0,0,0,0,0,0,0,0,0,0,0,0,1325,
0,0,0,0,0,0,0,0,0,0,0,0,0,0,0,1325,
0,0,0,0,0,0,0,0,0,0,0,0,0,0,0,1325,
0,0,0,0,0,0,0,0,0,0,0,0,0,0,0,1325,
0,0,0,0,0,0,0,0,0,0,0,0,0,0,0,1325,
0,0,0,0,0,0,0,0,0,0,0,0,0,0,0,1325,
0,0,0,0,0,0,0,0,0,0,0,0,0,0,0,1325,
0,0,0,0,0,0,0,0,0,0,0,0,0,0,0,1325,
0,0,0,0,0,0,0,0,0,0,0,0,0,0,0,1325,
0,0,0,0,0,0,0,0,0,0,0,0,0,0,0,1325
</chunk>
      <chunk x="224" y="0" width="16" height="16">
1325,1325,1325,0,0,0,0,0,0,0,0,0,0,0,0,0,
1325,1325,1325,0,0,0,0,0,0,0,0,0,0,0,0,0,
1325,1325,1325,0,0,0,0,0,0,0,0,0,0,0,0,0,
1325,1325,1325,0,0,0,0,0,0,0,0,0,0,0,0,0,
1325,1325,1325,0,0,0,0,0,0,0,0,0,0,0,0,0,
1325,1325,1325,0,0,0,0,0,0,0,0,0,0,0,0,0,
1325,1325,1325,0,0,0,0,0,0,0,0,0,0,0,0,0,
1325,1325,1325,0,0,0,0,0,0,0,0,0,0,0,0,0,
1325,1325,1325,0,0,0,0,0,0,0,0,0,0,0,0,0,
1325,1325,1325,0,0,0,0,0,0,0,0,0,0,0,0,0,
1325,1325,1325,0,0,0,0,0,0,0,0,0,0,0,0,0,
1325,1325,1325,0,0,0,0,0,0,0,0,0,0,0,0,0,
1325,1325,1325,0,0,0,0,0,0,0,0,0,0,0,0,0,
1325,1325,1325,0,0,0,0,0,0,0,0,0,0,0,0,0,
1325,1325,1325,0,0,0,0,0,0,0,0,0,0,0,0,0,
1325,1325,1325,0,0,0,0,0,0,0,0,0,0,0,0,0
</chunk>
      <chunk x="288" y="0" width="16" height="16">
0,0,359,0,0,0,0,0,0,0,0,0,0,0,0,0,
0,0,359,0,0,0,0,0,0,0,0,0,0,0,0,0,
0,0,359,0,0,0,0,0,0,0,0,0,0,0,0,0,
0,0,359,0,0,0,0,0,0,0,0,0,0,0,0,0,
0,0,359,0,0,0,0,0,0,0,0,0,0,0,0,0,
0,0,359,0,0,0,0,0,0,0,0,0,0,0,0,0,
0,0,359,0,0,0,0,0,0,0,0,0,0,0,0,0,
0,0,359,0,0,0,0,0,0,0,0,0,0,0,0,0,
0,0,359,0,0,0,0,0,0,0,0,0,0,0,0,0,
0,0,359,0,0,0,0,0,0,0,0,0,0,0,0,0,
0,0,359,0,0,0,0,0,0,0,0,0,0,0,0,0,
0,0,359,0,0,0,0,0,0,0,0,0,0,0,0,0,
0,0,359,0,0,0,0,0,0,0,0,0,0,0,0,0,
0,0,359,0,0,0,0,0,0,0,0,0,0,0,0,0,
0,0,359,0,0,0,0,0,0,0,0,0,0,0,0,0,
0,0,359,0,0,0,0,0,0,0,0,0,0,0,0,0
</chunk>
      <chunk x="16" y="16" width="16" height="16">
0,0,0,357,0,0,0,0,0,0,0,0,0,0,0,0,
0,0,0,357,0,0,0,0,0,0,0,0,0,0,0,0,
0,0,0,357,0,0,0,0,0,0,0,0,0,0,0,0,
0,0,0,357,0,0,0,0,0,0,0,0,0,0,0,0,
0,0,0,357,0,0,0,0,0,0,0,0,0,0,0,0,
0,0,0,357,0,0,0,0,0,0,0,0,0,0,0,0,
0,0,0,357,0,0,0,0,0,0,0,0,0,0,0,0,
0,0,0,357,0,0,0,0,0,0,0,0,0,0,0,0,
0,0,0,357,0,0,0,0,0,0,0,0,0,0,0,0,
0,0,0,357,0,0,0,0,0,0,0,0,0,0,0,0,
0,0,0,357,0,0,0,0,0,0,0,0,0,0,0,0,
0,0,0,357,0,0,0,0,0,0,0,0,0,0,0,0,
0,0,0,357,0,0,0,0,0,0,0,0,0,0,0,0,
0,0,0,357,0,0,0,0,0,0,0,0,0,0,0,0,
0,0,0,357,0,0,0,0,0,0,0,0,0,0,0,0,
0,0,0,357,0,0,0,0,0,0,0,0,0,0,0,0
</chunk>
      <chunk x="80" y="16" width="16" height="16">
0,0,0,1325,1325,1325,1325,0,0,0,0,0,0,0,0,0,
0,0,0,1325,1325,1325,1325,0,0,0,0,0,0,0,0,0,
0,0,0,1325,1325,1325,1325,0,0,0,0,0,0,0,0,0,
0,0,0,1325,1325,1325,1325,0,0,0,0,0,0,0,0,0,
0,0,0,1325,1325,1325,1325,0,0,0,0,0,0,0,0,0,
0,0,0,1325,1325,1325,1325,0,0,0,0,0,0,0,0,0,
0,0,0,1325,1325,1325,1325,0,0,0,0,0,0,0,0,0,
0,0,0,1325,1325,1325,1325,0,0,0,0,0,0,0,0,0,
0,0,0,1325,1325,1325,1325,0,0,0,0,0,0,0,0,0,
0,0,0,1325,1325,1325,1325,0,0,0,0,0,0,0,0,0,
0,0,0,1325,1325,1325,1325,0,0,0,0,0,0,0,0,0,
0,0,0,1325,1325,1325,1325,0,0,0,0,0,0,0,0,0,
0,0,0,1325,1325,1325,1325,0,0,0,0,0,0,0,0,0,
0,0,0,1325,1325,1325,1325,0,0,0,0,0,0,0,0,0,
0,0,0,1325,1325,1325,1325,0,0,0,0,0,0,0,0,0,
0,0,0,1325,1325,1325,1325,0,0,0,0,0,0,0,0,0
</chunk>
      <chunk x="208" y="16" width="16" height="16">
0,0,0,0,0,0,0,0,0,0,0,0,0,0,0,1325,
0,0,0,0,0,0,0,0,0,0,0,0,0,0,0,1325,
0,0,0,0,0,0,0,0,0,0,0,0,0,0,0,1325,
0,0,0,0,0,0,0,0,0,0,0,0,0,0,0,1325,
0,0,0,0,0,0,0,0,0,0,0,0,0,0,0,1325,
0,0,0,0,0,0,0,0,0,0,0,0,0,0,0,1325,
0,0,0,0,0,0,0,0,0,0,0,0,0,0,0,1325,
0,0,0,0,0,0,0,0,0,0,0,0,0,0,0,1325,
0,0,0,0,0,0,0,0,0,0,0,0,0,0,0,1325,
0,0,0,0,0,0,0,0,0,0,0,0,0,0,0,1325,
0,0,0,0,0,0,0,0,0,0,0,0,0,0,0,1325,
0,0,0,0,0,0,0,0,0,0,0,0,0,0,0,1325,
0,0,0,0,0,0,0,0,0,0,0,0,0,0,0,1325,
0,0,0,0,0,0,0,0,0,0,0,0,0,0,0,1325,
0,0,0,0,0,0,0,0,0,0,0,0,0,0,0,1325,
0,0,0,0,0,0,0,0,0,0,0,0,0,0,0,1325
</chunk>
      <chunk x="224" y="16" width="16" height="16">
1325,1325,1325,0,0,0,0,0,0,0,0,0,0,0,0,0,
1325,1325,1325,0,0,0,0,0,0,0,0,0,0,0,0,0,
1325,1325,1325,0,0,0,0,0,0,0,0,0,0,0,0,0,
1325,1325,1325,0,0,0,0,0,0,0,0,0,0,0,0,0,
1325,1325,1325,0,0,0,0,0,0,0,0,0,0,0,0,0,
1325,1325,1325,0,0,0,0,0,0,0,0,0,0,0,0,0,
1325,1325,1325,0,0,0,0,0,0,0,0,0,0,0,0,0,
1325,1325,1325,0,0,0,0,0,0,0,0,0,0,0,0,0,
1325,1325,1325,0,0,0,0,0,0,0,0,0,0,0,0,0,
1325,1325,1325,0,0,0,0,0,0,0,0,0,0,0,0,0,
1325,1325,1325,0,0,0,0,0,0,0,0,0,0,0,0,0,
1325,1325,1325,0,0,0,0,0,0,0,0,0,0,0,0,0,
1325,1325,1325,0,0,0,0,0,0,0,0,0,0,0,0,0,
1325,1325,1325,0,0,0,0,0,0,0,0,0,0,0,0,0,
1325,1325,1325,0,0,0,0,0,0,0,0,0,0,0,0,0,
1325,1325,1325,0,0,0,0,0,0,0,0,0,0,0,0,0
</chunk>
      <chunk x="288" y="16" width="16" height="16">
0,0,359,0,0,0,0,0,0,0,0,0,0,0,0,0,
0,0,359,0,0,0,0,0,0,0,0,0,0,0,0,0,
0,0,359,0,0,0,0,0,0,0,0,0,0,0,0,0,
0,0,359,0,0,0,0,0,0,0,0,0,0,0,0,0,
0,0,359,0,0,0,0,0,0,0,0,0,0,0,0,0,
0,0,359,0,0,0,0,0,0,0,0,0,0,0,0,0,
0,0,359,0,0,0,0,0,0,0,0,0,0,0,0,0,
0,0,359,0,0,0,0,0,0,0,0,0,0,0,0,0,
0,0,359,0,0,0,0,0,0,0,0,0,0,0,0,0,
0,0,359,0,0,0,0,0,0,0,0,0,0,0,0,0,
0,0,359,0,0,0,0,0,0,0,0,0,0,0,0,0,
0,0,359,0,0,0,0,0,0,0,0,0,0,0,0,0,
0,0,359,0,0,0,0,0,0,0,0,0,0,0,0,0,
0,0,359,0,0,0,0,0,0,0,0,0,0,0,0,0,
0,0,359,0,0,0,0,0,0,0,0,0,0,0,0,0,
0,0,359,0,0,0,0,0,0,0,0,0,0,0,0,0
</chunk>
      <chunk x="16" y="32" width="16" height="16">
0,0,0,357,0,0,0,0,0,0,0,0,0,0,0,0,
0,0,0,357,0,0,0,0,0,0,0,0,0,0,0,0,
0,0,0,357,0,0,0,0,0,0,0,0,0,0,0,0,
0,0,0,357,0,0,0,0,0,0,0,0,0,0,0,0,
0,0,0,357,0,0,0,0,0,0,0,0,0,0,0,0,
0,0,0,357,0,0,0,0,0,0,0,0,0,0,0,0,
0,0,0,357,0,0,0,0,0,0,0,0,0,0,0,0,
0,0,0,357,0,0,0,0,0,0,0,0,0,0,0,0,
0,0,0,357,0,0,0,0,0,0,0,0,0,0,0,0,
0,0,0,357,0,0,0,0,0,0,0,0,0,0,0,0,
0,0,0,357,0,0,0,0,0,0,0,0,0,0,0,0,
0,0,0,357,0,0,0,0,0,0,0,0,0,0,0,0,
0,0,0,357,0,0,0,0,0,0,0,0,0,0,0,0,
0,0,0,357,0,0,0,0,0,0,0,0,0,0,0,0,
0,0,0,357,0,0,0,0,0,0,0,0,0,0,0,0,
0,0,0,357,0,0,0,0,0,0,0,0,0,0,0,0
</chunk>
      <chunk x="80" y="32" width="16" height="16">
0,0,0,1325,1325,1325,1325,0,0,0,0,0,0,0,0,0,
0,0,0,1325,1325,1325,1325,0,0,0,0,0,0,0,0,0,
0,0,0,1325,1325,1325,1325,0,0,0,0,0,0,0,0,0,
0,0,0,1325,1325,1325,1325,0,0,0,0,0,0,0,0,0,
0,0,0,1325,1325,1325,1325,0,0,0,0,0,0,0,0,0,
0,0,0,1325,1325,1325,1325,0,0,0,0,0,0,0,0,0,
0,0,0,1325,1325,1325,1325,0,0,0,0,0,0,0,0,0,
0,0,0,1325,1325,1325,1325,0,0,0,0,0,0,0,0,0,
0,0,0,1325,1325,1325,1325,0,0,0,0,0,0,0,0,0,
0,0,0,1325,1325,1325,1325,0,0,0,0,0,0,0,0,0,
0,0,0,1325,1325,1325,1325,0,0,0,0,0,0,0,0,0,
0,0,0,1325,1325,1325,1325,0,0,0,0,0,0,0,0,0,
0,0,0,1325,1325,1325,1325,0,0,0,0,0,0,0,0,0,
0,0,0,1325,1325,1325,1325,0,0,0,0,0,0,0,0,0,
0,0,0,1325,1325,1325,1325,0,0,0,0,0,0,0,0,0,
0,0,0,1325,1325,1325,1325,0,0,0,0,0,0,0,0,0
</chunk>
      <chunk x="208" y="32" width="16" height="16">
0,0,0,0,0,0,0,0,0,0,0,0,0,0,0,1325,
0,0,0,0,0,0,0,0,0,0,0,0,0,0,0,1325,
0,0,0,0,0,0,0,0,0,0,0,0,0,0,0,1325,
0,0,0,0,0,0,0,0,0,0,0,0,0,0,0,1325,
0,0,0,0,0,0,0,0,0,0,0,0,0,0,0,1325,
0,0,0,0,0,0,0,0,0,0,0,0,0,0,0,1325,
0,0,0,0,0,0,0,0,0,0,0,0,0,0,0,1325,
0,0,0,0,0,0,0,0,0,0,0,0,0,0,0,1325,
0,0,0,0,0,0,0,0,0,0,0,0,0,0,0,1325,
0,0,0,0,0,0,0,0,0,0,0,0,0,0,0,1325,
0,0,0,0,0,0,0,0,0,0,0,0,0,0,0,1325,
0,0,0,0,0,0,0,0,0,0,0,0,0,0,0,1325,
0,0,0,0,0,0,0,0,0,0,0,0,0,0,0,1325,
0,0,0,0,0,0,0,0,0,0,0,0,0,0,0,1325,
0,0,0,0,0,0,0,0,0,0,0,0,0,0,0,1325,
0,0,0,0,0,0,0,0,0,0,0,0,0,0,0,1325
</chunk>
      <chunk x="224" y="32" width="16" height="16">
1325,1325,1325,0,0,0,0,0,0,0,0,0,0,0,0,0,
1325,1325,1325,0,0,0,0,0,0,0,0,0,0,0,0,0,
1325,1325,1325,0,0,0,0,0,0,0,0,0,0,0,0,0,
1325,1325,1325,0,0,0,0,0,0,0,0,0,0,0,0,0,
1325,1325,1325,0,0,0,0,0,0,0,0,0,0,0,0,0,
1325,1325,1325,0,0,0,0,0,0,0,0,0,0,0,0,0,
1325,1325,1325,0,0,0,0,0,0,0,0,0,0,0,0,0,
1325,1325,1325,0,0,0,0,0,0,0,0,0,0,0,0,0,
1325,1325,1325,0,0,0,0,0,0,0,0,0,0,0,0,0,
1325,1325,1325,0,0,0,0,0,0,0,0,0,0,0,0,0,
1325,1325,1325,0,0,0,0,0,0,0,0,0,0,0,0,0,
1325,1325,1325,0,0,0,0,0,0,0,0,0,0,0,0,0,
1325,1325,1325,0,0,0,0,0,0,0,0,0,0,0,0,0,
1325,1325,1325,0,0,0,0,0,0,0,0,0,0,0,0,0,
1325,1325,1325,0,0,0,0,0,0,0,0,0,0,0,0,0,
1325,1325,1325,0,0,0,0,0,0,0,0,0,0,0,0,0
</chunk>
      <chunk x="288" y="32" width="16" height="16">
0,0,359,0,0,0,0,0,0,0,0,0,0,0,0,0,
0,0,359,0,0,0,0,0,0,0,0,0,0,0,0,0,
0,0,359,0,0,0,0,0,0,0,0,0,0,0,0,0,
0,0,359,0,0,0,0,0,0,0,0,0,0,0,0,0,
0,0,359,0,0,0,0,0,0,0,0,0,0,0,0,0,
0,0,359,0,0,0,0,0,0,0,0,0,0,0,0,0,
0,0,359,0,0,0,0,0,0,0,0,0,0,0,0,0,
0,0,359,0,0,0,0,0,0,0,0,0,0,0,0,0,
0,0,359,0,0,0,0,0,0,0,0,0,0,0,0,0,
0,0,359,0,0,0,0,0,0,0,0,0,0,0,0,0,
0,0,359,0,0,0,0,0,0,0,0,0,0,0,0,0,
0,0,359,0,0,0,0,0,0,0,0,0,0,0,0,0,
0,0,359,0,0,0,0,0,0,0,0,0,0,0,0,0,
0,0,359,0,0,0,0,0,0,0,0,0,0,0,0,0,
0,0,359,0,0,0,0,0,0,0,0,0,0,0,0,0,
0,0,359,0,0,0,0,0,0,0,0,0,0,0,0,0
</chunk>
      <chunk x="16" y="48" width="16" height="16">
0,0,0,357,0,0,0,0,0,0,0,0,0,0,0,0,
0,0,0,357,0,0,0,0,0,0,0,0,0,0,0,0,
0,0,0,357,0,0,0,0,0,0,0,0,0,0,0,0,
0,0,0,357,0,0,0,0,0,0,0,0,0,0,0,0,
0,0,0,357,0,0,0,0,0,0,0,0,0,0,0,0,
0,0,0,357,0,0,0,0,0,0,0,0,0,0,0,0,
0,0,0,357,0,0,0,0,0,0,0,0,0,0,0,0,
0,0,0,357,0,0,0,0,0,0,0,0,0,0,0,0,
0,0,0,357,0,0,0,0,0,0,0,0,0,0,0,0,
0,0,0,357,0,0,0,0,0,0,0,0,0,0,0,0,
0,0,0,357,0,0,0,0,0,0,0,0,0,0,0,0,
0,0,0,357,0,0,0,0,0,0,0,0,0,0,0,0,
0,0,0,357,0,0,0,0,0,0,0,0,0,0,0,0,
0,0,0,357,0,0,0,0,0,0,0,0,0,0,0,0,
0,0,0,357,0,0,0,0,0,0,0,0,0,0,0,0,
0,0,0,357,0,0,0,0,0,0,0,0,0,0,0,0
</chunk>
      <chunk x="80" y="48" width="16" height="16">
0,0,0,1325,1325,1325,1325,0,0,0,0,0,0,0,0,0,
0,0,0,1325,1325,1325,1325,0,0,0,0,0,0,0,0,0,
0,0,0,1325,1325,1325,1325,0,0,0,0,0,0,0,0,0,
0,0,0,1325,1325,1325,1325,0,0,0,0,0,0,0,0,0,
0,0,0,1325,1325,1325,1325,0,0,0,0,0,0,0,0,0,
0,0,0,1325,1325,1325,1325,0,0,0,0,0,0,0,0,0,
0,0,0,1325,1325,1325,1325,0,0,0,0,0,0,0,0,0,
0,0,0,1325,1325,1325,1325,0,0,0,0,0,0,0,0,0,
0,0,0,1325,1325,1325,1325,0,0,0,0,0,0,0,0,0,
0,0,0,1325,1325,1325,1325,0,0,0,0,0,0,0,0,0,
0,0,0,1325,1325,1325,1325,0,0,0,0,0,0,0,0,0,
0,0,0,1325,1325,1325,1325,0,0,0,0,0,0,0,0,0,
0,0,0,1325,1325,1325,1325,0,0,0,0,0,0,0,0,0,
0,0,0,1325,1325,1325,1325,0,0,0,0,0,0,0,0,0,
0,0,0,1325,1325,1325,1325,0,0,0,0,0,0,0,0,0,
0,0,0,1325,1325,1325,1325,0,0,0,0,0,0,0,0,0
</chunk>
      <chunk x="208" y="48" width="16" height="16">
0,0,0,0,0,0,0,0,0,0,0,0,0,0,0,1325,
0,0,0,0,0,0,0,0,0,0,0,0,0,0,0,1325,
0,0,0,0,0,0,0,0,0,0,0,0,0,0,0,1325,
0,0,0,0,0,0,0,0,0,0,0,0,0,0,0,1325,
0,0,0,0,0,0,0,0,0,0,0,0,0,0,0,1325,
0,0,0,0,0,0,0,0,0,0,0,0,0,0,0,1325,
0,0,0,0,0,0,0,0,0,0,0,0,0,0,0,1325,
0,0,0,0,0,0,0,0,0,0,0,0,0,0,0,1325,
0,0,0,0,0,0,0,0,0,0,0,0,0,0,0,1325,
0,0,0,0,0,0,0,0,0,0,0,0,0,0,0,1325,
0,0,0,0,0,0,0,0,0,0,0,0,0,0,0,1325,
0,0,0,0,0,0,0,0,0,0,0,0,0,0,0,1325,
0,0,0,0,0,0,0,0,0,0,0,0,0,0,0,1325,
0,0,0,0,0,0,0,0,0,0,0,0,0,0,0,1325,
0,0,0,0,0,0,0,0,0,0,0,0,0,0,0,1325,
0,0,0,0,0,0,0,0,0,0,0,0,0,0,0,1325
</chunk>
      <chunk x="224" y="48" width="16" height="16">
1325,1325,1325,0,0,0,0,0,0,0,0,0,0,0,0,0,
1325,1325,1325,0,0,0,0,0,0,0,0,0,0,0,0,0,
1325,1325,1325,0,0,0,0,0,0,0,0,0,0,0,0,0,
1325,1325,1325,0,0,0,0,0,0,0,0,0,0,0,0,0,
1325,1325,1325,0,0,0,0,0,0,0,0,0,0,0,0,0,
1325,1325,1325,0,0,0,0,0,0,0,0,0,0,0,0,0,
1325,1325,1325,0,0,0,0,0,0,0,0,0,0,0,0,0,
1325,1325,1325,0,0,0,0,0,0,0,0,0,0,0,0,0,
1325,1325,1325,0,0,0,0,0,0,0,0,0,0,0,0,0,
1325,1325,1325,0,0,0,0,0,0,0,0,0,0,0,0,0,
1325,1325,1325,0,0,0,0,0,0,0,0,0,0,0,0,0,
1325,1325,1325,0,0,0,0,0,0,0,0,0,0,0,0,0,
1325,1325,1325,0,0,0,0,0,0,0,0,0,0,0,0,0,
1325,1325,1325,0,0,0,0,0,0,0,0,0,0,0,0,0,
1325,1325,1325,0,0,0,0,0,0,0,0,0,0,0,0,0,
1325,1325,1325,0,0,0,0,0,0,0,0,0,0,0,0,0
</chunk>
      <chunk x="288" y="48" width="16" height="16">
0,0,359,0,0,0,0,0,0,0,0,0,0,0,0,0,
0,0,359,0,0,0,0,0,0,0,0,0,0,0,0,0,
0,0,359,0,0,0,0,0,0,0,0,0,0,0,0,0,
0,0,359,0,0,0,0,0,0,0,0,0,0,0,0,0,
0,0,359,0,0,0,0,0,0,0,0,0,0,0,0,0,
0,0,359,0,0,0,0,0,0,0,0,0,0,0,0,0,
0,0,359,0,0,0,0,0,0,0,0,0,0,0,0,0,
0,0,359,0,0,0,0,0,0,0,0,0,0,0,0,0,
0,0,359,0,0,0,0,0,0,0,0,0,0,0,0,0,
0,0,359,0,0,0,0,0,0,0,0,0,0,0,0,0,
0,0,359,0,0,0,0,0,0,0,0,0,0,0,0,0,
0,0,359,0,0,0,0,0,0,0,0,0,0,0,0,0,
0,0,359,0,0,0,0,0,0,0,0,0,0,0,0,0,
0,0,359,0,0,0,0,0,0,0,0,0,0,0,0,0,
0,0,359,0,0,0,0,0,0,0,0,0,0,0,0,0,
0,0,359,0,0,0,0,0,0,0,0,0,0,0,0,0
</chunk>
      <chunk x="16" y="64" width="16" height="16">
0,0,0,357,0,0,0,0,0,0,0,0,0,0,0,0,
0,0,0,357,0,0,0,0,0,0,0,0,0,0,0,0,
0,0,0,357,0,0,0,0,0,0,0,0,0,0,0,0,
0,0,0,357,0,0,0,0,0,0,0,0,0,0,0,0,
0,0,0,357,0,0,0,0,0,0,0,0,0,0,0,0,
0,0,0,357,0,0,0,0,0,0,0,0,0,0,0,0,
0,0,0,406,407,407,407,407,407,407,407,407,407,407,407,407,
0,0,0,2288,2289,2289,2289,2289,2289,2289,2289,2289,2289,2289,2289,2289,
0,0,0,2337,2338,2338,2338,2338,2338,2338,2338,2338,2338,2338,2338,2338,
0,0,0,2337,2338,2338,2338,2338,2338,2338,2338,2338,2338,2338,2338,2338,
0,0,0,2337,2338,2338,2338,2338,2338,2338,2338,2338,2338,2338,2338,2338,
0,0,0,2386,2387,2387,2387,2387,2387,2387,2387,2387,2387,2387,2387,2387,
0,0,0,0,0,0,0,0,0,0,0,0,0,0,0,0,
0,0,0,0,0,0,0,0,0,0,0,0,0,0,0,0,
0,0,0,0,0,0,0,0,0,0,0,0,0,0,0,0,
0,0,0,0,0,0,0,0,0,0,0,0,0,0,0,0
</chunk>
      <chunk x="32" y="64" width="16" height="16">
0,0,0,0,0,0,0,0,0,0,0,0,0,0,0,0,
0,0,0,0,0,0,0,0,0,0,0,0,0,0,0,0,
0,0,0,0,0,0,0,0,0,0,0,0,0,0,0,0,
0,0,0,0,0,0,0,0,0,0,0,0,0,0,0,0,
0,0,0,0,0,0,0,0,0,0,0,0,0,0,0,0,
0,0,0,0,0,0,0,0,0,0,0,0,0,0,0,0,
407,407,407,407,407,407,407,407,407,407,407,407,407,407,407,407,
2289,2289,2289,2289,2289,2289,2289,2289,2289,2289,2289,2289,2289,2289,2289,2289,
2338,2338,2338,2338,2338,2338,2338,2338,2338,2338,2338,2338,2338,2338,2338,2338,
2338,2338,2338,2338,2338,2338,2338,2338,2338,2338,2338,2338,2338,2338,2338,2338,
2338,2338,2338,2338,2338,2338,2338,2338,2338,2338,2338,2338,2338,2338,2338,2338,
2387,2387,2387,2387,2387,2387,2387,2387,2387,2387,2387,2387,2387,2387,2387,2387,
0,0,0,0,0,0,0,0,0,0,0,0,0,0,0,0,
0,0,0,0,0,0,0,0,0,0,0,0,0,0,0,0,
0,0,0,0,0,0,0,0,0,0,0,0,0,0,0,0,
0,0,0,0,0,0,0,0,0,0,0,0,0,0,0,0
</chunk>
      <chunk x="48" y="64" width="16" height="16">
0,0,0,0,0,0,0,0,0,0,0,0,0,0,0,0,
0,0,0,0,0,0,0,0,0,0,0,0,0,0,0,0,
0,0,0,0,0,0,0,0,0,0,0,0,0,0,0,0,
0,0,0,0,0,0,0,0,0,0,0,0,0,0,0,0,
0,0,0,0,0,0,0,0,0,0,0,0,0,0,0,0,
0,0,0,0,0,0,0,0,0,0,0,0,0,0,0,0,
407,407,407,407,407,407,407,407,407,407,407,407,407,407,407,407,
2289,2289,2289,2289,2289,2289,2289,2289,2289,2289,2289,2289,2289,2289,2289,2289,
2338,2338,2338,2338,2338,2338,2338,2338,2338,2338,2338,2338,2338,2338,2338,2338,
2338,2338,2338,2338,2338,2338,2338,2338,2338,2338,2338,2338,2338,2338,2338,2338,
2338,2338,2338,2338,2338,2338,2338,2338,2338,2338,2338,2338,2338,2338,2338,2338,
2387,2387,2387,2387,2387,2387,2387,2387,2387,2387,2387,2387,2387,2387,2387,2387,
0,0,0,0,0,0,0,0,0,0,0,0,0,0,0,0,
0,0,0,0,0,0,0,0,0,0,0,0,0,0,0,0,
0,0,0,0,0,0,0,0,0,0,0,0,0,0,0,0,
0,0,0,0,0,0,0,0,0,0,0,0,0,0,0,0
</chunk>
      <chunk x="64" y="64" width="16" height="16">
0,0,0,0,0,0,0,0,0,0,0,0,0,0,0,0,
0,0,0,0,0,0,0,0,0,0,0,0,0,0,0,0,
0,0,0,0,0,0,0,0,0,0,0,0,0,0,0,0,
0,0,0,0,0,0,0,0,0,0,0,0,0,0,0,0,
0,0,0,0,0,0,0,0,0,0,0,0,0,0,0,0,
0,0,0,0,0,0,0,0,0,0,0,0,0,0,0,0,
407,407,407,407,407,407,407,407,309,309,309,309,309,309,309,309,
2289,2289,2289,2289,2289,2289,2289,2289,2289,2289,2289,2289,2289,2289,2289,2289,
2338,2338,2338,2338,2338,2338,2338,2338,2338,2338,2338,2338,2338,2338,2338,2338,
2338,2338,2338,2338,2338,2338,2338,2338,2338,2338,2338,2338,2338,2338,2338,2338,
2338,2338,2338,2338,2338,2338,2338,2338,2338,2338,2338,2338,2338,2338,2338,2338,
2387,2387,2387,2387,2387,2387,2387,2387,2387,2387,2387,2387,2387,2387,2387,2387,
0,0,0,0,0,0,0,0,0,0,0,0,0,0,0,0,
0,0,0,0,0,0,0,0,0,0,0,0,0,0,0,0,
0,0,0,0,0,0,0,0,0,0,0,0,0,0,0,0,
0,0,0,0,0,0,0,0,0,0,0,0,0,0,0,0
</chunk>
      <chunk x="80" y="64" width="16" height="16">
0,0,0,1325,1325,1325,1325,0,0,0,0,0,0,0,0,0,
0,0,0,1325,1325,1325,1325,0,0,0,0,0,0,0,0,0,
0,0,0,1325,1325,1325,1325,0,0,0,0,0,0,0,0,0,
0,0,0,1325,1325,1325,1325,0,0,0,0,0,0,0,0,0,
0,0,0,1325,1325,1325,1325,0,0,0,0,0,0,0,0,0,
0,0,0,1325,1325,1325,1325,0,0,0,0,0,0,0,0,0,
309,309,309,309,309,309,309,309,309,309,309,309,309,309,309,309,
2289,2289,2289,2289,2289,2289,2289,2289,2289,2289,2289,2289,2289,2289,2289,2289,
2338,2338,2338,2338,2338,2338,2338,2338,2338,2338,2338,2338,2338,2338,2338,2338,
2338,2338,2338,2338,2338,2338,2338,2338,2338,2338,2338,2338,2338,2338,2338,2338,
2338,2338,2338,2338,2338,2338,2338,2338,2338,2338,2338,2338,2338,2338,2338,2338,
2387,2387,2387,2387,2387,2387,2387,2387,2387,2387,2387,2387,2387,2387,2387,2387,
0,0,0,1325,1325,1325,1325,0,0,0,0,0,0,0,0,0,
0,0,0,1325,1325,1325,1325,0,0,0,0,0,0,0,0,0,
0,0,0,1325,1325,1325,1325,0,0,0,0,0,0,0,0,0,
0,0,0,0,0,0,0,0,0,0,0,0,0,0,0,0
</chunk>
      <chunk x="96" y="64" width="16" height="16">
0,0,0,0,0,0,0,0,0,0,0,0,0,0,0,0,
0,0,0,0,0,0,0,0,0,0,0,0,0,0,0,0,
0,0,0,0,0,0,0,0,0,0,0,0,0,0,0,0,
0,0,0,0,0,0,0,0,0,0,0,0,0,0,0,0,
0,0,0,0,0,0,0,0,0,0,0,0,0,0,0,0,
0,0,0,0,0,0,0,0,0,0,0,0,0,0,0,0,
309,407,407,407,407,407,407,407,407,407,407,407,407,407,407,407,
2289,2289,2289,2289,2289,2289,2289,2289,2289,2289,2289,2289,2289,2289,2289,2289,
2338,2338,2338,2338,2338,2338,2338,2338,2338,2338,2338,2338,2338,2338,2338,2338,
2338,2338,2338,2338,2338,2338,2338,2338,2338,2338,2338,2338,2338,2338,2338,2338,
2338,2338,2338,2338,2338,2338,2338,2338,2338,2338,2338,2338,2338,2338,2338,2338,
2387,2387,2387,2387,2387,2387,2387,2387,2387,2387,2387,2387,2387,2387,2387,2387,
0,0,0,0,0,0,0,0,0,0,0,0,0,0,0,0,
0,0,0,0,0,0,0,0,0,0,0,0,0,0,0,0,
0,0,0,0,0,0,0,0,0,0,0,0,0,0,0,0,
0,0,0,0,0,0,0,0,0,0,0,0,0,0,0,0
</chunk>
      <chunk x="112" y="64" width="16" height="16">
0,0,0,0,0,0,0,0,0,0,0,0,0,0,0,0,
0,0,0,0,0,0,0,0,0,0,0,0,0,0,0,0,
0,0,0,0,0,0,0,0,0,0,0,0,0,0,0,0,
0,0,0,0,0,0,0,0,0,0,0,0,0,0,0,0,
0,0,0,0,0,0,0,0,0,0,0,0,0,0,0,0,
0,0,0,0,0,0,0,0,0,0,0,0,0,0,0,0,
407,407,407,407,407,407,407,310,0,0,0,0,0,0,0,0,
2289,2289,2289,2289,2289,2289,2290,359,0,0,0,0,0,0,0,0,
2338,2338,2338,2338,2338,2338,2339,359,0,0,0,0,0,0,0,0,
2338,2338,2338,2338,2338,2338,2339,359,0,0,0,0,0,0,0,0,
2338,2338,2338,2338,2338,2338,2339,359,0,0,0,0,0,0,0,0,
2387,2387,2387,2387,2387,2387,2388,359,0,0,0,0,0,0,0,0,
0,0,0,0,0,0,0,359,0,0,0,0,0,0,0,0,
0,0,0,0,0,0,0,359,0,0,0,0,0,0,0,0,
0,0,0,0,0,0,0,359,0,0,0,0,0,0,0,0,
0,0,0,0,0,0,0,359,0,0,0,0,0,0,0,0
</chunk>
      <chunk x="176" y="64" width="16" height="16">
0,0,0,0,0,0,0,0,0,0,0,0,0,0,0,0,
0,0,0,0,0,0,0,0,0,0,0,0,0,0,0,0,
0,0,0,0,0,0,0,0,0,0,0,0,0,0,0,0,
0,0,0,0,0,0,0,0,0,0,0,0,0,0,0,0,
0,0,0,0,0,0,0,0,0,0,0,0,0,0,0,0,
0,0,0,0,0,0,0,0,0,0,0,0,0,0,0,0,
0,0,0,0,0,0,0,0,0,0,0,0,0,0,308,309,
0,0,0,0,0,0,0,0,0,0,0,0,0,0,359,2288,
0,0,0,0,0,0,0,0,0,0,0,0,0,0,359,2337,
0,0,0,0,0,0,0,0,0,0,0,0,0,0,359,2337,
0,0,0,0,0,0,0,0,0,0,0,0,0,0,359,2337,
0,0,0,0,0,0,0,0,0,0,0,0,0,0,359,2386,
0,0,0,0,0,0,0,0,0,0,0,0,0,0,359,0,
0,0,0,0,0,0,0,0,0,0,0,0,0,0,359,0,
0,0,0,0,0,0,0,0,0,0,0,0,0,0,359,0,
0,0,0,0,0,0,0,0,0,0,0,0,0,0,359,0
</chunk>
      <chunk x="192" y="64" width="16" height="16">
0,0,0,0,0,0,0,0,0,0,0,0,0,0,0,0,
0,0,0,0,0,0,0,0,0,0,0,0,0,0,0,0,
0,0,0,0,0,0,0,0,0,0,0,0,0,0,0,0,
0,0,0,0,0,0,0,0,0,0,0,0,0,0,0,0,
0,0,0,0,0,0,0,0,0,0,0,0,0,0,0,0,
0,0,0,0,0,0,0,0,0,0,0,0,0,0,0,0,
309,309,309,309,309,309,309,309,309,309,309,309,309,309,309,309,
2289,2289,2289,2289,2289,2289,2289,2289,2289,2289,2289,2289,2289,2289,2289,2289,
2338,2338,2338,2338,2338,2338,2338,2338,2338,2338,2338,2338,2338,2338,2338,2338,
2338,2338,2338,2338,2338,2338,2338,2338,2338,2338,2338,2338,2338,2338,2338,2338,
2338,2338,2338,2338,2338,2338,2338,2338,2338,2338,2338,2338,2338,2338,2338,2338,
2387,2387,2387,2387,2387,2387,2387,2387,2387,2387,2387,2387,2387,2387,2387,2387,
0,0,0,0,0,0,0,0,0,0,0,0,0,0,0,0,
0,0,0,0,0,0,0,0,0,0,0,0,0,0,0,0,
0,0,0,0,0,0,0,0,0,0,0,0,0,0,0,0,
0,0,0,0,0,0,0,0,0,0,0,0,0,0,0,0
</chunk>
      <chunk x="208" y="64" width="16" height="16">
0,0,0,0,0,0,0,0,0,0,0,0,0,0,0,1325,
0,0,0,0,0,0,0,0,0,0,0,0,0,0,0,1325,
0,0,0,0,0,0,0,0,0,0,0,0,0,0,0,1325,
0,0,0,0,0,0,0,0,0,0,0,0,0,0,0,1325,
0,0,0,0,0,0,0,0,0,0,0,0,0,0,0,1325,
0,0,0,0,0,0,0,0,0,0,0,0,0,0,0,1325,
309,309,309,309,309,309,309,309,309,309,309,309,309,309,309,309,
2289,2289,2289,2289,2289,2289,2289,2289,2289,2289,2289,2289,2289,2289,2289,2289,
2338,2338,2338,2338,2338,2338,2338,2338,2338,2338,2338,2338,2338,2338,2338,2338,
2338,2338,2338,2338,2338,2338,2338,2338,2338,2338,2338,2338,2338,2338,2338,2338,
2338,2338,2338,2338,2338,2338,2338,2338,2338,2338,2338,2338,2338,2338,2338,2338,
2387,2387,2387,2387,2387,2387,2387,2387,2387,2387,2387,2387,2387,2387,2387,2387,
0,0,0,0,0,0,0,0,0,0,0,0,0,0,0,1325,
0,0,0,0,0,0,0,0,0,0,0,0,0,0,0,1325,
0,0,0,0,0,0,0,0,0,0,0,0,0,0,0,1325,
0,0,0,0,0,0,0,0,0,0,0,0,0,0,0,1325
</chunk>
      <chunk x="224" y="64" width="16" height="16">
1325,1325,1325,0,0,0,0,0,0,0,0,0,0,0,0,0,
1325,1325,1325,0,0,0,0,0,0,0,0,0,0,0,0,0,
1325,1325,1325,0,0,0,0,0,0,0,0,0,0,0,0,0,
1325,1325,1325,0,0,0,0,0,0,0,0,0,0,0,0,0,
1325,1325,1325,0,0,0,0,0,0,0,0,0,0,0,0,0,
1325,1325,1325,0,0,0,0,0,0,0,0,0,0,0,0,0,
309,309,309,309,309,309,309,309,309,309,309,309,309,309,309,309,
2289,2289,2289,2289,2289,2289,2289,2289,2289,2289,2289,2289,2289,2289,2289,2289,
2338,2338,2338,2338,2338,2338,2338,2338,2338,2338,2338,2338,2338,2338,2338,2338,
2338,2338,2338,2338,2338,2338,2338,2338,2338,2338,2338,2338,2338,2338,2338,2338,
2338,2338,2338,2338,2338,2338,2338,2338,2338,2338,2338,2338,2338,2338,2338,2338,
2387,2387,2387,2387,2387,2387,2387,2387,2387,2387,2387,2387,2387,2387,2387,2387,
1325,1325,1325,0,0,0,0,0,0,0,0,0,0,0,0,0,
1325,1325,1325,0,0,0,0,0,0,0,0,0,0,0,0,0,
1325,1325,1325,0,0,0,0,0,0,0,0,0,0,0,0,0,
1325,1325,1325,0,0,0,0,0,0,0,0,0,0,0,0,0
</chunk>
      <chunk x="240" y="64" width="16" height="16">
0,0,0,0,0,0,0,0,0,0,0,0,0,0,0,0,
0,0,0,0,0,0,0,0,0,0,0,0,0,0,0,0,
0,0,0,0,0,0,0,0,0,0,0,0,0,0,0,0,
0,0,0,0,0,0,0,0,0,0,0,0,0,0,0,0,
0,0,0,0,0,0,0,0,0,0,0,0,0,0,0,0,
0,0,0,0,0,0,0,0,0,0,0,0,0,0,0,0,
309,309,309,309,309,309,309,309,309,309,309,309,309,309,309,309,
2289,2289,2289,2289,2289,2289,2289,2289,2289,2289,2289,2289,2289,2289,2289,2289,
2338,2338,2338,2338,2338,2338,2338,2338,2338,2338,2338,2338,2338,2338,2338,2338,
2338,2338,2338,2338,2338,2338,2338,2338,2338,2338,2338,2338,2338,2338,2338,2338,
2338,2338,2338,2338,2338,2338,2338,2338,2338,2338,2338,2338,2338,2338,2338,2338,
2387,2387,2387,2387,2387,2387,2387,2387,2387,2387,2387,2387,2387,2387,2387,2387,
0,0,0,0,0,0,0,0,0,0,0,0,0,0,0,0,
0,0,0,0,0,0,0,0,0,0,0,0,0,0,0,0,
0,0,0,0,0,0,0,0,0,0,0,0,0,0,0,0,
0,0,0,0,0,0,0,0,0,0,0,0,0,0,0,0
</chunk>
      <chunk x="256" y="64" width="16" height="16">
0,0,0,0,0,0,0,0,0,0,0,0,0,0,0,0,
0,0,0,0,0,0,0,0,0,0,0,0,0,0,0,0,
0,0,0,0,0,0,0,0,0,0,0,0,0,0,0,0,
0,0,0,0,0,0,0,0,0,0,0,0,0,0,0,0,
0,0,0,0,0,0,0,0,0,0,0,0,0,0,0,0,
0,0,0,0,0,0,0,0,0,0,0,0,0,0,0,0,
309,309,309,309,309,309,309,309,309,309,309,309,309,309,309,309,
2289,2289,2289,2289,2289,2289,2289,2289,2289,2289,2289,2289,2289,2289,2289,2289,
2338,2338,2338,2338,2338,2338,2338,2338,2338,2338,2338,2338,2338,2338,2338,2338,
2338,2338,2338,2338,2338,2338,2338,2338,2338,2338,2338,2338,2338,2338,2338,2338,
2338,2338,2338,2338,2338,2338,2338,2338,2338,2338,2338,2338,2338,2338,2338,2338,
2387,2387,2387,2387,2387,2387,2387,2387,2387,2387,2387,2387,2387,2387,2387,2387,
0,0,0,0,0,0,0,0,0,0,0,0,0,0,0,0,
0,0,0,0,0,0,0,0,0,0,0,0,0,0,0,0,
0,0,0,0,0,0,0,0,0,0,0,0,0,0,0,0,
0,0,0,0,0,0,0,0,0,0,0,0,0,0,0,0
</chunk>
      <chunk x="272" y="64" width="16" height="16">
0,0,0,0,0,0,0,0,0,0,0,0,0,0,0,0,
0,0,0,0,0,0,0,0,0,0,0,0,0,0,0,0,
0,0,0,0,0,0,0,0,0,0,0,0,0,0,0,0,
0,0,0,0,0,0,0,0,0,0,0,0,0,0,0,0,
0,0,0,0,0,0,0,0,0,0,0,0,0,0,0,0,
0,0,0,0,0,0,0,0,0,0,0,0,0,0,0,0,
309,309,309,309,309,309,309,309,309,309,309,309,309,309,309,309,
2289,2289,2289,2289,2289,2289,2289,2289,2289,2289,2289,2289,2289,2289,2289,2289,
2338,2338,2338,2338,2338,2338,2338,2338,2338,2338,2338,2338,2338,2338,2338,2338,
2338,2338,2338,2338,2338,2338,2338,2338,2338,2338,2338,2338,2338,2338,2338,2338,
2338,2338,2338,2338,2338,2338,2338,2338,2338,2338,2338,2338,2338,2338,2338,2338,
2387,2387,2387,2387,2387,2387,2387,2387,2387,2387,2387,2387,2387,2387,2387,2387,
0,0,0,0,0,0,0,0,0,0,0,0,0,0,0,0,
0,0,0,0,0,0,0,0,0,0,0,0,0,0,0,0,
0,0,0,0,0,0,0,0,0,0,0,0,0,0,0,0,
0,0,0,0,0,0,0,0,0,0,0,0,0,0,0,0
</chunk>
      <chunk x="288" y="64" width="16" height="16">
0,0,359,0,0,0,0,0,0,0,0,0,0,0,0,0,
0,0,359,0,0,0,0,0,0,0,0,0,0,0,0,0,
0,0,359,0,0,0,0,0,0,0,0,0,0,0,0,0,
0,0,359,0,0,0,0,0,0,0,0,0,0,0,0,0,
0,0,359,0,0,0,0,0,0,0,0,0,0,0,0,0,
0,0,359,0,0,0,0,0,0,0,0,0,0,0,0,0,
309,309,408,0,0,0,0,0,0,0,0,0,0,0,0,0,
2289,2289,2290,0,0,0,0,0,0,0,0,0,0,0,0,0,
2338,2338,2339,0,0,0,0,0,0,0,0,0,0,0,0,0,
2338,2338,2339,0,0,0,0,0,0,0,0,0,0,0,0,0,
2338,2338,2339,0,0,0,0,0,0,0,0,0,0,0,0,0,
2387,2387,2388,0,0,0,0,0,0,0,0,0,0,0,0,0,
0,0,0,0,0,0,0,0,0,0,0,0,0,0,0,0,
0,0,0,0,0,0,0,0,0,0,0,0,0,0,0,0,
0,0,0,0,0,0,0,0,0,0,0,0,0,0,0,0,
0,0,0,0,0,0,0,0,0,0,0,0,0,0,0,0
</chunk>
      <chunk x="112" y="80" width="16" height="16">
0,0,0,0,0,0,0,359,0,0,0,0,0,0,0,0,
0,0,0,0,0,0,0,359,0,0,0,0,0,0,0,0,
0,0,0,0,0,0,0,359,0,0,0,0,0,0,0,0,
0,0,0,0,0,0,0,359,0,0,0,0,0,0,0,0,
0,0,0,0,0,0,0,359,0,0,0,0,0,0,0,0,
0,0,0,0,0,0,0,359,0,0,0,0,0,0,0,0,
0,0,0,0,0,0,0,359,0,0,0,0,0,0,0,0,
0,0,0,0,0,0,0,359,0,0,0,0,0,0,0,0,
0,0,0,0,0,0,0,359,0,0,0,0,0,0,0,0,
0,0,0,0,0,0,0,359,0,0,0,0,0,0,0,0,
0,0,0,0,0,0,0,359,0,0,0,0,0,0,0,0,
0,0,0,0,0,0,0,359,0,0,0,0,0,0,0,0,
0,0,0,0,0,0,0,359,0,0,0,0,0,0,0,0,
0,0,0,0,0,0,0,359,0,0,0,0,0,0,0,0,
0,0,0,0,0,0,0,359,0,0,0,0,0,0,0,0,
0,0,0,0,0,0,0,359,0,0,0,0,0,0,0,0
</chunk>
      <chunk x="176" y="80" width="16" height="16">
0,0,0,0,0,0,0,0,0,0,0,0,0,0,359,0,
0,0,0,0,0,0,0,0,0,0,0,0,0,0,359,0,
0,0,0,0,0,0,0,0,0,0,0,0,0,0,359,0,
0,0,0,0,0,0,0,0,0,0,0,0,0,0,359,0,
0,0,0,0,0,0,0,0,0,0,0,0,0,0,359,0,
0,0,0,0,0,0,0,0,0,0,0,0,0,0,359,0,
0,0,0,0,0,0,0,0,0,0,0,0,0,0,359,0,
0,0,0,0,0,0,0,0,0,0,0,0,0,0,359,0,
0,0,0,0,0,0,0,0,0,0,0,0,0,0,359,0,
0,0,0,0,0,0,0,0,0,0,0,0,0,0,359,0,
0,0,0,0,0,0,0,0,0,0,0,0,0,0,359,0,
0,0,0,0,0,0,0,0,0,0,0,0,0,0,359,0,
0,0,0,0,0,0,0,0,0,0,0,0,0,0,359,0,
0,0,0,0,0,0,0,0,0,0,0,0,0,0,359,0,
0,0,0,0,0,0,0,0,0,0,0,0,0,0,359,0,
0,0,0,0,0,0,0,0,0,0,0,0,0,0,359,0
</chunk>
      <chunk x="208" y="80" width="16" height="16">
0,0,0,0,0,0,0,0,0,0,0,0,0,0,0,1325,
0,0,0,0,0,0,0,0,0,0,0,0,0,0,0,1325,
0,0,0,0,0,0,0,0,0,0,0,0,0,0,0,1325,
0,0,0,0,0,0,0,0,0,0,0,0,0,0,0,1325,
0,0,0,0,0,0,0,0,0,0,0,0,0,0,0,1325,
0,0,0,0,0,0,0,0,0,0,0,0,0,0,0,1325,
0,0,0,0,0,0,0,0,0,0,0,0,0,0,0,1325,
0,0,0,0,0,0,0,0,0,0,0,0,0,0,0,1325,
0,0,0,0,0,0,0,0,0,0,0,0,0,0,0,1325,
0,0,0,0,0,0,0,0,0,0,0,0,0,0,0,0,
0,0,0,0,0,0,0,0,0,0,0,0,0,0,0,0,
0,0,0,0,0,0,0,0,0,0,0,0,0,0,0,0,
0,0,0,0,0,0,0,0,0,0,0,0,0,0,0,0,
0,0,0,0,0,0,0,0,0,0,0,0,0,0,0,0,
0,0,0,0,0,0,0,0,0,0,0,0,0,0,0,0,
0,0,0,0,0,0,0,0,0,0,0,0,0,0,0,0
</chunk>
      <chunk x="224" y="80" width="16" height="16">
1325,1325,1325,0,0,0,0,0,0,0,0,0,0,0,0,0,
1325,1325,1325,0,0,0,0,0,0,0,0,0,0,0,0,0,
1325,1325,1325,0,0,0,0,0,0,0,0,0,0,0,0,0,
1325,1325,1325,0,0,0,0,0,0,0,0,0,0,0,0,0,
1325,1325,1325,0,0,0,0,0,0,0,0,0,0,0,0,0,
1325,1325,1325,0,0,0,0,0,0,0,0,0,0,0,0,0,
1325,1325,1325,0,0,0,0,0,0,0,0,0,0,0,0,0,
1325,1325,1325,0,0,0,0,0,0,0,0,0,0,0,0,0,
1325,1325,1325,0,0,0,0,0,0,0,0,0,0,0,0,0,
0,0,0,0,0,0,0,0,0,0,0,0,0,0,0,0,
0,0,0,0,0,0,0,0,0,0,0,0,0,0,0,0,
0,0,0,0,0,0,0,0,0,0,0,0,0,0,0,0,
0,0,0,0,0,0,0,0,0,0,0,0,0,0,0,0,
0,0,0,0,0,0,0,0,0,0,0,0,0,0,0,0,
0,0,0,0,0,0,0,0,0,0,0,0,0,0,0,0,
0,0,0,0,0,0,0,0,0,0,0,0,0,0,0,0
</chunk>
      <chunk x="112" y="96" width="16" height="16">
0,0,0,0,0,0,0,359,0,0,0,0,0,0,0,0,
0,0,0,0,0,0,0,359,0,0,0,0,0,0,0,0,
0,0,0,0,0,0,0,359,0,0,0,0,0,0,0,0,
0,0,0,0,0,0,0,359,0,0,0,0,0,0,0,0,
0,0,0,0,0,0,0,359,0,0,0,0,0,0,0,0,
0,0,0,0,0,0,0,359,0,0,0,0,0,0,0,0,
0,0,0,0,0,0,0,359,0,0,0,0,0,0,0,0,
0,0,0,0,0,0,0,359,1325,1325,1325,1325,1325,1325,1325,1325,
0,0,0,0,0,0,1325,359,1325,1325,1325,1325,1325,1325,1325,1325,
0,0,0,0,0,0,1325,359,1325,1325,1325,1325,1325,1325,1325,1325,
0,0,0,0,0,0,0,359,1325,1325,1325,1325,1325,1325,1325,1325,
0,0,0,0,0,0,0,359,0,0,0,0,0,0,0,0,
0,0,0,0,0,0,0,359,0,0,0,0,0,0,0,0,
0,0,0,0,0,0,0,359,0,0,0,0,0,0,0,0,
0,0,0,0,0,0,0,359,0,0,0,0,0,0,0,0,
0,0,0,0,0,0,0,359,0,0,0,0,0,0,0,0
</chunk>
      <chunk x="128" y="96" width="16" height="16">
0,0,0,0,0,0,0,0,0,0,0,0,0,0,0,0,
0,0,0,0,0,0,0,0,0,0,0,0,0,0,0,0,
0,0,0,0,0,0,0,0,0,0,0,0,0,0,0,0,
0,0,0,0,0,0,0,0,0,0,0,0,0,0,0,0,
0,0,0,0,0,0,0,0,0,0,0,0,0,0,0,0,
0,0,0,0,0,0,0,0,0,0,0,0,0,0,0,0,
0,0,0,0,0,0,0,0,0,0,0,0,0,0,0,0,
1325,1325,1325,1325,1325,1325,1325,1325,1325,1325,1325,1325,1325,1325,1325,1325,
1325,1325,1325,1325,1325,1325,1325,1325,1325,1325,1325,1325,1325,1325,1325,1325,
1325,1325,1325,1325,1325,1325,1325,1325,1325,1325,1325,1325,1325,1325,1325,1325,
1325,1325,1325,1325,1325,1325,1325,1325,1325,1325,1325,1325,1325,1325,1325,1325,
0,0,0,0,0,0,0,0,0,0,0,0,0,0,0,0,
0,0,0,0,0,0,0,0,0,0,0,0,0,0,0,0,
0,0,0,0,0,0,0,0,0,0,0,0,0,0,0,0,
0,0,0,0,0,0,0,0,0,0,0,0,0,0,0,0,
0,0,0,0,0,0,0,0,0,0,0,0,0,0,0,0
</chunk>
      <chunk x="144" y="96" width="16" height="16">
0,0,0,0,0,0,0,0,0,0,0,0,0,0,0,0,
0,0,0,0,0,0,0,0,0,0,0,0,0,0,0,0,
0,0,0,0,0,0,0,0,0,0,0,0,0,0,0,0,
0,0,0,0,0,0,0,0,0,0,0,0,0,0,0,0,
0,0,0,0,0,0,0,0,0,0,0,0,0,0,0,0,
0,0,0,0,0,0,0,0,0,0,0,0,0,0,0,0,
0,0,0,0,0,0,0,0,0,0,0,0,0,0,0,0,
1325,1325,1325,1325,1325,1325,1325,1325,1325,1325,1325,1325,1325,1325,1325,1325,
1325,1325,1325,1325,1325,1325,1325,1325,1325,1325,1325,1325,1325,1325,1325,1325,
1325,1325,1325,1325,1325,1325,1325,1325,1325,1325,1325,1325,1325,1325,1325,1325,
1325,1325,1325,1325,1325,1325,1325,1325,1325,1325,1325,1325,1325,1325,1325,1325,
0,0,0,0,0,0,0,0,0,0,0,0,0,0,0,0,
0,0,0,0,0,0,0,0,0,0,0,0,0,0,0,0,
0,0,0,0,0,0,0,0,0,0,0,0,0,0,0,0,
0,0,0,0,0,0,0,0,0,0,0,0,0,0,0,0,
0,0,0,0,0,0,0,0,0,0,0,0,0,0,0,0
</chunk>
      <chunk x="160" y="96" width="16" height="16">
0,0,0,0,0,0,0,0,0,0,0,0,0,0,0,0,
0,0,0,0,0,0,0,0,0,0,0,0,0,0,0,0,
0,0,0,0,0,0,0,0,0,0,0,0,0,0,0,0,
0,0,0,0,0,0,0,0,0,0,0,0,0,0,0,0,
0,0,0,0,0,0,0,0,0,0,0,0,0,0,0,0,
0,0,0,0,0,0,0,0,0,0,0,0,0,0,0,0,
0,0,0,0,0,0,0,0,0,0,0,0,0,0,0,0,
1325,1325,1325,1325,1325,1325,1325,1325,1325,1325,1325,1325,1325,1325,1325,1325,
1325,1325,1325,1325,1325,1325,1325,1325,1325,1325,1325,1325,1325,1325,1325,1325,
1325,1325,1325,1325,1325,1325,1325,1325,1325,1325,1325,1325,1325,1325,1325,1325,
1325,1325,1325,1325,1325,1325,1325,1325,1325,1325,1325,1325,1325,1325,1325,1325,
0,0,0,0,0,0,0,0,0,0,0,0,0,0,0,0,
0,0,0,0,0,0,0,0,0,0,0,0,0,0,0,0,
0,0,0,0,0,0,0,0,0,0,0,0,0,0,0,0,
0,0,0,0,0,0,0,0,0,0,0,0,0,0,0,0,
0,0,0,0,0,0,0,0,0,0,0,0,0,0,0,0
</chunk>
      <chunk x="176" y="96" width="16" height="16">
0,0,0,0,0,0,0,0,0,0,0,0,0,0,359,0,
0,0,0,0,0,0,0,0,0,0,0,0,0,0,359,0,
0,0,0,0,0,0,0,0,0,0,0,0,0,0,359,0,
0,0,0,0,0,0,0,0,0,0,0,0,0,0,359,0,
0,0,0,0,0,0,0,0,0,0,0,0,0,0,359,0,
0,0,0,0,0,0,0,0,0,0,0,0,0,0,359,0,
0,0,0,0,0,0,0,0,0,0,0,0,0,0,359,0,
1325,1325,1325,1325,1325,1325,1325,1325,1325,1325,1325,1325,1325,1325,359,1325,
1325,1325,1325,1325,1325,1325,1325,1325,1325,1325,1325,1325,1325,1325,359,1325,
1325,1325,1325,1325,1325,1325,1325,1325,1325,1325,1325,1325,1325,1325,359,1325,
1325,1325,1325,1325,1325,1325,1325,1325,1325,1325,1325,1325,1325,1325,359,1325,
0,0,0,0,0,0,0,0,0,0,0,0,0,0,359,0,
0,0,0,0,0,0,0,0,0,0,0,0,0,0,359,0,
0,0,0,0,0,0,0,0,0,0,0,0,0,0,359,0,
0,0,0,0,0,0,0,0,0,0,0,0,0,0,359,0,
0,0,0,0,0,0,0,0,0,0,0,0,0,0,359,0
</chunk>
      <chunk x="192" y="96" width="16" height="16">
0,0,0,0,0,0,0,0,0,0,0,0,0,0,0,0,
0,0,0,0,0,0,0,0,0,0,0,0,0,0,0,0,
0,0,0,0,0,0,0,0,0,0,0,0,0,0,0,0,
0,0,0,0,0,0,0,0,0,0,0,0,0,0,0,0,
0,0,0,0,0,0,0,0,0,0,0,0,0,0,0,0,
0,0,0,0,0,0,0,0,0,0,0,0,0,0,0,0,
0,0,0,0,0,0,0,0,0,0,0,0,0,0,0,0,
1325,0,0,0,0,0,0,0,0,0,0,0,0,0,0,0,
1325,0,0,0,0,0,0,0,0,0,0,0,0,0,0,0,
1325,0,0,0,0,0,0,0,0,0,0,0,0,0,0,0,
1325,0,0,0,0,0,0,0,0,0,0,0,0,0,0,0,
0,0,0,0,0,0,0,0,0,0,0,0,0,0,0,0,
0,0,0,0,0,0,0,0,0,0,0,0,0,0,0,0,
0,0,0,0,0,0,0,0,0,0,0,0,0,0,0,0,
0,0,0,0,0,0,0,0,0,0,0,0,0,0,0,0,
0,0,0,0,0,0,0,0,0,0,0,0,0,0,0,0
</chunk>
      <chunk x="112" y="112" width="16" height="16">
0,0,0,0,0,0,0,359,0,0,0,0,0,0,0,0,
0,0,0,0,0,0,0,359,0,0,0,0,0,0,0,0,
0,0,0,0,0,0,0,359,0,0,0,0,0,0,0,0,
0,0,0,0,0,0,0,359,0,0,0,0,0,0,0,0,
0,0,0,0,0,0,0,359,0,0,0,0,0,0,0,0,
0,0,0,0,0,0,0,359,0,0,0,0,0,0,0,0,
0,0,0,0,0,0,0,359,0,0,0,0,0,0,0,0,
0,0,0,0,0,0,0,359,0,0,0,0,0,0,0,0,
0,0,0,0,0,0,0,359,0,0,0,0,0,0,0,0,
0,0,0,0,0,0,0,359,0,0,0,0,0,0,0,0,
0,0,0,0,0,0,0,359,0,0,0,0,0,0,0,0,
0,0,0,0,0,0,0,359,0,0,0,0,0,0,0,0,
0,0,0,0,0,0,0,359,0,0,0,0,0,0,0,0,
0,0,0,0,0,0,0,359,0,0,0,0,0,0,0,0,
0,0,0,0,0,0,0,359,0,0,0,0,0,0,0,0,
0,0,0,0,0,0,0,359,0,0,0,0,0,0,0,0
</chunk>
      <chunk x="176" y="112" width="16" height="16">
0,0,0,0,0,0,0,0,0,0,0,0,0,0,359,0,
0,0,0,0,0,0,0,0,0,0,0,0,0,0,359,0,
0,0,0,0,0,0,0,0,0,0,0,0,0,0,359,0,
0,0,0,0,0,0,0,0,0,0,0,0,0,0,359,0,
0,0,0,0,0,0,0,0,0,0,0,0,0,0,359,0,
0,0,0,0,0,0,0,0,0,0,0,0,0,0,359,0,
0,0,0,0,0,0,0,0,0,0,0,0,0,0,359,0,
0,0,0,0,0,0,0,0,0,0,0,0,0,0,359,0,
0,0,0,0,0,0,0,0,0,0,0,0,0,0,359,0,
0,0,0,0,0,0,0,0,0,0,0,0,0,0,359,0,
0,0,0,0,0,0,0,0,0,0,0,0,0,0,359,0,
0,0,0,0,0,0,0,0,0,0,0,0,0,0,359,0,
0,0,0,0,0,0,0,0,0,0,0,0,0,0,359,0,
0,0,0,0,0,0,0,0,0,0,0,0,0,0,359,0,
0,0,0,0,0,0,0,0,0,0,0,0,0,0,359,0,
0,0,0,0,0,0,0,0,0,0,0,0,0,0,359,0
</chunk>
      <chunk x="112" y="128" width="16" height="16">
0,0,0,0,0,0,0,359,0,0,0,0,0,0,0,0,
0,0,0,0,0,0,0,359,0,0,0,0,0,0,0,0,
0,0,0,0,0,0,0,359,0,0,0,0,0,0,0,0,
0,0,0,0,0,0,0,359,0,0,0,0,0,0,0,0,
0,0,0,0,0,0,0,359,0,0,0,0,0,0,0,0,
0,0,0,0,0,0,0,359,0,0,0,0,0,0,0,0,
0,0,0,0,0,0,0,359,0,0,0,0,0,0,0,0,
0,0,0,0,0,0,0,359,0,0,0,0,0,0,0,0,
0,0,0,0,0,0,0,359,0,0,0,0,0,0,0,0,
0,0,0,0,0,0,0,359,0,0,0,0,0,0,0,0,
0,0,0,0,0,0,0,359,0,0,0,0,0,0,0,0,
0,0,0,0,0,0,0,359,0,0,0,0,0,0,0,0,
0,0,0,0,0,0,0,359,0,0,0,0,0,0,0,0,
0,0,0,0,0,0,0,359,0,0,0,0,0,0,0,0,
0,0,0,0,0,0,0,359,0,0,0,0,0,0,0,0,
0,0,0,0,0,0,0,359,0,0,0,0,0,0,0,0
</chunk>
      <chunk x="176" y="128" width="16" height="16">
0,0,0,0,0,0,0,0,0,0,0,0,0,0,359,0,
0,0,0,0,0,0,0,0,0,0,0,0,0,0,359,0,
0,0,0,0,0,0,0,0,0,0,0,0,0,0,359,0,
0,0,0,0,0,0,0,0,0,0,0,0,0,0,359,0,
0,0,0,0,0,0,0,0,0,0,0,0,0,0,359,0,
0,0,0,0,0,0,0,0,0,0,0,0,0,0,359,0,
0,0,0,0,0,0,0,0,0,0,0,0,0,0,359,0,
0,0,0,0,0,0,0,0,0,0,0,0,0,0,359,0,
0,0,0,0,0,0,0,0,0,0,0,0,0,0,359,0,
0,0,0,0,0,0,0,0,0,0,0,0,0,0,359,0,
0,0,0,0,0,0,0,0,0,0,0,0,0,0,359,0,
0,0,0,0,0,0,0,0,0,0,0,0,0,0,359,0,
0,0,0,0,0,0,0,0,0,0,0,0,0,0,359,0,
0,0,0,0,0,0,0,0,0,0,0,0,0,0,359,0,
0,0,0,0,0,0,0,0,0,0,0,0,0,0,359,0,
0,0,0,0,0,0,0,0,0,0,0,0,0,0,359,0
</chunk>
      <chunk x="112" y="144" width="16" height="16">
0,0,0,0,0,0,0,359,0,0,0,0,0,0,0,0,
0,0,0,0,0,0,0,359,0,0,0,0,0,0,0,0,
0,0,0,0,0,0,0,359,0,0,0,0,0,0,0,0,
0,0,0,0,0,0,0,359,0,0,0,0,0,0,0,0,
0,0,0,0,0,0,0,359,0,0,0,0,0,0,0,0,
0,0,0,0,0,0,0,359,0,0,0,0,0,0,0,0,
0,0,0,0,0,0,0,359,0,0,0,0,0,0,0,0,
0,0,0,0,0,0,0,359,0,0,0,0,0,0,0,0,
0,0,0,0,0,0,0,359,0,0,0,0,0,0,0,0,
0,0,0,0,0,0,0,359,0,0,0,0,0,0,0,0,
0,0,0,0,0,0,0,359,0,0,0,0,0,0,0,0,
0,0,0,0,0,0,0,359,0,0,0,0,0,0,0,0,
0,0,0,0,0,0,0,359,0,0,0,0,0,0,0,0,
0,0,0,0,0,0,0,359,0,0,0,0,0,0,0,0,
0,0,0,0,0,0,0,359,0,0,0,0,0,0,0,0,
0,0,0,0,0,0,0,359,0,0,0,0,0,0,0,0
</chunk>
      <chunk x="176" y="144" width="16" height="16">
0,0,0,0,0,0,0,0,0,0,0,0,0,0,359,0,
0,0,0,0,0,0,0,0,0,0,0,0,0,0,359,0,
0,0,0,0,0,0,0,0,0,0,0,0,0,0,359,0,
0,0,0,0,0,0,0,0,0,0,0,0,0,0,359,0,
0,0,0,0,0,0,0,0,0,0,0,0,0,0,359,0,
0,0,0,0,0,0,0,0,0,0,0,0,0,0,359,0,
0,0,0,0,0,0,0,0,0,0,0,0,0,0,359,0,
0,0,0,0,0,0,0,0,0,0,0,0,0,0,359,0,
0,0,0,0,0,0,0,0,0,0,0,0,0,0,359,0,
0,0,0,0,0,0,0,0,0,0,0,0,0,0,359,0,
0,0,0,0,0,0,0,0,0,0,0,0,0,0,359,0,
0,0,0,0,0,0,0,0,0,0,0,0,0,0,359,0,
0,0,0,0,0,0,0,0,0,0,0,0,0,0,359,0,
0,0,0,0,0,0,0,0,0,0,0,0,0,0,359,0,
0,0,0,0,0,0,0,0,0,0,0,0,0,0,359,0,
0,0,0,0,0,0,0,0,0,0,0,0,0,0,359,0
</chunk>
      <chunk x="112" y="160" width="16" height="16">
0,0,0,0,0,0,0,359,0,0,0,0,0,0,0,0,
0,0,0,0,0,0,0,359,0,0,0,0,0,0,0,0,
0,0,0,0,0,0,0,359,0,0,0,0,0,0,0,0,
0,0,0,0,0,0,0,359,0,0,0,0,0,0,0,0,
0,0,0,0,0,0,0,359,0,0,0,0,0,0,0,0,
0,0,0,0,0,0,0,359,0,0,0,0,0,0,0,0,
0,0,0,0,0,0,0,359,0,0,0,0,0,0,0,0,
0,0,0,0,0,0,0,359,0,0,0,0,0,0,0,0,
0,0,0,0,0,0,0,359,0,0,0,0,0,0,0,0,
0,0,0,0,0,0,0,359,0,0,0,0,0,0,0,0,
0,0,0,0,0,0,0,359,0,0,0,0,0,0,0,0,
0,0,0,0,0,0,0,359,0,0,0,0,0,0,0,0,
0,0,0,0,0,0,0,359,0,0,0,0,0,0,0,0,
0,0,0,0,0,0,0,359,0,0,0,0,0,0,0,0,
0,0,0,0,0,0,0,359,0,0,0,0,0,0,0,0,
0,0,0,0,0,0,0,359,0,0,0,0,0,0,0,0
</chunk>
      <chunk x="176" y="160" width="16" height="16">
0,0,0,0,0,0,0,0,0,0,0,0,0,0,359,0,
0,0,0,0,0,0,0,0,0,0,0,0,0,0,359,0,
0,0,0,0,0,0,0,0,0,0,0,0,0,0,359,0,
0,0,0,0,0,0,0,0,0,0,0,0,0,0,359,0,
0,0,0,0,0,0,0,0,0,0,0,0,0,0,359,0,
0,0,0,0,0,0,0,0,0,0,0,0,0,0,359,0,
0,0,0,0,0,0,0,0,0,0,0,0,0,0,359,0,
0,0,0,0,0,0,0,0,0,0,0,0,0,0,359,0,
0,0,0,0,0,0,0,0,0,0,0,0,0,0,359,0,
0,0,0,0,0,0,0,0,0,0,0,0,0,0,359,0,
0,0,0,0,0,0,0,0,0,0,0,0,0,0,359,0,
0,0,0,0,0,0,0,0,0,0,0,0,0,0,359,0,
0,0,0,0,0,0,0,0,0,0,0,0,0,0,359,0,
0,0,0,0,0,0,0,0,0,0,0,0,0,0,359,0,
0,0,0,0,0,0,0,0,0,0,0,0,0,0,359,0,
0,0,0,0,0,0,0,0,0,0,0,0,0,0,359,0
</chunk>
      <chunk x="112" y="176" width="16" height="16">
0,0,0,0,0,0,0,359,0,0,0,0,0,0,0,0,
0,0,0,0,0,0,0,359,0,0,0,0,0,0,0,0,
0,0,0,0,0,0,0,359,0,0,0,0,0,0,0,0,
0,0,0,0,0,0,0,359,0,0,0,0,0,0,0,0,
0,0,0,0,0,0,0,359,0,0,0,0,0,0,0,0,
0,0,0,0,0,0,0,359,0,0,0,0,0,0,0,0,
0,0,0,0,0,0,0,359,0,0,0,0,0,0,0,0,
0,0,0,0,0,0,0,359,0,0,0,0,0,0,0,0,
0,0,0,0,0,0,0,359,0,0,0,0,0,0,0,0,
0,0,0,0,0,0,0,359,0,0,0,0,0,0,0,0,
0,0,0,0,0,0,0,359,0,0,0,0,0,0,0,0,
0,0,0,0,0,0,0,359,0,0,0,0,0,0,0,0,
0,0,0,0,0,0,0,359,0,0,0,0,0,0,0,0,
0,0,0,0,0,0,0,359,0,0,0,0,0,0,0,0,
0,0,0,0,0,0,0,359,0,0,0,0,0,0,0,0,
0,0,0,0,0,0,0,359,0,0,0,0,0,0,0,0
</chunk>
      <chunk x="176" y="176" width="16" height="16">
0,0,0,0,0,0,0,0,0,0,0,0,0,0,359,0,
0,0,0,0,0,0,0,0,0,0,0,0,0,0,359,0,
0,0,0,0,0,0,0,0,0,0,0,0,0,0,359,0,
0,0,0,0,0,0,0,0,0,0,0,0,0,0,359,0,
0,0,0,0,0,0,0,0,0,0,0,0,0,0,359,0,
0,0,0,0,0,0,0,0,0,0,0,0,0,0,359,0,
0,0,0,0,0,0,0,0,0,0,0,0,0,0,359,0,
0,0,0,0,0,0,0,0,0,0,0,0,0,0,359,0,
0,0,0,0,0,0,0,0,0,0,0,0,0,0,359,0,
0,0,0,0,0,0,0,0,0,0,0,0,0,0,359,0,
0,0,0,0,0,0,0,0,0,0,0,0,0,0,359,0,
0,0,0,0,0,0,0,0,0,0,0,0,0,0,359,0,
0,0,0,0,0,0,0,0,0,0,0,0,0,0,359,0,
0,0,0,0,0,0,0,0,0,0,0,0,0,0,359,0,
0,0,0,0,0,0,0,0,0,0,0,0,0,0,359,0,
0,0,0,0,0,0,0,0,0,0,0,0,0,0,359,0
</chunk>
      <chunk x="112" y="192" width="16" height="16">
0,0,0,0,0,0,0,359,0,0,0,0,0,0,0,0,
0,0,0,0,0,0,0,359,0,0,0,0,0,0,0,0,
0,0,0,0,0,0,0,359,0,0,0,0,0,0,0,0,
0,0,0,0,0,0,0,359,0,0,0,0,0,0,0,0,
0,0,0,0,0,0,0,359,0,0,0,0,0,0,0,0,
0,0,0,0,0,0,0,359,0,0,0,0,0,0,0,0,
0,0,0,0,0,0,0,359,0,0,0,0,0,0,0,0,
0,0,0,0,0,0,0,359,0,0,0,0,0,0,0,0,
0,0,0,0,0,0,0,359,0,0,0,0,0,0,0,0,
0,0,0,0,0,0,0,359,0,0,0,0,0,0,0,0,
0,0,0,0,0,0,0,359,0,0,0,0,0,0,0,0,
0,0,0,0,0,0,0,359,0,0,0,0,0,0,0,0,
0,0,0,0,0,0,0,359,0,0,0,0,0,0,0,0,
0,0,0,0,0,0,0,359,0,0,0,0,0,0,0,0,
0,0,0,0,0,0,0,359,0,0,0,0,0,0,0,0,
0,0,0,0,0,0,0,359,0,0,0,0,0,0,0,0
</chunk>
      <chunk x="176" y="192" width="16" height="16">
0,0,0,0,0,0,0,0,0,0,0,0,0,0,359,0,
0,0,0,0,0,0,0,0,0,0,0,0,0,0,359,0,
0,0,0,0,0,0,0,0,0,0,0,0,0,0,359,0,
0,0,0,0,0,0,0,0,0,0,0,0,0,0,359,0,
0,0,0,0,0,0,0,0,0,0,0,0,0,0,359,0,
0,0,0,0,0,0,0,0,0,0,0,0,0,0,359,0,
0,0,0,0,0,0,0,0,0,0,0,0,0,0,359,0,
0,0,0,0,0,0,0,0,0,0,0,0,0,0,359,0,
0,0,0,0,0,0,0,0,0,0,0,0,0,0,359,0,
0,0,0,0,0,0,0,0,0,0,0,0,0,0,359,0,
0,0,0,0,0,0,0,0,0,0,0,0,0,0,359,0,
0,0,0,0,0,0,0,0,0,0,0,0,0,0,359,0,
0,0,0,0,0,0,0,0,0,0,0,0,0,0,359,0,
0,0,0,0,0,0,0,0,0,0,0,0,0,0,359,0,
0,0,0,0,0,0,0,0,0,0,0,0,0,0,359,0,
0,0,0,0,0,0,0,0,0,0,0,0,0,0,359,0
</chunk>
      <chunk x="112" y="208" width="16" height="16">
0,0,0,0,0,0,0,359,0,0,0,0,0,0,0,0,
0,0,0,0,0,0,0,359,0,0,0,0,0,0,0,0,
0,0,0,0,0,0,0,359,0,0,0,0,0,0,0,0,
0,0,0,0,0,0,0,359,0,0,0,0,0,0,0,0,
0,0,0,0,0,0,0,359,0,0,0,0,0,0,0,0,
0,0,0,0,0,0,0,359,0,0,0,0,0,0,0,0,
0,0,0,0,0,0,0,359,0,0,0,0,0,0,0,0,
0,0,0,0,0,0,0,359,0,0,0,0,0,0,0,0,
0,0,0,0,0,0,0,359,0,0,0,0,0,0,0,0,
0,0,0,0,0,0,0,359,0,0,0,0,0,0,0,0,
0,0,0,0,0,0,0,359,0,0,0,0,0,0,0,0,
0,0,0,0,0,0,0,359,0,0,0,0,0,0,0,0,
0,0,0,0,0,0,0,359,0,0,0,0,0,0,0,0,
0,0,0,0,0,0,0,359,0,0,0,0,0,0,0,0,
0,0,0,0,0,0,0,359,0,0,0,0,0,0,0,0,
0,0,0,0,0,0,0,359,0,0,0,0,0,0,0,0
</chunk>
      <chunk x="176" y="208" width="16" height="16">
0,0,0,0,0,0,0,0,0,0,0,0,0,0,359,0,
0,0,0,0,0,0,0,0,0,0,0,0,0,0,359,0,
0,0,0,0,0,0,0,0,0,0,0,0,0,0,359,0,
0,0,0,0,0,0,0,0,0,0,0,0,0,0,359,0,
0,0,0,0,0,0,0,0,0,0,0,0,0,0,359,0,
0,0,0,0,0,0,0,0,0,0,0,0,0,0,359,0,
0,0,0,0,0,0,0,0,0,0,0,0,0,0,359,0,
0,0,0,0,0,0,0,0,0,0,0,0,0,0,359,0,
0,0,0,0,0,0,0,0,0,0,0,0,0,0,359,0,
0,0,0,0,0,0,0,0,0,0,0,0,0,0,359,0,
0,0,0,0,0,0,0,0,0,0,0,0,0,0,359,0,
0,0,0,0,0,0,0,0,0,0,0,0,0,0,359,0,
0,0,0,0,0,0,0,0,0,0,0,0,0,0,359,0,
0,0,0,0,0,0,0,0,0,0,0,0,0,0,359,0,
0,0,0,0,0,0,0,0,0,0,0,0,0,0,359,0,
0,0,0,0,0,0,0,0,0,0,0,0,0,0,359,0
</chunk>
      <chunk x="112" y="224" width="16" height="16">
0,0,0,0,0,0,0,359,0,0,0,0,0,0,0,0,
0,0,0,0,0,0,0,359,0,0,0,0,0,0,0,0,
0,0,0,0,0,0,0,359,0,0,0,0,0,0,0,0,
0,0,0,0,0,0,0,359,0,0,0,0,0,0,0,0,
0,0,0,0,0,0,0,359,0,0,0,0,0,0,0,0,
0,0,0,0,0,0,0,359,0,0,0,0,0,0,0,0,
0,0,0,0,0,0,0,359,0,0,0,0,0,0,0,0,
0,0,0,0,0,0,0,359,0,0,0,0,0,0,0,0,
0,0,0,0,0,0,0,359,0,0,0,0,0,0,0,0,
0,0,0,0,0,0,0,359,0,0,0,0,0,0,0,0,
0,0,0,0,0,0,0,359,0,0,0,0,0,0,0,0,
0,0,0,0,0,0,0,359,0,0,0,0,0,0,0,0,
0,0,0,0,0,0,0,359,0,0,0,0,0,0,0,0,
0,0,0,0,0,0,0,359,0,0,0,0,0,0,0,0,
0,0,0,0,0,0,0,359,0,0,0,0,0,0,0,0,
0,0,0,0,0,0,0,359,0,0,0,0,0,0,0,0
</chunk>
      <chunk x="176" y="224" width="16" height="16">
0,0,0,0,0,0,0,0,0,0,0,0,0,0,359,0,
0,0,0,0,0,0,0,0,0,0,0,0,0,0,359,0,
0,0,0,0,0,0,0,0,0,0,0,0,0,0,359,0,
0,0,0,0,0,0,0,0,0,0,0,0,0,0,359,0,
0,0,0,0,0,0,0,0,0,0,0,0,0,0,359,0,
0,0,0,0,0,0,0,0,0,0,0,0,0,0,359,0,
0,0,0,0,0,0,0,0,0,0,0,0,0,0,359,0,
0,0,0,0,0,0,0,0,0,0,0,0,0,0,359,0,
0,0,0,0,0,0,0,0,0,0,0,0,0,0,359,0,
0,0,0,0,0,0,0,0,0,0,0,0,0,0,359,0,
0,0,0,0,0,0,0,0,0,0,0,0,0,0,359,0,
0,0,0,0,0,0,0,0,0,0,0,0,0,0,359,0,
0,0,0,0,0,0,0,0,0,0,0,0,0,0,359,0,
0,0,0,0,0,0,0,0,0,0,0,0,0,0,359,0,
0,0,0,0,0,0,0,0,0,0,0,0,0,0,359,0,
0,0,0,0,0,0,0,0,0,0,0,0,0,0,359,0
</chunk>
      <chunk x="112" y="240" width="16" height="16">
0,0,0,0,0,0,0,359,0,0,0,0,0,0,0,0,
0,0,0,0,0,0,0,359,0,0,0,0,0,0,0,0,
0,0,0,0,0,0,0,359,0,0,0,0,0,0,0,0,
0,0,0,0,0,0,0,359,0,0,0,0,0,0,0,0,
0,0,0,0,0,0,0,359,0,0,0,0,0,0,0,0,
0,0,0,0,0,0,0,359,0,0,0,0,0,0,0,0,
0,0,0,0,0,0,0,359,0,0,0,0,0,0,0,0,
0,0,0,0,0,0,0,359,0,0,0,0,0,0,0,0,
0,0,0,0,0,0,0,359,0,0,0,0,0,0,0,0,
0,0,0,0,0,0,0,359,0,0,0,0,0,0,0,0,
0,0,0,0,0,0,0,359,0,0,0,0,0,0,0,0,
0,0,0,0,0,0,0,359,0,0,0,0,0,0,0,0,
0,0,0,0,0,0,0,359,0,0,0,0,0,0,0,0,
0,0,0,0,0,0,0,359,0,0,0,0,0,0,0,0,
0,0,0,0,0,0,0,359,0,0,0,0,0,0,0,0,
0,0,0,0,0,0,0,359,0,0,0,0,0,0,0,0
</chunk>
      <chunk x="176" y="240" width="16" height="16">
0,0,0,0,0,0,0,0,0,0,0,0,0,0,359,0,
0,0,0,0,0,0,0,0,0,0,0,0,0,0,359,0,
0,0,0,0,0,0,0,0,0,0,0,0,0,0,359,0,
0,0,0,0,0,0,0,0,0,0,0,0,0,0,359,0,
0,0,0,0,0,0,0,0,0,0,0,0,0,0,359,0,
0,0,0,0,0,0,0,0,0,0,0,0,0,0,359,0,
0,0,0,0,0,0,0,0,0,0,0,0,0,0,359,0,
0,0,0,0,0,0,0,0,0,0,0,0,0,0,359,0,
0,0,0,0,0,0,0,0,0,0,0,0,0,0,359,0,
0,0,0,0,0,0,0,0,0,0,0,0,0,0,359,0,
0,0,0,0,0,0,0,0,0,0,0,0,0,0,359,0,
0,0,0,0,0,0,0,0,0,0,0,0,0,0,359,0,
0,0,0,0,0,0,0,0,0,0,0,0,0,0,359,0,
0,0,0,0,0,0,0,0,0,0,0,0,0,0,359,0,
0,0,0,0,0,0,0,0,0,0,0,0,0,0,359,0,
0,0,0,0,0,0,0,0,0,0,0,0,0,0,359,0
</chunk>
      <chunk x="112" y="256" width="16" height="16">
0,0,0,0,0,0,0,359,0,0,0,0,0,0,0,0,
0,0,0,0,0,0,0,359,0,0,0,0,0,0,0,0,
0,0,0,0,0,0,0,359,0,0,0,0,0,0,0,0,
0,0,0,0,0,0,0,359,0,0,0,0,0,0,0,0,
0,0,0,0,0,0,0,359,0,0,0,0,0,0,0,0,
0,0,0,0,0,0,0,359,0,0,0,0,0,0,0,0,
0,0,0,0,0,0,0,359,0,0,0,0,0,0,0,0,
0,0,0,0,0,0,0,359,0,0,0,0,0,0,0,0,
0,0,0,0,0,0,0,359,0,0,0,0,0,0,0,0,
0,0,0,0,0,0,0,359,0,0,0,0,0,0,0,0,
0,0,0,0,0,0,0,359,0,0,0,0,0,0,0,0,
0,0,0,0,0,0,0,359,0,0,0,0,0,0,0,0,
0,0,0,0,0,0,0,359,0,0,0,0,0,0,0,0,
0,0,0,0,0,0,0,359,0,0,0,0,0,0,0,0,
0,0,0,0,0,0,0,359,0,0,0,0,0,0,0,0,
0,0,0,0,0,0,0,359,0,0,0,0,0,0,0,0
</chunk>
      <chunk x="176" y="256" width="16" height="16">
0,0,0,0,0,0,0,0,0,0,0,0,0,0,359,0,
0,0,0,0,0,0,0,0,0,0,0,0,0,0,359,0,
0,0,0,0,0,0,0,0,0,0,0,0,0,0,359,0,
0,0,0,0,0,0,0,0,0,0,0,0,0,0,359,0,
0,0,0,0,0,0,0,0,0,0,0,0,0,0,359,0,
0,0,0,0,0,0,0,0,0,0,0,0,0,0,359,0,
0,0,0,0,0,0,0,0,0,0,0,0,0,0,359,0,
0,0,0,0,0,0,0,0,0,0,0,0,0,0,359,0,
0,0,0,0,0,0,0,0,0,0,0,0,0,0,359,0,
0,0,0,0,0,0,0,0,0,0,0,0,0,0,359,0,
0,0,0,0,0,0,0,0,0,0,0,0,0,0,359,0,
0,0,0,0,0,0,0,0,0,0,0,0,0,0,359,0,
0,0,0,0,0,0,0,0,0,0,0,0,0,0,359,0,
0,0,0,0,0,0,0,0,0,0,0,0,0,0,359,0,
0,0,0,0,0,0,0,0,0,0,0,0,0,0,359,0,
0,0,0,0,0,0,0,0,0,0,0,0,0,0,359,0
</chunk>
      <chunk x="112" y="272" width="16" height="16">
0,0,0,0,0,0,0,359,0,0,0,0,0,0,0,0,
0,0,0,0,0,0,0,359,0,0,0,0,0,0,0,0,
0,0,0,0,0,0,0,359,0,0,0,0,0,0,0,0,
0,0,0,0,0,0,0,359,0,0,0,0,0,0,0,0,
0,0,0,0,0,0,0,359,0,0,0,0,0,0,0,0,
0,0,0,0,0,0,0,359,0,0,0,0,0,0,0,0,
0,0,0,0,0,0,0,359,0,0,0,0,0,0,0,0,
0,0,0,0,0,0,0,359,0,0,0,0,0,0,0,0,
0,0,0,0,0,0,0,406,407,407,407,407,407,407,407,407,
0,0,0,0,0,0,0,2288,2289,2289,2289,2289,2289,2289,2289,2289,
0,0,0,0,0,0,0,2337,2338,2338,2338,2338,2338,2338,2338,2338,
0,0,0,0,0,0,0,2337,2338,2338,2338,2338,2338,2338,2338,2338,
0,0,0,0,0,0,0,2337,2338,2338,2338,2338,2338,2338,2338,2338,
0,0,0,0,0,0,0,2386,2387,2387,2387,2387,2387,2387,2387,2387,
0,0,0,0,0,0,0,0,0,0,0,0,0,0,0,0,
0,0,0,0,0,0,0,0,0,0,0,0,0,0,0,0
</chunk>
      <chunk x="128" y="272" width="16" height="16">
0,0,0,0,0,0,0,0,0,0,0,0,0,0,0,0,
0,0,0,0,0,0,0,0,0,0,0,0,0,0,0,0,
0,0,0,0,0,0,0,0,0,0,0,0,0,0,0,0,
0,0,0,0,0,0,0,0,0,0,0,0,0,0,0,0,
0,0,0,0,0,0,0,0,0,0,0,0,0,0,0,0,
0,0,0,0,0,0,0,0,0,0,0,0,0,0,0,0,
0,0,0,0,0,0,0,0,0,0,0,0,0,0,0,0,
0,0,0,0,0,0,0,0,0,0,0,0,0,0,0,0,
407,407,407,407,407,407,407,407,407,407,407,407,407,407,407,407,
2289,2289,2289,2289,2289,2289,2289,2289,2289,2289,2289,2289,2289,2289,2289,2289,
2338,2338,2338,2338,2338,2338,2338,2338,2338,2338,2338,2338,2338,2338,2338,2338,
2338,2338,2338,2338,2338,2338,2338,2338,2338,2338,2338,2338,2338,2338,2338,2338,
2338,2338,2338,2338,2338,2338,2338,2338,2338,2338,2338,2338,2338,2338,2338,2338,
2387,2387,2387,2387,2387,2387,2387,2387,2387,2387,2387,2387,2387,2387,2387,2387,
0,0,0,0,0,0,0,0,0,0,0,0,0,0,0,0,
0,0,0,0,0,0,0,0,0,0,0,0,0,0,0,0
</chunk>
      <chunk x="144" y="272" width="16" height="16">
0,0,0,0,0,0,0,0,0,0,0,0,0,0,0,0,
0,0,0,0,0,0,0,0,0,0,0,0,0,0,0,0,
0,0,0,0,0,0,0,0,0,0,0,0,0,0,0,0,
0,0,0,0,0,0,0,0,0,0,0,0,0,0,0,0,
0,0,0,0,0,0,0,0,0,0,0,0,0,0,0,0,
0,0,0,0,0,0,0,0,0,0,0,0,0,0,0,0,
0,0,0,0,0,0,0,0,0,0,0,0,0,0,0,0,
0,0,0,0,0,0,0,0,0,0,0,0,0,0,0,0,
407,407,407,407,407,407,407,407,407,407,407,407,407,407,407,407,
2289,2289,2289,2289,2289,2289,2289,2289,2289,2289,2289,2289,2289,2289,2289,2289,
2338,2338,2338,2338,2338,2338,2338,2338,2338,2338,2338,2338,2338,2338,2338,2338,
2338,2338,2338,2338,2338,2338,2338,2338,2338,2338,2338,2338,2338,2338,2338,2338,
2338,2338,2338,2338,2338,2338,2338,2338,2338,2338,2338,2338,2338,2338,2338,2338,
2387,2387,2387,2387,2387,2387,2387,2387,2387,2387,2387,2387,2387,2387,2387,2387,
0,0,0,0,0,0,0,0,0,0,0,0,0,0,0,0,
0,0,0,0,0,0,0,0,0,0,0,0,0,0,0,0
</chunk>
      <chunk x="160" y="272" width="16" height="16">
0,0,0,0,0,0,0,0,0,0,0,0,0,0,0,0,
0,0,0,0,0,0,0,0,0,0,0,0,0,0,0,0,
0,0,0,0,0,0,0,0,0,0,0,0,0,0,0,0,
0,0,0,0,0,0,0,0,0,0,0,0,0,0,0,0,
0,0,0,0,0,0,0,0,0,0,0,0,0,0,0,0,
0,0,0,0,0,0,0,0,0,0,0,0,0,0,0,0,
0,0,0,0,0,0,0,0,0,0,0,0,0,0,0,0,
0,0,0,0,0,0,0,0,0,0,0,0,0,0,0,0,
407,407,407,407,407,407,407,407,407,407,407,407,407,407,407,407,
2289,2289,2289,2289,2289,2289,2289,2289,2289,2289,2289,2289,2289,2289,2289,2289,
2338,2338,2338,2338,2338,2338,2338,2338,2338,2338,2338,2338,2338,2338,2338,2338,
2338,2338,2338,2338,2338,2338,2338,2338,2338,2338,2338,2338,2338,2338,2338,2338,
2338,2338,2338,2338,2338,2338,2338,2338,2338,2338,2338,2338,2338,2338,2338,2338,
2387,2387,2387,2387,2387,2387,2387,2387,2387,2387,2387,2387,2387,2387,2387,2387,
0,0,0,0,0,0,0,0,0,0,0,0,0,0,0,0,
0,0,0,0,0,0,0,0,0,0,0,0,0,0,0,0
</chunk>
      <chunk x="176" y="272" width="16" height="16">
0,0,0,0,0,0,0,0,0,0,0,0,0,0,359,0,
0,0,0,0,0,0,0,0,0,0,0,0,0,0,359,0,
0,0,0,0,0,0,0,0,0,0,0,0,0,0,359,0,
0,0,0,0,0,0,0,0,0,0,0,0,0,0,359,0,
0,0,0,0,0,0,0,0,0,0,0,0,0,0,359,0,
0,0,0,0,0,0,0,0,0,0,0,0,0,0,359,0,
0,0,0,0,0,0,0,0,0,0,0,0,0,0,359,0,
0,0,0,0,0,0,0,0,0,0,0,0,0,0,359,0,
407,407,407,407,407,407,407,407,407,407,407,407,407,407,408,0,
2289,2289,2289,2289,2289,2289,2289,2289,2289,2289,2289,2289,2289,2289,2290,0,
2338,2338,2338,2338,2338,2338,2338,2338,2338,2338,2338,2338,2338,2338,2339,0,
2338,2338,2338,2338,2338,2338,2338,2338,2338,2338,2338,2338,2338,2338,2339,0,
2338,2338,2338,2338,2338,2338,2338,2338,2338,2338,2338,2338,2338,2338,2339,0,
2387,2387,2387,2387,2387,2387,2387,2387,2387,2387,2387,2387,2387,2387,2388,0,
0,0,0,0,0,0,0,0,0,0,0,0,0,0,0,0,
0,0,0,0,0,0,0,0,0,0,0,0,0,0,0,0
</chunk>
    </data>
  </layer>
  <objectgroup id="12" name="Object Layer 2">
    <object id="55" gid="6945" x="7485.23" y="-4625.43" width="48" height="48" />
    <object id="57" gid="6945" x="7346.48" y="-4623.18" width="48" height="48" />
    <object id="58" gid="6993" x="7469.48" y="-4608.68" width="48" height="48" />
    <object id="59" gid="2147490641" x="7363.48" y="-4608.43" width="48" height="48" />
    <object id="60" gid="7099" x="7417.48" y="-4607.93" width="48" height="48" />
    <object id="61" gid="6913" x="7417.25" y="-4936" width="48" height="48" />
    <object id="62" gid="6929" x="7417.25" y="-4888.18" width="48" height="48" />
    <object id="663" gid="6964" x="6047" y="-4753" width="48" height="48" />
    <object id="664" gid="6948" x="6047" y="-4801" width="48" height="48" />
    <object id="665" gid="6932" x="6047" y="-4849" width="48" height="48" />
    <object id="666" gid="6916" x="6047" y="-4897" width="48" height="48" />
    <object id="667" gid="6915" x="5999" y="-4897" width="48" height="48" />
    <object id="668" gid="6931" x="5999" y="-4849" width="48" height="48" />
    <object id="669" gid="6914" x="5951" y="-4897" width="48" height="48" />
    <object id="670" gid="6930" x="5951" y="-4849" width="48" height="48" />
    <object id="671" gid="6946" x="5951" y="-4801" width="48" height="48" />
    <object id="672" gid="6947" x="5999" y="-4801" width="48" height="48" />
    <object id="673" gid="6963" x="5999" y="-4753" width="48" height="48" />
    <object id="674" gid="6962" x="5951" y="-4753" width="48" height="48" />
    <object id="740" gid="11939" x="11952.3" y="-129.894" width="48" height="48" />
    <object id="741" gid="11940" x="12000.3" y="-129.894" width="48" height="48" />
    <object id="742" gid="11941" x="12048.3" y="-129.894" width="48" height="48" />
    <object id="743" gid="11948" x="11952.3" y="-81.8939" width="48" height="48" />
    <object id="744" gid="11949" x="12000.3" y="-81.8939" width="48" height="48" />
    <object id="745" gid="11950" x="12048.3" y="-81.8939" width="48" height="48" />
    <object id="746" gid="11957" x="11952.3" y="-33.8939" width="48" height="48" />
    <object id="747" gid="11958" x="12000.3" y="-33.8939" width="48" height="48" />
    <object id="748" gid="11959" x="12048.3" y="-33.8939" width="48" height="48" />
    <object id="749" gid="11966" x="11952.3" y="14.1061" width="48" height="48" />
    <object id="750" gid="11967" x="12000.3" y="14.1061" width="48" height="48" />
    <object id="751" gid="11968" x="12048.3" y="14.1061" width="48" height="48" />
    <object id="752" gid="11939" x="12668.8" y="-130.008" width="48" height="48" />
    <object id="753" gid="11940" x="12716.8" y="-130.008" width="48" height="48" />
    <object id="754" gid="11941" x="12764.8" y="-130.008" width="48" height="48" />
    <object id="755" gid="11948" x="12668.8" y="-82.0079" width="48" height="48" />
    <object id="756" gid="11949" x="12716.8" y="-82.0079" width="48" height="48" />
    <object id="757" gid="11950" x="12764.8" y="-82.0079" width="48" height="48" />
    <object id="758" gid="11957" x="12668.8" y="-34.0079" width="48" height="48" />
    <object id="759" gid="11958" x="12716.8" y="-34.0079" width="48" height="48" />
    <object id="760" gid="11959" x="12764.8" y="-34.0079" width="48" height="48" />
    <object id="761" gid="11966" x="12668.8" y="13.9921" width="48" height="48" />
    <object id="762" gid="11967" x="12716.8" y="13.9921" width="48" height="48" />
    <object id="763" gid="11968" x="12764.8" y="13.9921" width="48" height="48" />
    <object id="1195" gid="11079" x="11908" y="28" width="48" height="48" />
    <object id="1196" gid="11063" x="11908" y="-20" width="48" height="48" />
    <object id="1197" gid="2147494727" x="12099" y="29.5" width="48" height="48" />
    <object id="1198" gid="2147494711" x="12099" y="-18.5" width="48" height="48" />
    <object id="1199" gid="11079" x="12615" y="31.75" width="48" height="48" />
    <object id="1200" gid="11063" x="12615" y="-16.25" width="48" height="48" />
    <object id="1201" gid="2147494727" x="12825.5" y="28.5" width="48" height="48" />
    <object id="1202" gid="2147494711" x="12825.5" y="-19.5" width="48" height="48" />
    <object id="1213" gid="11939" x="2069.88" y="-129.432" width="48" height="48" />
    <object id="1214" gid="11940" x="2117.88" y="-129.432" width="48" height="48" />
    <object id="1215" gid="11941" x="2165.88" y="-129.432" width="48" height="48" />
    <object id="1216" gid="11948" x="2069.88" y="-81.4316" width="48" height="48" />
    <object id="1217" gid="11949" x="2117.88" y="-81.4316" width="48" height="48" />
    <object id="1218" gid="11950" x="2165.88" y="-81.4316" width="48" height="48" />
    <object id="1219" gid="11957" x="2069.88" y="-33.4316" width="48" height="48" />
    <object id="1220" gid="11958" x="2117.88" y="-33.4316" width="48" height="48" />
    <object id="1221" gid="11959" x="2165.88" y="-33.4316" width="48" height="48" />
    <object id="1222" gid="11966" x="2069.88" y="14.5684" width="48" height="48" />
    <object id="1223" gid="11967" x="2117.88" y="14.5684" width="48" height="48" />
    <object id="1224" gid="11968" x="2165.88" y="14.5684" width="48" height="48" />
    <object id="1225" gid="11939" x="2786.38" y="-129.546" width="48" height="48" />
    <object id="1226" gid="11940" x="2834.38" y="-129.546" width="48" height="48" />
    <object id="1227" gid="11941" x="2882.38" y="-129.546" width="48" height="48" />
    <object id="1228" gid="11948" x="2786.38" y="-81.5456" width="48" height="48" />
    <object id="1229" gid="11949" x="2834.38" y="-81.5456" width="48" height="48" />
    <object id="1230" gid="11950" x="2882.38" y="-81.5456" width="48" height="48" />
    <object id="1231" gid="11957" x="2786.38" y="-33.5456" width="48" height="48" />
    <object id="1232" gid="11958" x="2834.38" y="-33.5456" width="48" height="48" />
    <object id="1233" gid="11959" x="2882.38" y="-33.5456" width="48" height="48" />
    <object id="1234" gid="11966" x="2786.38" y="14.4544" width="48" height="48" />
    <object id="1235" gid="11967" x="2834.38" y="14.4544" width="48" height="48" />
    <object id="1236" gid="11968" x="2882.38" y="14.4544" width="48" height="48" />
    <object id="1237" gid="11079" x="2025.58" y="28.4623" width="48" height="48" />
    <object id="1238" gid="11063" x="2025.58" y="-19.5377" width="48" height="48" />
    <object id="1239" gid="2147494727" x="2216.58" y="29.9623" width="48" height="48" />
    <object id="1240" gid="2147494711" x="2216.58" y="-18.0377" width="48" height="48" />
    <object id="1241" gid="11079" x="2732.58" y="32.2123" width="48" height="48" />
    <object id="1242" gid="11063" x="2732.58" y="-15.7877" width="48" height="48" />
    <object id="1243" gid="2147494727" x="2943.08" y="28.9623" width="48" height="48" />
    <object id="1244" gid="2147494711" x="2943.08" y="-19.0377" width="48" height="48" />
    <object id="1318" gid="7024" x="7246.67" y="-1824.67" width="48" height="48" />
    <object id="1319" gid="7008" x="7246.67" y="-1872.67" width="48" height="48" />
    <object id="1320" gid="7008" x="7246.67" y="-1555.33" width="48" height="48" />
    <object id="1321" gid="7024" x="7246.67" y="-1507.33" width="48" height="48" />
    <object id="1322" gid="7025" x="7583.33" y="-1821.33" width="48" height="48" />
    <object id="1323" gid="7025" x="7584" y="-1506" width="48" height="48" />
    <object id="1324" gid="7009" x="7584" y="-1554" width="48" height="48" />
    <object id="1325" gid="7009" x="7583.33" y="-1869.33" width="48" height="48" />
    <object id="1326" gid="7103" x="7536" y="-1776" width="48" height="48" />
    <object id="1327" gid="7103" x="7296" y="-1776" width="48" height="48" />
    <object id="1328" gid="7103" x="7296" y="-1536" width="48" height="48" />
    <object id="1329" gid="7103" x="7536" y="-1536" width="48" height="48" />
  </objectgroup>
  <layer id="5" name="Tile Layer 4" width="30" height="20" locked="1">
    <data encoding="csv">
      <chunk x="112" y="-112" width="16" height="16">
0,0,0,0,0,0,0,0,0,0,0,0,0,0,0,0,
0,0,0,0,0,0,0,0,0,0,0,0,0,0,0,0,
0,0,0,0,0,0,0,0,0,0,0,0,0,0,0,0,
0,0,0,0,0,0,0,0,0,0,0,0,0,0,0,0,
0,0,0,0,0,0,0,0,0,0,0,0,0,0,0,0,
0,0,0,0,0,0,0,0,0,0,0,0,0,0,0,0,
0,0,0,0,0,0,0,0,11373,11373,11373,11373,11373,11373,11373,11373,
0,0,0,0,0,0,0,0,11373,11373,11373,11373,11373,11373,11373,11373,
0,0,0,0,0,0,0,0,11373,11373,11373,11373,11373,11373,11373,11373,
0,0,0,0,0,0,0,0,11373,11373,11373,11373,11373,11373,11373,11373,
0,0,0,0,0,0,0,0,11373,11373,11373,11373,11373,11373,11373,11373,
0,0,0,0,0,0,0,0,11373,11373,11373,11373,11373,11373,11373,11373,
0,0,0,0,0,0,0,0,11373,11373,11373,11373,11373,11373,11373,11373,
0,0,0,0,0,0,0,0,11373,11373,11373,11373,11373,11373,11373,11373,
0,0,0,0,0,0,0,0,11373,11373,11373,11373,11373,11373,11373,11373,
0,0,0,0,0,0,0,0,0,0,0,0,0,0,0,0
</chunk>
      <chunk x="128" y="-112" width="16" height="16">
0,0,0,0,0,0,0,0,0,0,0,0,0,0,0,0,
0,0,0,0,0,0,0,0,0,0,0,0,0,0,0,0,
0,0,0,0,0,0,0,0,0,0,0,0,0,0,0,0,
0,0,0,0,0,0,0,0,0,0,0,0,0,0,0,0,
0,0,0,0,0,0,0,0,0,0,0,0,0,0,0,0,
0,0,0,0,0,0,0,0,0,0,0,0,0,0,0,0,
0,0,0,0,0,0,0,0,0,0,0,0,0,0,0,0,
0,0,0,0,0,0,0,0,0,0,0,0,0,0,0,0,
0,0,10791,10792,10793,0,0,0,0,0,0,0,0,0,0,10791,
0,0,10807,10808,10809,0,0,0,0,0,0,0,0,0,0,10807,
0,0,10823,10824,10825,0,0,0,0,0,0,0,0,0,0,10823,
0,0,10839,10840,10841,0,0,0,0,0,0,0,0,0,0,10839,
0,0,10855,10856,10857,0,0,0,0,0,0,0,0,0,0,10855,
0,0,0,0,0,0,0,0,0,0,0,0,0,0,0,0,
0,0,0,0,0,0,0,0,0,0,0,0,0,0,0,0,
0,0,0,0,0,0,0,0,0,0,0,0,0,0,0,0
</chunk>
      <chunk x="144" y="-112" width="16" height="16">
0,0,0,0,0,0,0,0,0,0,0,0,0,0,0,0,
0,0,0,0,0,0,0,0,0,0,0,0,0,0,0,0,
0,0,0,0,0,0,0,0,0,0,0,0,0,0,0,0,
0,0,0,0,0,0,0,0,0,0,0,0,0,0,0,0,
0,0,0,0,0,0,0,0,0,0,0,0,0,0,0,0,
0,0,0,0,0,0,0,0,0,0,0,0,0,0,0,0,
0,0,0,0,0,0,0,0,0,0,0,0,0,0,0,0,
0,0,0,0,0,0,0,11288,11289,11299,11288,11289,11299,11288,11289,0,
10792,10793,0,0,0,0,7017,0,10784,10785,0,0,10784,10785,0,7017,
10808,10809,0,0,0,0,7033,0,10800,10801,0,0,10800,10801,0,7033,
10824,10825,0,0,0,0,0,0,10816,10817,0,0,10816,10817,0,0,
10840,10841,0,0,0,0,0,0,0,0,0,0,0,0,0,0,
10856,10857,0,0,0,10974,10975,0,0,0,0,0,0,0,0,10974,
0,0,0,0,0,10974,10975,0,0,0,0,0,0,0,0,10974,
0,0,0,0,0,0,0,0,0,0,0,0,0,0,0,0,
0,0,0,0,0,0,0,0,0,0,0,0,0,0,0,0
</chunk>
      <chunk x="160" y="-112" width="16" height="16">
0,0,0,0,0,0,0,0,0,0,0,0,0,0,0,0,
0,0,0,0,0,0,0,0,0,0,0,0,0,0,0,0,
0,0,0,0,0,0,0,0,0,0,0,0,0,0,0,0,
0,0,0,0,0,0,0,0,0,0,0,0,0,0,0,0,
0,0,0,0,0,0,0,0,0,0,0,0,0,0,0,0,
0,0,0,0,0,0,0,0,0,0,0,0,0,0,0,0,
0,0,0,0,0,0,0,0,0,0,0,0,0,0,0,0,
0,0,0,0,0,0,0,0,0,0,0,0,0,0,0,0,
0,0,0,0,10791,10792,10793,0,0,0,0,0,0,0,0,0,
0,0,0,0,10807,10808,10809,0,0,0,0,0,0,0,0,0,
0,0,0,0,10823,10824,10825,0,0,0,0,0,0,0,0,0,
0,0,0,0,10839,10840,10841,0,0,0,0,0,0,0,0,0,
0,0,0,0,10855,10856,10857,0,0,0,0,0,0,0,0,0,
0,0,0,0,0,0,0,0,0,0,0,0,0,0,0,0,
0,0,0,0,0,0,0,0,0,0,0,0,0,0,0,0,
0,0,0,0,0,0,0,0,0,0,0,0,0,0,0,0
</chunk>
      <chunk x="176" y="-112" width="16" height="16">
0,0,0,0,0,0,0,0,0,0,0,0,0,0,0,0,
0,0,0,0,0,0,0,0,0,0,0,0,0,0,0,0,
0,0,0,0,0,0,0,0,0,0,0,0,0,0,0,0,
0,0,0,0,0,0,0,0,0,0,0,0,0,0,0,0,
0,0,0,0,0,0,0,0,0,0,0,0,0,0,0,0,
0,0,0,0,0,0,0,0,0,0,0,0,0,0,0,0,
0,0,0,0,0,0,0,0,0,0,0,0,0,0,0,0,
0,0,0,0,0,0,0,0,0,0,0,0,0,0,0,0,
0,10791,10792,10793,0,11373,11373,11373,11373,11373,11373,11373,11373,0,0,0,
0,10807,10808,10809,0,11373,11373,11373,11373,11373,11373,11373,11373,0,0,0,
0,10823,10824,10825,0,11373,11373,11373,11373,11373,11373,11373,11373,0,0,0,
0,10839,10840,10841,0,11373,11373,11373,11373,11373,11373,11373,11373,0,0,0,
0,10855,10856,10857,0,11373,11373,11373,11373,11373,11373,11373,11373,0,0,0,
0,0,0,0,0,11373,11373,11373,11373,11373,11373,11373,11373,0,0,0,
0,0,0,0,0,11373,11373,11373,11373,11373,11373,11373,11373,0,0,0,
0,0,0,0,0,11373,11373,11373,11373,11373,11373,11373,11373,0,0,0
</chunk>
      <chunk x="176" y="-96" width="16" height="16">
0,0,0,0,0,11373,11373,11373,11373,11373,11373,11373,11373,0,0,0,
0,0,0,0,0,11373,11373,11373,11373,11373,11373,11373,11373,0,0,0,
0,0,0,0,0,0,0,0,0,0,0,0,0,0,0,0,
0,0,0,0,0,0,0,0,0,0,0,0,0,0,0,0,
0,0,0,0,0,0,0,0,0,0,0,0,0,0,0,0,
0,0,0,0,0,0,0,0,0,0,0,0,0,0,0,0,
0,0,0,0,0,0,0,0,0,0,0,0,0,0,0,0,
0,0,0,0,0,0,0,0,0,0,0,0,0,0,0,0,
0,0,0,0,0,0,0,0,0,0,0,0,0,0,0,0,
0,0,0,0,0,0,0,0,0,0,0,0,0,0,0,0,
0,0,0,0,0,0,0,0,0,11373,0,0,0,0,0,0,
0,0,0,0,0,0,0,0,0,0,0,0,0,0,0,0,
0,0,0,0,0,0,0,0,0,0,0,0,0,0,0,0,
0,0,0,0,0,0,0,0,0,0,0,0,0,0,0,0,
0,0,0,0,0,0,0,0,0,0,0,0,0,0,0,0,
0,0,0,0,0,0,0,0,0,0,0,0,0,0,0,0
</chunk>
    </data>
  </layer>
</map>